;FLAVOR:UltiGCode
;TIME:13720
;MATERIAL:24158
;MATERIAL2:0
;NOZZLE_DIAMETER:0.4
;MINX:47.606
;MINY:51.915
;MINZ:0.324
;MAXX:175.649
;MAXY:171.084
;MAXZ:5.019
;Generated with Cura_SteamEngine 4.8.0
M82 ;absolute extrusion mode
G0 F3000 Y50 ;avoid prime blob
G92 E0
G92 E0
G10
;LAYER_COUNT:27
;LAYER:-7
M107
G0 F9000 X52.23 Y56.399 Z0.324
;TYPE:SUPPORT-INTERFACE
G11
G1 F1350 X52.926 Y55.753 E0.24614
G1 X53.065 Y55.634 E0.29356
G1 X53.747 Y55.087 E0.52017
G1 X53.907 Y54.968 E0.57186
G1 X54.61 Y54.484 E0.79308
G1 X54.794 Y54.367 E0.8496
G1 X55.55 Y53.924 E1.07672
G1 X55.692 Y53.847 E1.11859
G1 X56.524 Y53.438 E1.3589
G1 X56.637 Y53.388 E1.39092
G1 X57.487 Y53.045 E1.62851
G1 X57.66 Y52.983 E1.67614
G1 X58.498 Y52.714 E1.90427
G1 X58.662 Y52.668 E1.94842
G1 X59.534 Y52.456 E2.18102
G1 X59.696 Y52.423 E2.22387
G1 X60.589 Y52.275 E2.4585
G1 X60.766 Y52.252 E2.50476
G1 X61.66 Y52.169 E2.73748
G1 X61.802 Y52.162 E2.77433
G1 X62.543 Y52.141 E2.96648
G1 X160.468 Y52.142 E28.34864
G1 X161.469 Y52.178 E28.60827
G1 X161.592 Y52.187 E28.64023
G1 X162.509 Y52.289 E28.87938
G1 X162.684 Y52.314 E28.9252
G1 X163.573 Y52.478 E29.15952
G1 X163.696 Y52.506 E29.19222
G1 X164.59 Y52.74 E29.43175
G1 X164.753 Y52.789 E29.47587
G1 X165.595 Y53.075 E29.70636
G1 X165.761 Y53.139 E29.75247
G1 X166.564 Y53.48 E29.9786
G1 X166.753 Y53.568 E30.03264
G1 X167.547 Y53.976 E30.26403
G1 X167.664 Y54.043 E30.29897
G1 X168.443 Y54.517 E30.53533
G1 X168.594 Y54.617 E30.58228
G1 X169.308 Y55.128 E30.80986
G1 X169.456 Y55.241 E30.85812
G1 X170.148 Y55.818 E31.09166
G1 X170.256 Y55.914 E31.12911
G1 X170.768 Y56.396 E31.31138
G1 X170.911 Y56.54 E31.36398
G1 X171.556 Y57.235 E31.60975
G1 X171.675 Y57.374 E31.65718
G1 X172.229 Y58.065 E31.88674
G1 X172.333 Y58.204 E31.93174
G1 X172.825 Y58.919 E32.15671
G1 X172.942 Y59.103 E32.21322
G1 X173.382 Y59.852 E32.43839
G1 X173.455 Y59.986 E32.47794
G1 X173.86 Y60.809 E32.71569
G1 X173.921 Y60.946 E32.75456
G1 X174.263 Y61.791 E32.99084
G1 X174.322 Y61.957 E33.03651
G1 X174.593 Y62.799 E33.26578
G1 X174.64 Y62.965 E33.3105
G1 X174.851 Y63.834 E33.54229
G1 X174.885 Y63.997 E33.58545
G1 X175.033 Y64.889 E33.81981
G1 X175.057 Y65.075 E33.86843
G1 X175.138 Y65.959 E34.09852
G1 X175.147 Y66.111 E34.13799
G1 X175.168 Y66.844 E34.32806
G1 X175.168 Y92.138 E40.88426
G1 X175.132 Y93.144 E41.14518
G1 X175.122 Y93.279 E41.18027
G1 X175.02 Y94.196 E41.41942
G1 X174.995 Y94.371 E41.46524
G1 X174.833 Y95.249 E41.69666
G1 X174.803 Y95.383 E41.73226
G1 X174.572 Y96.268 E41.96933
G1 X174.52 Y96.44 E42.01591
G1 X174.234 Y97.282 E42.2464
G1 X174.17 Y97.448 E42.29252
G1 X173.829 Y98.251 E42.51864
G1 X173.748 Y98.426 E42.56863
G1 X173.333 Y99.234 E42.80407
G1 X173.266 Y99.351 E42.83902
G1 X172.792 Y100.13 E43.07537
G1 X172.692 Y100.281 E43.12232
G1 X172.181 Y100.995 E43.3499
G1 X172.068 Y101.143 E43.39817
G1 X171.491 Y101.835 E43.6317
G1 X171.395 Y101.943 E43.66916
G1 X170.913 Y102.455 E43.85142
G1 X170.777 Y102.591 E43.90128
G1 X170.074 Y103.243 E44.1498
G1 X169.935 Y103.362 E44.19723
G1 X169.25 Y103.912 E44.42493
G1 X169.105 Y104.02 E44.47179
G1 X168.39 Y104.512 E44.69676
G1 X168.206 Y104.629 E44.75328
G1 X167.455 Y105.07 E44.97902
G1 X167.311 Y105.148 E45.02146
G1 X166.48 Y105.556 E45.26142
G1 X166.363 Y105.608 E45.29461
G1 X165.503 Y105.955 E45.53498
G1 X165.353 Y106.009 E45.5763
G1 X164.502 Y106.282 E45.80796
G1 X164.338 Y106.328 E45.8521
G1 X163.466 Y106.54 E46.08471
G1 X163.304 Y106.573 E46.12756
G1 X162.397 Y106.724 E46.36589
G1 X162.35 Y106.73 E46.37817
G1 X161.691 Y106.858 E46.55218
G1 X161.043 Y107.073 E46.72915
G1 X160.427 Y107.367 E46.90607
G1 X159.853 Y107.738 E47.08322
G1 X159.33 Y108.177 E47.26021
G1 X158.867 Y108.678 E47.43703
G1 X158.471 Y109.235 E47.61417
G1 X158.148 Y109.836 E47.79102
G1 X157.904 Y110.475 E47.96831
G1 X157.742 Y111.138 E48.14522
G1 X157.666 Y111.816 E48.32206
G1 X157.675 Y112.499 E48.49911
G1 X157.77 Y113.175 E48.67605
G1 X157.951 Y113.834 E48.85319
G1 X158.212 Y114.464 E49.02994
G1 X158.551 Y115.057 E49.20699
G1 X158.963 Y115.602 E49.38408
G1 X159.439 Y116.09 E49.56078
G1 X159.974 Y116.516 E49.73804
G1 X160.558 Y116.869 E49.91492
G1 X161.182 Y117.147 E50.09198
G1 X161.832 Y117.342 E50.26788
G1 X162.289 Y117.428 E50.38841
G1 X163.092 Y117.542 E50.59864
G1 X163.224 Y117.566 E50.63341
G1 X164.128 Y117.764 E50.87328
G1 X164.292 Y117.806 E50.91717
G1 X165.148 Y118.06 E51.1486
G1 X165.299 Y118.111 E51.18991
G1 X166.143 Y118.43 E51.42378
G1 X166.312 Y118.501 E51.4713
G1 X167.106 Y118.869 E51.69813
G1 X167.277 Y118.957 E51.74798
G1 X168.043 Y119.382 E51.97504
G1 X168.191 Y119.472 E52.01994
G1 X168.969 Y119.982 E52.26106
G1 X169.067 Y120.053 E52.29243
G1 X169.797 Y120.611 E52.53059
G1 X169.919 Y120.711 E52.57148
G1 X170.596 Y121.313 E52.8063
G1 X170.708 Y121.42 E52.84645
G1 X171.345 Y122.075 E53.08327
G1 X171.462 Y122.205 E53.12861
G1 X172.019 Y122.868 E53.35305
G1 X172.152 Y123.039 E53.4092
G1 X172.645 Y123.721 E53.62733
G1 X172.757 Y123.889 E53.67966
G1 X173.217 Y124.635 E53.90683
G1 X173.307 Y124.793 E53.95396
G1 X173.721 Y125.59 E54.18675
G1 X173.797 Y125.751 E54.2329
G1 X174.141 Y126.549 E54.45814
G1 X174.213 Y126.736 E54.51008
G1 X174.494 Y127.548 E54.7328
G1 X174.556 Y127.752 E54.78806
G1 X174.777 Y128.583 E55.01095
G1 X174.823 Y128.783 E55.06414
G1 X174.988 Y129.651 E55.29315
G1 X175.012 Y129.804 E55.3333
G1 X175.113 Y130.698 E55.5665
G1 X175.127 Y130.876 E55.61278
G1 X175.166 Y131.865 E55.86932
G1 X175.168 Y131.975 E55.89784
G1 X175.168 Y156.142 E62.16193
G1 X175.132 Y157.148 E62.42285
G1 X175.122 Y157.283 E62.45794
G1 X175.02 Y158.2 E62.69709
G1 X174.995 Y158.375 E62.74291
G1 X174.833 Y159.253 E62.97433
G1 X174.803 Y159.387 E63.00992
G1 X174.572 Y160.272 E63.247
G1 X174.52 Y160.444 E63.29357
G1 X174.234 Y161.286 E63.52407
G1 X174.17 Y161.452 E63.57018
G1 X173.829 Y162.255 E63.79631
G1 X173.748 Y162.43 E63.84629
G1 X173.344 Y163.216 E64.07536
G1 X173.266 Y163.355 E64.11667
G1 X172.792 Y164.134 E64.35303
G1 X172.692 Y164.285 E64.39997
G1 X172.181 Y164.999 E64.62756
G1 X172.068 Y165.147 E64.67582
G1 X171.491 Y165.839 E64.90936
G1 X171.395 Y165.947 E64.94681
G1 X170.913 Y166.459 E65.12908
G1 X170.769 Y166.602 E65.18168
G1 X170.085 Y167.237 E65.4236
G1 X169.937 Y167.365 E65.47432
G1 X169.25 Y167.916 E65.70258
G1 X169.105 Y168.024 E65.74945
G1 X168.39 Y168.516 E65.97441
G1 X168.206 Y168.633 E66.03093
G1 X167.45 Y169.076 E66.25805
G1 X167.308 Y169.153 E66.29992
G1 X166.48 Y169.56 E66.53906
G1 X166.363 Y169.612 E66.57225
G1 X165.508 Y169.957 E66.81123
G1 X165.345 Y170.015 E66.85607
G1 X164.502 Y170.286 E67.08559
G1 X164.338 Y170.332 E67.12974
G1 X163.466 Y170.544 E67.36235
G1 X163.304 Y170.577 E67.4052
G1 X162.411 Y170.725 E67.63982
G1 X162.234 Y170.748 E67.68609
G1 X161.34 Y170.831 E67.91881
G1 X161.198 Y170.838 E67.95566
G1 X160.457 Y170.859 E68.1478
G1 X62.532 Y170.858 E93.52996
G1 X61.531 Y170.822 E93.78959
G1 X61.408 Y170.813 E93.82156
G1 X60.491 Y170.711 E94.06071
G1 X60.316 Y170.686 E94.10653
G1 X59.427 Y170.522 E94.34085
G1 X59.304 Y170.494 E94.37354
G1 X58.41 Y170.26 E94.61308
G1 X58.247 Y170.211 E94.65719
G1 X57.405 Y169.925 E94.88769
G1 X57.239 Y169.861 E94.9338
G1 X56.436 Y169.52 E95.15993
G1 X56.247 Y169.432 E95.21397
G1 X55.453 Y169.024 E95.44535
G1 X55.336 Y168.957 E95.4803
G1 X54.557 Y168.483 E95.71666
G1 X54.406 Y168.383 E95.7636
G1 X53.692 Y167.872 E95.99118
G1 X53.544 Y167.759 E96.03945
G1 X52.852 Y167.182 E96.27299
G1 X52.744 Y167.086 E96.31044
G1 X52.175 Y166.547 E96.51359
G1 X52.086 Y166.457 E96.5464
G1 X51.442 Y165.763 E96.7918
G1 X51.325 Y165.626 E96.8385
G1 X50.775 Y164.94 E97.0664
G1 X50.659 Y164.784 E97.11679
G1 X50.175 Y164.081 E97.33802
G1 X50.058 Y163.897 E97.39454
G1 X49.615 Y163.141 E97.62166
G1 X49.538 Y162.999 E97.66353
G1 X49.129 Y162.167 E97.90383
G1 X49.079 Y162.054 E97.93586
G1 X48.73 Y161.19 E98.17739
G1 X48.674 Y161.032 E98.22084
G1 X48.402 Y160.184 E98.45167
G1 X48.36 Y160.034 E98.49205
G1 X48.144 Y159.146 E98.72893
G1 X48.115 Y159.003 E98.76675
G1 X47.965 Y158.097 E99.00478
G1 X47.943 Y157.925 E99.04972
G1 X47.86 Y157.026 E99.28374
G1 X47.853 Y156.889 E99.31929
G1 X47.832 Y156.156 E99.50936
G1 X47.832 Y131.935 E105.78745
G1 X47.868 Y130.929 E106.04837
G1 X47.878 Y130.794 E106.08346
G1 X47.98 Y129.877 E106.32261
G1 X48.005 Y129.702 E106.36843
G1 X48.167 Y128.824 E106.59985
G1 X48.197 Y128.69 E106.63544
G1 X48.428 Y127.805 E106.87252
G1 X48.48 Y127.633 E106.91909
G1 X48.766 Y126.791 E107.14959
G1 X48.83 Y126.625 E107.1957
G1 X49.171 Y125.822 E107.42183
G1 X49.252 Y125.647 E107.47181
G1 X49.667 Y124.839 E107.70725
G1 X49.734 Y124.722 E107.7422
G1 X50.208 Y123.943 E107.97856
G1 X50.308 Y123.792 E108.0255
G1 X50.819 Y123.078 E108.25309
G1 X50.932 Y122.93 E108.30135
G1 X51.508 Y122.239 E108.53452
G1 X51.609 Y122.126 E108.57381
G1 X52.234 Y121.477 E108.80735
G1 X52.359 Y121.357 E108.85226
G1 X53.03 Y120.754 E109.0861
G1 X53.146 Y120.658 E109.12513
G1 X53.858 Y120.108 E109.35833
G1 X54.017 Y119.995 E109.40889
G1 X54.755 Y119.505 E109.6385
G1 X54.881 Y119.429 E109.67664
G1 X55.675 Y118.983 E109.91269
G1 X55.825 Y118.905 E109.95651
G1 X56.64 Y118.522 E110.18993
G1 X56.783 Y118.462 E110.23012
G1 X57.642 Y118.133 E110.46855
G1 X57.792 Y118.081 E110.5097
G1 X58.642 Y117.826 E110.73972
G1 X58.815 Y117.779 E110.78618
G1 X59.705 Y117.58 E111.02257
G1 X59.816 Y117.56 E111.0518
G1 X60.747 Y117.423 E111.29572
G1 X61.402 Y117.283 E111.46933
G1 X62.047 Y117.058 E111.64639
G1 X62.658 Y116.753 E111.8234
G1 X63.225 Y116.373 E112.00032
G1 X63.74 Y115.925 E112.17725
G1 X64.195 Y115.417 E112.35401
G1 X64.582 Y114.854 E112.53109
G1 X64.895 Y114.247 E112.70811
G1 X65.129 Y113.605 E112.88523
G1 X65.28 Y112.939 E113.06224
G1 X65.345 Y112.259 E113.2393
G1 X65.324 Y111.576 E113.41641
G1 X65.217 Y110.902 E113.5933
G1 X65.026 Y110.247 E113.77015
G1 X64.755 Y109.62 E113.9472
G1 X64.405 Y109.034 E114.12412
G1 X63.985 Y108.496 E114.30103
G1 X63.501 Y108.015 E114.4779
G1 X62.958 Y107.599 E114.6552
G1 X62.369 Y107.255 E114.832
G1 X61.74 Y106.988 E115.00912
G1 X61.086 Y106.803 E115.18529
G1 X60.556 Y106.716 E115.3245
G1 X60.508 Y106.711 E115.33701
G1 X60.318 Y106.683 E115.38679
G1 X59.445 Y106.522 E115.61689
G1 X59.284 Y106.486 E115.65965
G1 X58.421 Y106.261 E115.89082
G1 X58.244 Y106.208 E115.93871
G1 X57.387 Y105.915 E116.17347
G1 X57.256 Y105.866 E116.20972
G1 X56.417 Y105.509 E116.44606
G1 X56.267 Y105.439 E116.48896
G1 X55.453 Y105.021 E116.72614
G1 X55.336 Y104.954 E116.76109
G1 X54.557 Y104.48 E116.99745
G1 X54.406 Y104.38 E117.04439
G1 X53.692 Y103.869 E117.27197
G1 X53.544 Y103.756 E117.32024
G1 X52.852 Y103.179 E117.55378
G1 X52.744 Y103.083 E117.59123
G1 X52.232 Y102.601 E117.7735
G1 X52.085 Y102.453 E117.82757
G1 X51.442 Y101.76 E118.0726
G1 X51.325 Y101.623 E118.1193
G1 X50.765 Y100.925 E118.35125
G1 X50.659 Y100.782 E118.39739
G1 X50.175 Y100.078 E118.61883
G1 X50.058 Y99.894 E118.67535
G1 X49.615 Y99.138 E118.90247
G1 X49.538 Y98.996 E118.94434
G1 X49.129 Y98.164 E119.18464
G1 X49.079 Y98.051 E119.21667
G1 X48.736 Y97.2 E119.45449
G1 X48.674 Y97.028 E119.50188
G1 X48.397 Y96.166 E119.73657
G1 X48.36 Y96.032 E119.7726
G1 X48.144 Y95.143 E120.00973
G1 X48.115 Y94.999 E120.0478
G1 X47.964 Y94.09 E120.28665
G1 X47.943 Y93.923 E120.33027
G1 X47.86 Y93.023 E120.56454
G1 X47.853 Y92.886 E120.6001
G1 X47.832 Y92.153 E120.79017
G1 X47.832 Y66.858 E127.34664
G1 X47.868 Y65.852 E127.60756
G1 X47.878 Y65.717 E127.64265
G1 X47.979 Y64.802 E127.88125
G1 X48.005 Y64.627 E127.92711
G1 X48.167 Y63.747 E128.15904
G1 X48.197 Y63.613 E128.19463
G1 X48.428 Y62.727 E128.43196
G1 X48.48 Y62.556 E128.47829
G1 X48.766 Y61.714 E128.70878
G1 X48.83 Y61.548 E128.7549
G1 X49.171 Y60.745 E128.98102
G1 X49.252 Y60.57 E129.03101
G1 X49.667 Y59.762 E129.26645
G1 X49.734 Y59.645 E129.3014
G1 X50.208 Y58.866 E129.53775
G1 X50.308 Y58.715 E129.5847
G1 X50.824 Y57.994 E129.81451
G1 X50.932 Y57.853 E129.86055
G1 X51.509 Y57.161 E130.09408
G1 X51.605 Y57.053 E130.13154
G1 X52.087 Y56.541 E130.3138
G1 X52.23 Y56.399 E130.36604
G0 F9000 X52.8 Y55.869
G1 F1350 X52.8 Y103.132 E142.61661
G0 F9000 X54.4 Y104.375
G1 F1350 X54.4 Y54.628 E155.51103
G0 F9000 X56 Y53.695
G1 F1350 X56 Y105.301 E168.88731
G0 F9000 X57.6 Y105.987
G1 F1350 X57.6 Y53.004 E182.6205
G0 F9000 X59.2 Y52.537
G1 F1350 X59.2 Y106.464 E196.59838
G0 F9000 X60.8 Y106.756
G1 F1350 X60.8 Y52.248 E210.72685
G0 F9000 X62.4 Y52.145
G1 F1350 X62.4 Y107.273 E225.01603
G0 F9000 X64 Y108.515
G1 F1350 X64 Y52.142 E239.62791
G0 F9000 X65.6 Y52.142
G1 F1350 X65.6 Y170.858 E270.3991
G0 F9000 X64 Y170.858
G1 F1350 X64 Y115.634 E284.71316
G0 F9000 X62.4 Y116.881
G1 F1350 X62.4 Y170.853 E298.7027
G0 F9000 X60.8 Y170.745
G1 F1350 X60.8 Y117.411 E312.52688
G0 F9000 X59.2 Y117.692
G1 F1350 X59.2 Y170.466 E326.2059
G0 F9000 X57.6 Y169.991
G1 F1350 X57.6 Y118.149 E339.64334
G0 F9000 X56 Y118.822
G1 F1350 X56 Y169.305 E352.72854
G0 F9000 X54.4 Y168.378
G1 F1350 X54.4 Y119.74 E365.33551
G0 F9000 X52.8 Y120.96
G1 F1350 X52.8 Y167.135 E377.30407
G0 F9000 X51.2 Y165.47
G1 F1350 X51.2 Y122.608 E388.4139
G0 F9000 X49.6 Y124.969
G1 F1350 X49.6 Y163.113 E398.30082
G0 F9000 X48 Y158.308
G1 F1350 X48 Y129.737 E405.70642
G0 F9000 X63.413 Y115.6
G0 X64.185 Y114.619
G0 X64.685 Y113.478
G0 X64.883 Y112.238
G0 X64.766 Y110.998
G0 X64.342 Y109.828
G0 X63.635 Y108.798
G0 X62.794 Y108.054
G0 X51.2 Y101.467
G1 F1350 X51.2 Y57.531 E417.09464
G0 F9000 X49.6 Y59.892
G1 F1350 X49.6 Y99.11 E427.25994
G0 F9000 X48 Y94.306
G1 F1350 X48 Y64.66 E434.94418
G0 F9000 X67.2 Y52.142
G1 F1350 X67.2 Y170.858 E465.71537
G0 F9000 X68.8 Y170.858
G1 F1350 X68.8 Y52.142 E496.48656
G0 F9000 X70.4 Y52.142
G1 F1350 X70.4 Y170.858 E527.25775
G0 F9000 X72 Y170.858
G1 F1350 X72 Y52.142 E558.02893
G0 F9000 X73.6 Y52.142
G1 F1350 X73.6 Y170.858 E588.80012
G0 F9000 X75.2 Y170.858
G1 F1350 X75.2 Y52.142 E619.57131
G0 F9000 X76.8 Y52.142
G1 F1350 X76.8 Y170.858 E650.34249
G0 F9000 X78.4 Y170.858
G1 F1350 X78.4 Y52.142 E681.11368
G0 F9000 X80 Y52.142
G1 F1350 X80 Y170.858 E711.88487
G0 F9000 X81.6 Y170.858
G1 F1350 X81.6 Y52.142 E742.65606
G0 F9000 X83.2 Y52.142
G1 F1350 X83.2 Y170.858 E773.42724
G0 F9000 X84.8 Y170.858
G1 F1350 X84.8 Y52.142 E804.19843
G0 F9000 X86.4 Y52.142
G1 F1350 X86.4 Y170.858 E834.96962
G0 F9000 X88 Y170.858
G1 F1350 X88 Y52.142 E865.7408
G0 F9000 X89.6 Y52.142
G1 F1350 X89.6 Y170.858 E896.51199
G0 F9000 X91.2 Y170.858
G1 F1350 X91.2 Y52.142 E927.28318
G0 F9000 X92.8 Y52.142
G1 F1350 X92.8 Y170.858 E958.05437
G0 F9000 X94.4 Y170.858
G1 F1350 X94.4 Y52.142 E988.82555
G0 F9000 X96 Y52.142
G1 F1350 X96 Y170.858 E1019.59674
G0 F9000 X97.6 Y170.858
G1 F1350 X97.6 Y52.142 E1050.36793
G0 F9000 X99.2 Y52.142
G1 F1350 X99.2 Y170.858 E1081.13912
G0 F9000 X100.8 Y170.858
G1 F1350 X100.8 Y52.142 E1111.9103
G0 F9000 X102.4 Y52.142
G1 F1350 X102.4 Y170.858 E1142.68149
G0 F9000 X104 Y170.858
G1 F1350 X104 Y52.142 E1173.45268
G0 F9000 X105.6 Y52.142
G1 F1350 X105.6 Y170.858 E1204.22386
G0 F9000 X107.2 Y170.858
G1 F1350 X107.2 Y52.142 E1234.99505
G0 F9000 X108.8 Y52.142
G1 F1350 X108.8 Y170.858 E1265.76624
G0 F9000 X110.4 Y170.858
G1 F1350 X110.4 Y52.142 E1296.53743
G0 F9000 X112 Y52.142
G1 F1350 X112 Y170.858 E1327.30861
G0 F9000 X113.6 Y170.858
G1 F1350 X113.6 Y52.142 E1358.0798
G0 F9000 X115.2 Y52.142
G1 F1350 X115.2 Y170.858 E1388.85099
G0 F9000 X116.8 Y170.858
G1 F1350 X116.8 Y52.142 E1419.62217
G0 F9000 X118.4 Y52.142
G1 F1350 X118.4 Y170.858 E1450.39336
G0 F9000 X120 Y170.858
G1 F1350 X120 Y52.142 E1481.16455
G0 F9000 X121.6 Y52.142
G1 F1350 X121.6 Y170.858 E1511.93574
G0 F9000 X123.2 Y170.858
G1 F1350 X123.2 Y52.142 E1542.70692
G0 F9000 X124.8 Y52.142
G1 F1350 X124.8 Y170.858 E1573.47811
G0 F9000 X126.4 Y170.858
G1 F1350 X126.4 Y52.142 E1604.2493
G0 F9000 X128 Y52.142
G1 F1350 X128 Y170.858 E1635.02048
G0 F9000 X129.6 Y170.858
G1 F1350 X129.6 Y52.142 E1665.79167
G0 F9000 X131.2 Y52.142
G1 F1350 X131.2 Y170.858 E1696.56286
G0 F9000 X132.8 Y170.858
G1 F1350 X132.8 Y52.142 E1727.33405
G0 F9000 X134.4 Y52.142
G1 F1350 X134.4 Y170.858 E1758.10523
G0 F9000 X136 Y170.858
G1 F1350 X136 Y52.142 E1788.87642
