;FLAVOR:UltiGCode
;TIME:3722
;MATERIAL:8699
;MATERIAL2:0
;NOZZLE_DIAMETER:0.6
;MINX:83.214
;MINY:66.562
;MINZ:0.48
;MAXX:139.785
;MAXY:156.437
;MAXZ:18.355
;Generated with Cura_SteamEngine 4.8.0
M82 ;absolute extrusion mode
G0 F3000 Y50 ;avoid prime blob
G92 E0
G92 E0
G10
;LAYER_COUNT:113
;LAYER:-8
M107
G0 F7200 X86.591 Y72.606 Z0.48
;TYPE:SUPPORT-INTERFACE
G11
G1 F1237.5 X87.176 Y71.903 E0.52679
G1 X87.269 Y71.798 E0.60758
G1 X87.779 Y71.258 E1.03542
G1 X87.935 Y71.104 E1.16168
G1 X88.636 Y70.454 E1.71232
G1 X88.765 Y70.343 E1.81035
G1 X89.441 Y69.801 E2.30943
G1 X89.596 Y69.686 E2.4206
G1 X90.295 Y69.204 E2.90966
G1 X90.452 Y69.104 E3.01688
G1 X91.232 Y68.647 E3.53759
G1 X91.336 Y68.591 E3.60563
G1 X92.183 Y68.175 E4.14917
G1 X92.293 Y68.125 E4.21877
G1 X93.134 Y67.786 E4.74106
G1 X93.29 Y67.73 E4.83653
G1 X94.129 Y67.461 E5.34402
G1 X94.278 Y67.419 E5.43319
G1 X95.141 Y67.21 E5.94465
G1 X95.315 Y67.174 E6.047
G1 X96.189 Y67.029 E6.5573
G1 X96.362 Y67.007 E6.65775
G1 X97.231 Y66.927 E7.16041
G1 X97.378 Y66.919 E7.24521
G1 X98.119 Y66.898 E7.6722
G1 X111.258 Y66.898 E15.24026
G1 X111.987 Y66.91 E15.66022
G1 X111.987 Y66.899 E15.66656
G1 X124.889 Y66.9 E23.09811
G1 X125.893 Y66.936 E23.67679
G1 X126.009 Y66.944 E23.74376
G1 X126.897 Y67.043 E24.25842
G1 X127.074 Y67.068 E24.36138
G1 X127.947 Y67.23 E24.87281
G1 X128.095 Y67.263 E24.96016
G1 X128.952 Y67.487 E25.47037
G1 X129.138 Y67.543 E25.58226
G1 X129.959 Y67.823 E26.0819
G1 X130.131 Y67.889 E26.18801
G1 X130.909 Y68.219 E26.67479
G1 X131.091 Y68.304 E26.79049
G1 X131.864 Y68.702 E27.29129
G1 X131.998 Y68.778 E27.38002
G1 X132.768 Y69.246 E27.89904
G1 X132.924 Y69.35 E28.00703
G1 X133.616 Y69.845 E28.4971
G1 X133.754 Y69.951 E28.59733
G1 X134.437 Y70.519 E29.10901
G1 X134.562 Y70.63 E29.2053
G1 X135.106 Y71.145 E29.63678
G1 X135.238 Y71.278 E29.74472
G1 X135.893 Y71.985 E30.29985
G1 X136.004 Y72.114 E30.39788
G1 X136.541 Y72.784 E30.89246
G1 X136.662 Y72.946 E31.00892
G1 X137.138 Y73.636 E31.49176
G1 X137.243 Y73.801 E31.60441
G1 X137.7 Y74.581 E32.12513
G1 X137.757 Y74.685 E32.19344
G1 X138.172 Y75.529 E32.73517
G1 X138.217 Y75.631 E32.79939
G1 X138.565 Y76.492 E33.3343
G1 X138.613 Y76.627 E33.41683
G1 X138.883 Y77.467 E33.92505
G1 X138.927 Y77.623 E34.01841
G1 X139.137 Y78.485 E34.52945
G1 X139.169 Y78.64 E34.62061
G1 X139.316 Y79.525 E35.13735
G1 X139.34 Y79.711 E35.24538
G1 X139.42 Y80.58 E35.74804
G1 X139.428 Y80.727 E35.83284
G1 X139.449 Y81.454 E36.25176
G1 X139.449 Y85.915 E38.8213
G1 X139.412 Y86.936 E39.40978
G1 X139.405 Y87.042 E39.47097
G1 X139.305 Y87.94 E39.99141
G1 X139.28 Y88.117 E40.09438
G1 X139.118 Y88.99 E40.60581
G1 X139.085 Y89.138 E40.69315
G1 X138.861 Y89.995 E41.20337
G1 X138.809 Y90.168 E41.30742
G1 X138.525 Y91.001 E41.81435
G1 X138.46 Y91.173 E41.92026
G1 X138.129 Y91.952 E42.40779
G1 X138.051 Y92.12 E42.51448
G1 X137.643 Y92.914 E43.02867
G1 X137.576 Y93.032 E43.10683
G1 X137.105 Y93.806 E43.62871
G1 X137 Y93.964 E43.73798
G1 X136.503 Y94.659 E44.23013
G1 X136.397 Y94.797 E44.33036
G1 X135.823 Y95.487 E44.84734
G1 X135.731 Y95.591 E44.92732
G1 X135.203 Y96.149 E45.36981
G1 X135.07 Y96.281 E45.47774
G1 X134.363 Y96.936 E46.03288
G1 X134.234 Y97.047 E46.1309
G1 X133.564 Y97.584 E46.62548
G1 X133.402 Y97.705 E46.74195
G1 X132.704 Y98.186 E47.23022
G1 X132.547 Y98.286 E47.33743
G1 X131.767 Y98.743 E47.85815
G1 X131.663 Y98.799 E47.92618
G1 X130.816 Y99.215 E48.46972
G1 X130.706 Y99.265 E48.53932
G1 X129.865 Y99.604 E49.06161
G1 X129.709 Y99.66 E49.15708
G1 X128.87 Y99.929 E49.66458
G1 X128.721 Y99.971 E49.75375
G1 X127.858 Y100.18 E50.2652
G1 X127.685 Y100.216 E50.36699
G1 X126.81 Y100.361 E50.87786
G1 X126.636 Y100.383 E50.97888
G1 X125.768 Y100.463 E51.48097
G1 X125.621 Y100.471 E51.56577
G1 X124.879 Y100.492 E51.99333
G1 X111.773 Y100.491 E59.54239
G1 X111.507 Y100.487 E59.69562
G1 X111.217 Y100.491 E59.86267
G1 X98.112 Y100.491 E67.41115
G1 X97.109 Y100.455 E67.98925
G1 X96.993 Y100.447 E68.05623
G1 X96.08 Y100.346 E68.58533
G1 X95.952 Y100.328 E68.65978
G1 X95.064 Y100.163 E69.18002
G1 X94.902 Y100.127 E69.27561
G1 X94.018 Y99.897 E69.80175
G1 X93.896 Y99.86 E69.87518
G1 X93.047 Y99.57 E70.39194
G1 X92.871 Y99.503 E70.50042
G1 X92.081 Y99.167 E70.9949
G1 X91.92 Y99.092 E71.09721
G1 X91.132 Y98.687 E71.60754
G1 X90.977 Y98.6 E71.70992
G1 X90.247 Y98.154 E72.20266
G1 X90.077 Y98.041 E72.32024
G1 X89.376 Y97.54 E72.81654
G1 X89.23 Y97.427 E72.92288
G1 X88.557 Y96.867 E73.42718
G1 X88.442 Y96.765 E73.51572
G1 X87.894 Y96.246 E73.95046
G1 X87.75 Y96.1 E74.06858
G1 X87.107 Y95.406 E74.61353
G1 X86.996 Y95.277 E74.71155
G1 X86.441 Y94.585 E75.22251
G1 X86.346 Y94.457 E75.31432
G1 X85.857 Y93.747 E75.81089
G1 X85.756 Y93.588 E75.91939
G1 X85.3 Y92.81 E76.43882
G1 X85.244 Y92.706 E76.50686
G1 X84.828 Y91.859 E77.0504
G1 X84.775 Y91.741 E77.12491
G1 X84.434 Y90.896 E77.64976
G1 X84.381 Y90.746 E77.7414
G1 X84.111 Y89.904 E78.25071
G1 X84.073 Y89.768 E78.33205
G1 X83.857 Y88.88 E78.85845
G1 X83.83 Y88.744 E78.93832
G1 X83.681 Y87.845 E79.46321
G1 X83.663 Y87.703 E79.54565
G1 X83.58 Y86.791 E80.07314
G1 X83.571 Y86.644 E80.15797
G1 X83.551 Y85.937 E80.56536
G1 X83.55 Y81.478 E83.13375
G1 X83.587 Y80.471 E83.71417
G1 X83.599 Y80.311 E83.80659
G1 X83.693 Y79.453 E84.30375
G1 X83.719 Y79.272 E84.40908
G1 X83.88 Y78.403 E84.91814
G1 X83.913 Y78.255 E85.00548
G1 X84.139 Y77.39 E85.52045
G1 X84.181 Y77.248 E85.60574
G1 X84.482 Y76.365 E86.14309
G1 X84.53 Y76.24 E86.22021
G1 X84.869 Y75.44 E86.72068
G1 X84.95 Y75.267 E86.83071
G1 X85.351 Y74.486 E87.3364
G1 X85.431 Y74.342 E87.43128
G1 X85.89 Y73.59 E87.93874
G1 X85.999 Y73.426 E88.05217
G1 X86.511 Y72.71 E88.55918
G1 X86.591 Y72.606 E88.63476
G10
G0 F7200 X88.812 Y97.964
G0 X91.885 Y123.173
G0 X89.598 Y125.295
G11
G1 F1237.5 X90.296 Y124.814 E89.12302
G1 X90.453 Y124.714 E89.23024
G1 X91.233 Y124.257 E89.75096
G1 X91.337 Y124.201 E89.81899
G1 X92.184 Y123.785 E90.36253
G1 X92.294 Y123.735 E90.43213
G1 X93.135 Y123.396 E90.95442
G1 X93.291 Y123.34 E91.04989
G1 X94.13 Y123.071 E91.55738
G1 X94.279 Y123.029 E91.64655
G1 X95.142 Y122.82 E92.15801
G1 X95.316 Y122.784 E92.26036
G1 X96.19 Y122.639 E92.77066
G1 X96.363 Y122.617 E92.87111
G1 X97.232 Y122.537 E93.37377
G1 X97.379 Y122.529 E93.45857
G1 X98.121 Y122.508 E93.88613
G1 X111.227 Y122.509 E101.43519
G1 X111.493 Y122.513 E101.58842
G1 X111.783 Y122.509 E101.75548
G1 X124.888 Y122.509 E109.30396
G1 X125.891 Y122.545 E109.88206
G1 X126.007 Y122.553 E109.94903
G1 X126.92 Y122.654 E110.47813
G1 X127.048 Y122.672 E110.55258
G1 X127.938 Y122.837 E111.07396
G1 X128.098 Y122.873 E111.16842
G1 X128.982 Y123.103 E111.69456
G1 X129.104 Y123.14 E111.76799
G1 X129.953 Y123.43 E112.28476
G1 X130.129 Y123.497 E112.39323
G1 X130.919 Y123.833 E112.88772
G1 X131.08 Y123.908 E112.99002
G1 X131.868 Y124.313 E113.50035
G1 X132.008 Y124.391 E113.59266
G1 X132.753 Y124.846 E114.09548
G1 X132.923 Y124.959 E114.21306
G1 X133.624 Y125.46 E114.70936
G1 X133.77 Y125.573 E114.8157
G1 X134.443 Y126.133 E115.32
G1 X134.558 Y126.235 E115.40854
G1 X135.106 Y126.754 E115.84328
G1 X135.248 Y126.898 E115.95977
G1 X135.893 Y127.594 E116.50635
G1 X136.004 Y127.723 E116.60437
G1 X136.541 Y128.393 E117.09895
G1 X136.662 Y128.555 E117.21542
G1 X137.138 Y129.245 E117.69825
G1 X137.243 Y129.41 E117.81091
G1 X137.687 Y130.167 E118.3164
G1 X137.768 Y130.316 E118.41409
G1 X138.158 Y131.11 E118.92363
G1 X138.225 Y131.26 E119.01825
G1 X138.565 Y132.101 E119.54076
G1 X138.613 Y132.237 E119.62383
G1 X138.884 Y133.079 E120.13332
G1 X138.927 Y133.231 E120.22431
G1 X139.136 Y134.093 E120.73521
G1 X139.173 Y134.272 E120.84049
G1 X139.316 Y135.134 E121.34379
G1 X139.337 Y135.297 E121.43846
G1 X139.42 Y136.208 E121.96536
G1 X139.428 Y136.337 E122.03981
G1 X139.449 Y137.06 E122.45643
G1 X139.45 Y141.522 E125.02655
G1 X139.413 Y142.529 E125.60697
G1 X139.401 Y142.687 E125.69824
G1 X139.307 Y143.547 E126.19655
G1 X139.283 Y143.717 E126.29544
G1 X139.122 Y144.588 E126.80564
G1 X139.092 Y144.724 E126.88586
G1 X138.856 Y145.627 E127.42345
G1 X138.813 Y145.77 E127.50947
G1 X138.524 Y146.621 E128.02714
G1 X138.471 Y146.759 E128.11228
G1 X138.131 Y147.56 E128.6135
G1 X138.05 Y147.733 E128.72353
G1 X137.649 Y148.514 E129.22922
G1 X137.569 Y148.658 E129.32411
G1 X137.118 Y149.398 E129.82327
G1 X137.003 Y149.571 E129.94293
G1 X136.506 Y150.266 E130.43507
G1 X136.4 Y150.405 E130.53576
G1 X135.828 Y151.092 E131.05068
G1 X135.732 Y151.2 E131.13391
G1 X135.222 Y151.741 E131.56216
G1 X135.071 Y151.891 E131.68476
G1 X134.364 Y152.546 E132.23989
G1 X134.235 Y152.657 E132.33792
G1 X133.565 Y153.194 E132.8325
G1 X133.403 Y153.315 E132.94896
G1 X132.705 Y153.796 E133.43723
G1 X132.548 Y153.896 E133.54445
G1 X131.768 Y154.353 E134.06516
G1 X131.664 Y154.409 E134.1332
G1 X130.817 Y154.825 E134.67674
G1 X130.707 Y154.875 E134.74634
G1 X129.866 Y155.214 E135.26863
G1 X129.71 Y155.27 E135.3641
G1 X128.871 Y155.539 E135.87159
G1 X128.722 Y155.581 E135.96076
G1 X127.859 Y155.79 E136.47222
G1 X127.686 Y155.826 E136.574
G1 X126.811 Y155.971 E137.08487
G1 X126.637 Y155.993 E137.1859
G1 X125.769 Y156.073 E137.68798
G1 X125.622 Y156.081 E137.77278
G1 X124.881 Y156.102 E138.19977
G1 X111.742 Y156.102 E145.76783
G1 X111.013 Y156.09 E146.18779
G1 X111.013 Y156.101 E146.19413
G1 X98.111 Y156.1 E153.62568
G1 X97.107 Y156.064 E154.20436
G1 X96.991 Y156.056 E154.27133
G1 X96.103 Y155.957 E154.78599
G1 X95.926 Y155.932 E154.88895
G1 X95.055 Y155.77 E155.39925
G1 X94.905 Y155.737 E155.48772
G1 X94.048 Y155.513 E155.99793
G1 X93.862 Y155.457 E156.10982
G1 X93.041 Y155.177 E156.60946
G1 X92.869 Y155.111 E156.71558
G1 X92.091 Y154.781 E157.20235
G1 X91.909 Y154.696 E157.31805
G1 X91.136 Y154.298 E157.81885
G1 X90.994 Y154.218 E157.91273
G1 X90.243 Y153.761 E158.4191
G1 X90.076 Y153.65 E158.53461
G1 X89.363 Y153.14 E159.03954
G1 X89.25 Y153.053 E159.12168
G1 X88.541 Y152.462 E159.65334
G1 X88.439 Y152.371 E159.73208
G1 X87.894 Y151.855 E160.16438
G1 X87.75 Y151.708 E160.28291
G1 X87.107 Y151.015 E160.82743
G1 X87.008 Y150.9 E160.91484
G1 X86.439 Y150.191 E161.43847
G1 X86.339 Y150.056 E161.53524
G1 X85.857 Y149.356 E162.02478
G1 X85.756 Y149.197 E162.13328
G1 X85.3 Y148.419 E162.65271
G1 X85.244 Y148.315 E162.72075
G1 X84.828 Y147.468 E163.26429
G1 X84.775 Y147.35 E163.33879
G1 X84.44 Y146.519 E163.85488
G1 X84.381 Y146.354 E163.95581
G1 X84.113 Y145.519 E164.46094
G1 X84.068 Y145.357 E164.55778
G1 X83.857 Y144.487 E165.07343
G1 X83.827 Y144.338 E165.16098
G1 X83.681 Y143.454 E165.67706
G1 X83.663 Y143.311 E165.76008
G1 X83.579 Y142.392 E166.29163
G1 X83.572 Y142.273 E166.36029
G1 X83.551 Y141.546 E166.77922
G1 X83.551 Y137.085 E169.34875
G1 X83.588 Y136.064 E169.93724
G1 X83.595 Y135.958 E169.99843
G1 X83.698 Y135.028 E170.53738
G1 X83.718 Y134.896 E170.61428
G1 X83.882 Y134.01 E171.13329
G1 X83.915 Y133.862 E171.22063
G1 X84.145 Y132.981 E171.74509
G1 X84.188 Y132.84 E171.83
G1 X84.475 Y131.998 E172.34239
G1 X84.541 Y131.826 E172.44851
G1 X84.871 Y131.048 E172.93528
G1 X84.959 Y130.859 E173.05537
G1 X85.354 Y130.093 E173.55179
G1 X85.424 Y129.968 E173.63431
G1 X85.898 Y129.189 E174.15955
G1 X86.002 Y129.033 E174.26755
G1 X86.513 Y128.319 E174.77328
G1 X86.594 Y128.213 E174.85013
G1 X87.177 Y127.513 E175.37485
G1 X87.269 Y127.409 E175.45483
G1 X87.797 Y126.851 E175.89732
G1 X87.937 Y126.713 E176.01055
G1 X88.637 Y126.064 E176.56038
G1 X88.766 Y125.953 E176.65841
G1 X89.436 Y125.416 E177.15299
G1 X89.598 Y125.295 E177.26945
G0 F7200 X88.8 Y125.925
G1 F1237.5 X88.8 Y152.677 E192.67861
G0 F7200 X91.2 Y154.33
G1 F1237.5 X91.2 Y124.276 E209.98971
G0 F7200 X93.6 Y123.24
G1 F1237.5 X93.6 Y155.367 E228.49486
G0 F7200 X96 Y155.942
G1 F1237.5 X96 Y122.67 E247.65953
G0 F7200 X98.4 Y122.509
G1 F1237.5 X98.4 Y156.1 E267.00795
G0 F7200 X100.8 Y156.1
G1 F1237.5 X100.8 Y122.509 E286.35637
G0 F7200 X103.2 Y122.509
G1 F1237.5 X103.2 Y156.1 E305.70478
G0 F7200 X105.6 Y156.1
G1 F1237.5 X105.6 Y122.509 E325.0532
G0 F7200 X108 Y122.509
G1 F1237.5 X108 Y156.1 E344.40161
G0 F7200 X110.4 Y156.1
G1 F1237.5 X110.4 Y122.509 E363.75003
G0 F7200 X112.8 Y122.509
G1 F1237.5 X112.8 Y156.102 E383.0996
G0 F7200 X115.2 Y156.102
G1 F1237.5 X115.2 Y122.509 E402.44917
G0 F7200 X117.6 Y122.509
G1 F1237.5 X117.6 Y156.102 E421.79873
G0 F7200 X120 Y156.102
G1 F1237.5 X120 Y122.509 E441.1483
G0 F7200 X122.4 Y122.509
G1 F1237.5 X122.4 Y156.102 E460.49787
G0 F7200 X124.8 Y156.102
G1 F1237.5 X124.8 Y122.509 E479.84744
G0 F7200 X127.2 Y122.701
G1 F1237.5 X127.2 Y155.907 E498.97409
G0 F7200 X129.6 Y155.306
G1 F1237.5 X129.6 Y123.31 E517.40379
G0 F7200 X132 Y124.387
G1 F1237.5 X132 Y154.218 E534.58645
G0 F7200 X134.4 Y152.513
G1 F1237.5 X134.4 Y126.098 E549.80149
G0 F7200 X136.8 Y128.756
G1 F1237.5 X136.8 Y149.855 E561.95451
G0 F7200 X139.2 Y144.167
G1 F1237.5 X139.2 Y134.435 E567.56014
G10
G0 F7200 X134.188 Y125.036
G0 X129.068 Y100.58
G0 X129.6 Y99.695
G11
G1 F1237.5 X129.6 Y67.701 E585.98869
G0 F7200 X127.2 Y67.092
G1 F1237.5 X127.2 Y100.297 E605.11477
G0 F7200 X124.8 Y100.491
G1 F1237.5 X124.8 Y66.9 E624.46318
G0 F7200 X122.4 Y66.9
G1 F1237.5 X122.4 Y100.491 E643.8116
G0 F7200 X120 Y100.491
G1 F1237.5 X120 Y66.9 E663.16001
G0 F7200 X117.6 Y66.9
G1 F1237.5 X117.6 Y100.491 E682.50843
G0 F7200 X115.2 Y100.491
G1 F1237.5 X115.2 Y66.9 E701.85685
G0 F7200 X112.8 Y66.9
G1 F1237.5 X112.8 Y100.491 E721.20526
G0 F7200 X110.4 Y100.491
G1 F1237.5 X110.4 Y66.898 E740.55483
G0 F7200 X108 Y66.898
G1 F1237.5 X108 Y100.491 E759.9044
G0 F7200 X105.6 Y100.491
G1 F1237.5 X105.6 Y66.898 E779.25397
G0 F7200 X103.2 Y66.898
G1 F1237.5 X103.2 Y100.491 E798.60353
G0 F7200 X100.8 Y100.491
G1 F1237.5 X100.8 Y66.898 E817.9531
G0 F7200 X98.4 Y66.898
G1 F1237.5 X98.4 Y100.491 E837.30267
G0 F7200 X96 Y100.334
G1 F1237.5 X96 Y67.06 E856.46849
G0 F7200 X93.6 Y67.63
G1 F1237.5 X93.6 Y99.758 E874.97422
G0 F7200 X91.2 Y98.721
G1 F1237.5 X91.2 Y68.665 E892.28648
G0 F7200 X88.8 Y70.314
G1 F1237.5 X88.8 Y97.069 E907.69736
G0 F7200 X86.4 Y94.529
G1 F1237.5 X86.4 Y72.865 E920.17582
G0 F7200 X84 Y77.922
G1 F1237.5 X84 Y89.467 E926.82574
G10
G0 F7200 X86.478 Y95.719
G0 X89.028 Y124.871
G0 X86.4 Y128.476
G11
G1 F1237.5 X86.4 Y150.138 E939.30305
G0 F7200 X84 Y145.076
G1 F1237.5 X84 Y133.536 E945.95009
G10
G0 F7200 X111.24 Y121.828
G0 X126.913 Y101.034
G0 X132 Y98.607
G11
G1 F1237.5 X132 Y68.78 E963.13045
G0 F7200 X134.4 Y70.489
G1 F1237.5 X134.4 Y96.902 E978.34433
G0 F7200 X136.8 Y94.244
G1 F1237.5 X136.8 Y73.147 E990.49621
G0 F7200 X139.2 Y78.827
G1 F1237.5 X139.2 Y88.549 E996.09608
G0 F600 X139.2 Y88.549 Z0.705
G0 F7200 X137.628 Y93.08
;TIME_ELAPSED:92.816613
;LAYER:-7
;TYPE:SUPPORT
G1 F1237.5 X137.711 Y92.932 E996.13655
G1 X138.105 Y92.165 E996.3422
G1 X138.19 Y91.985 E996.38968
G1 X138.228 Y91.898 E996.41232
G1 X113.159 Y66.829 E1004.86784
G1 X114.94 Y66.829 E1005.29261
G1 X138.729 Y90.617 E1013.31623
G1 X138.877 Y90.182 E1013.42582
G1 X138.922 Y90.034 E1013.46271
G1 X139.131 Y89.237 E1013.65922
G1 X116.722 Y66.829 E1021.21739
G1 X118.504 Y66.829 E1021.64239
G1 X139.399 Y87.723 E1028.6899
G1 X139.471 Y87.063 E1028.84824
G1 X139.482 Y86.918 E1028.88292
G1 X139.513 Y86.056 E1029.08864
G1 X120.286 Y66.829 E1035.57372
G1 X122.068 Y66.829 E1035.99872
G1 X139.518 Y84.279 E1041.88443
G1 X139.518 Y82.497 E1042.30944
G1 X123.85 Y66.829 E1047.5941
G1 X124.891 Y66.829 E1047.84238
G1 X125.66 Y66.857 E1048.0259
G1 X139.495 Y80.692 E1052.69231
G1 X139.49 Y80.596 E1052.71524
G1 X139.406 Y79.683 E1052.93391
G1 X139.384 Y79.516 E1052.97408
G1 X139.242 Y78.657 E1053.18173
G1 X127.697 Y67.112 E1057.07575
G1 X127.975 Y67.163 E1057.14316
G1 X128.091 Y67.189 E1057.17151
G1 X128.99 Y67.425 E1057.39318
G1 X129.139 Y67.47 E1057.43031
G1 X129.974 Y67.754 E1057.64066
G1 X130.155 Y67.824 E1057.68694
G1 X130.217 Y67.85 E1057.70298
G1 X138.491 Y76.124 E1060.49371
G0 F7200 X138.281 Y75.604
G1 F1237.5 X138.233 Y75.497 E1060.52168
G1 X137.818 Y74.654 E1060.74578
G1 X137.75 Y74.531 E1060.7793
G1 X137.303 Y73.766 E1060.99062
G1 X137.207 Y73.614 E1061.03349
G1 X136.717 Y72.904 E1061.23924
G1 X136.607 Y72.757 E1061.28303
