;FLAVOR:UltiGCode
;TIME:4679
;MATERIAL:12677
;MATERIAL2:0
;NOZZLE_DIAMETER:0.6
;MINX:25.113
;MINY:25.117
;MINZ:0.48
;MAXX:197.768
;MAXY:197.762
;MAXZ:19.255
;Generated with Cura_SteamEngine 4.8.0
M82 ;absolute extrusion mode
G0 F3000 Y50 ;avoid prime blob
G92 E0
G92 E0
G10
;LAYER_COUNT:120
;LAYER:-8
M107
G0 F7200 X88.856 Y86.741 Z0.48
;TYPE:SUPPORT-INTERFACE
G11
G1 F1237.5 X89 Y86.596 E0.11771
G1 X89.751 Y85.896 E0.70906
G1 X89.839 Y85.817 E0.77717
G1 X90.224 Y85.487 E1.06925
G1 X91.015 Y84.856 E1.65207
G1 X91.134 Y84.767 E1.73767
G1 X91.878 Y84.258 E2.2569
G1 X92.024 Y84.167 E2.356
G1 X92.797 Y83.719 E2.87062
G1 X92.935 Y83.645 E2.96081
G1 X93.257 Y83.488 E3.16716
G1 X93.857 Y83.148 E3.56439
G1 X94.423 Y82.722 E3.97243
G1 X94.932 Y82.229 E4.38059
G1 X95.378 Y81.671 E4.79205
G1 X95.855 Y80.844 E5.34196
G1 X95.989 Y80.555 E5.52544
G1 X96.039 Y80.458 E5.5883
G1 X96.492 Y79.64 E6.1269
G1 X96.55 Y79.543 E6.19199
G1 X97.064 Y78.759 E6.73198
G1 X97.148 Y78.641 E6.81541
G1 X97.677 Y77.948 E7.31758
G1 X97.793 Y77.808 E7.42231
G1 X98.381 Y77.145 E7.93275
G1 X98.496 Y77.023 E8.02932
G1 X98.959 Y76.564 E8.40484
G1 X99.408 Y76.14 E8.76056
G1 X100.143 Y75.495 E9.32382
G1 X100.263 Y75.399 E9.41233
G1 X100.968 Y74.867 E9.92106
G1 X101.099 Y74.775 E10.01326
G1 X101.858 Y74.285 E10.53364
G1 X102 Y74.2 E10.62896
G1 X102.818 Y73.753 E11.16589
G1 X103.4 Y73.385 E11.56252
G1 X103.946 Y72.935 E11.97006
G1 X104.433 Y72.415 E12.38042
G1 X104.9 Y71.758 E12.84472
G1 X105.024 Y71.55 E12.9842
G1 X105.527 Y70.783 E13.51252
G1 X105.611 Y70.665 E13.59595
G1 X106.14 Y69.972 E14.09813
G1 X106.256 Y69.832 E14.20285
G1 X106.857 Y69.154 E14.72472
G1 X106.941 Y69.066 E14.79479
G1 X107.454 Y68.557 E15.21105
G1 X107.835 Y68.2 E15.51179
G1 X108.582 Y67.546 E16.08367
G1 X108.677 Y67.469 E16.1541
G1 X109.292 Y67.006 E16.59751
G1 X109.569 Y66.783 E16.80234
G1 X109.871 Y66.523 E17.03188
G1 X109.998 Y66.422 E17.12534
G1 X110.696 Y65.905 E17.62567
G1 X110.846 Y65.802 E17.73047
G1 X111.606 Y65.321 E18.24854
G1 X111.724 Y65.253 E18.32699
G1 X112.46 Y64.859 E18.80785
G1 X113.047 Y64.497 E19.20508
G1 X113.597 Y64.051 E19.61295
G1 X114.091 Y63.535 E20.02442
G1 X114.619 Y62.789 E20.55085
G1 X114.872 Y62.358 E20.83872
G1 X114.96 Y62.22 E20.93299
G1 X115.486 Y61.459 E21.46585
G1 X115.564 Y61.355 E21.54073
G1 X116.129 Y60.654 E22.05933
G1 X116.238 Y60.528 E22.15529
G1 X116.853 Y59.868 E22.67491
G1 X116.943 Y59.778 E22.74823
G1 X117.616 Y59.156 E23.27608
G1 X117.742 Y59.048 E23.37167
G1 X118.434 Y58.496 E23.88154
G1 X118.54 Y58.417 E23.95769
G1 X119.29 Y57.904 E24.48108
G1 X119.436 Y57.812 E24.58048
G1 X120.194 Y57.37 E25.08589
G1 X120.347 Y57.288 E25.18588
G1 X121.134 Y56.904 E25.69027
G1 X121.287 Y56.836 E25.78671
G1 X122.104 Y56.509 E26.2936
G1 X122.26 Y56.452 E26.38926
G1 X123.152 Y56.167 E26.92864
G1 X123.243 Y56.141 E26.98316
G1 X123.756 Y56.01 E27.28813
G1 X124.317 Y55.875 E27.62049
G1 X124.976 Y55.674 E28.01734
G1 X125.621 Y55.382 E28.42515
G1 X126.203 Y55.026 E28.81813
G1 X144.679 Y42.047 E41.82371
G1 X145.217 Y41.617 E42.22041
G1 X145.71 Y41.108 E42.62857
G1 X146.129 Y40.547 E43.03189
G1 X146.345 Y40.186 E43.2742
G1 X146.562 Y39.794 E43.53228
G1 X146.621 Y39.694 E43.59916
G1 X147.125 Y38.921 E44.13069
G1 X147.206 Y38.805 E44.21218
G1 X147.741 Y38.101 E44.72149
G1 X147.86 Y37.956 E44.82954
G1 X148.455 Y37.281 E45.34783
G1 X148.536 Y37.196 E45.41546
G1 X149.198 Y36.548 E45.94904
G1 X149.317 Y36.44 E46.04161
G1 X149.985 Y35.876 E46.54518
G1 X150.121 Y35.769 E46.64485
G1 X150.849 Y35.24 E47.16319
G1 X150.954 Y35.168 E47.23653
G1 X151.549 Y34.792 E47.64194
G1 X152.028 Y34.507 E47.96299
G1 X152.159 Y34.432 E48.04994
G1 X152.943 Y34.004 E48.56443
G1 X153.121 Y33.915 E48.67906
G1 X153.893 Y33.564 E49.16754
G1 X154.058 Y33.497 E49.27011
G1 X154.897 Y33.187 E49.78531
G1 X155.05 Y33.137 E49.87803
G1 X155.882 Y32.897 E50.3768
G1 X156.077 Y32.85 E50.49233
G1 X156.921 Y32.672 E50.98917
G1 X157.093 Y32.642 E51.08974
G1 X157.553 Y32.579 E51.35717
G1 X158.229 Y32.443 E51.75435
G1 X158.899 Y32.217 E52.16164
G1 X159.537 Y31.908 E52.56996
G1 X160.123 Y31.525 E52.97319
G1 X160.44 Y31.27 E53.20753
G1 X160.557 Y31.169 E53.29656
G1 X160.643 Y31.098 E53.36079
G1 X161.355 Y30.564 E53.87343
G1 X161.526 Y30.446 E53.9931
G1 X162.245 Y29.985 E54.48506
G1 X162.393 Y29.897 E54.58424
G1 X163.18 Y29.469 E55.10025
G1 X163.324 Y29.398 E55.19273
G1 X164.122 Y29.037 E55.69723
G1 X164.27 Y28.978 E55.789
G1 X165.65 Y28.499 E56.6304
G1 X165.743 Y28.47 E56.68651
G1 X166.3 Y28.31 E57.02032
G1 X166.702 Y28.209 E57.25907
G1 X167.364 Y27.999 E57.6591
G1 X168.135 Y27.628 E58.15194
G1 X168.447 Y27.446 E58.35999
G1 X168.567 Y27.38 E58.43888
G1 X169.37 Y26.951 E58.96327
G1 X169.516 Y26.879 E59.05704
G1 X170.341 Y26.513 E59.5769
G1 X170.49 Y26.454 E59.66921
G1 X171.335 Y26.151 E60.18628
G1 X171.472 Y26.107 E60.26916
G1 X172.331 Y25.868 E60.78274
G1 X172.495 Y25.828 E60.87997
G1 X173.359 Y25.654 E61.38763
G1 X173.529 Y25.627 E61.48677
G1 X174.395 Y25.518 E61.98953
G1 X174.586 Y25.501 E62.09998
G1 X175.456 Y25.455 E62.6018
G1 X175.605 Y25.453 E62.68763
G1 X176.535 Y25.471 E63.22341
G1 X176.661 Y25.478 E63.2961
G1 X177.164 Y25.516 E63.58665
G1 X177.317 Y25.533 E63.67532
G1 X178.264 Y25.658 E64.22552
G1 X178.404 Y25.682 E64.30734
G1 X179.294 Y25.866 E64.83082
G1 X179.445 Y25.903 E64.92037
G1 X180.291 Y26.143 E65.4269
G1 X180.452 Y26.196 E65.52453
G1 X181.286 Y26.5 E66.03583
G1 X181.455 Y26.569 E66.14097
G1 X182.242 Y26.923 E66.63803
G1 X182.376 Y26.989 E66.72407
G1 X183.19 Y27.43 E67.25732
G1 X183.318 Y27.505 E67.34278
G1 X184.042 Y27.968 E67.83778
G1 X184.209 Y28.086 E67.95556
G1 X185.264 Y28.9 E68.7231
G1 X185.356 Y28.974 E68.79111
G1 X185.859 Y29.405 E69.17265
G1 X186.543 Y30.036 E69.70867
G1 X186.668 Y30.16 E69.81009
G1 X187.285 Y30.817 E70.32924
G1 X187.375 Y30.921 E70.40846
G1 X187.945 Y31.625 E70.93021
G1 X188.022 Y31.727 E71.00382
G1 X188.559 Y32.5 E71.54597
G1 X188.681 Y32.689 E71.67554
G1 X189.088 Y33.244 E72.07197
G1 X189.583 Y33.763 E72.48508
G1 X190.366 Y34.365 E73.05398
G1 X190.543 Y34.477 E73.17463
G1 X190.703 Y34.588 E73.28679
G1 X191.828 Y35.451 E74.10349
G1 X191.906 Y35.514 E74.16125
G1 X192.399 Y35.936 E74.53504
G1 X193.098 Y36.58 E75.08249
G1 X193.237 Y36.718 E75.19531
G1 X193.807 Y37.325 E75.67494
G1 X193.961 Y37.501 E75.80964
G1 X194.484 Y38.147 E76.2884
G1 X194.605 Y38.307 E76.40394
G1 X195.104 Y39.025 E76.90758
G1 X195.192 Y39.163 E77.00185
G1 X195.643 Y39.923 E77.51089
G1 X195.722 Y40.069 E77.60651
G1 X196.114 Y40.856 E78.11294
G1 X196.19 Y41.025 E78.21967
G1 X196.516 Y41.821 E78.71513
G1 X196.585 Y42.009 E78.83048
G1 X196.85 Y42.82 E79.32192
G1 X196.899 Y42.992 E79.42494
G1 X197.113 Y43.858 E79.93876
G1 X197.146 Y44.014 E80.0306
G1 X197.292 Y44.871 E80.53135
G1 X197.318 Y45.065 E80.64409
G1 X197.399 Y45.896 E81.12502
G1 X197.411 Y46.083 E81.23295
G1 X197.433 Y46.992 E81.75669
G1 X197.43 Y47.171 E81.8598
G1 X197.391 Y47.995 E82.33496
G1 X197.373 Y48.239 E82.47589
G1 X197.365 Y48.321 E82.52334
G1 X197.252 Y49.286 E83.08298
G1 X197.23 Y49.427 E83.16518
G1 X197.062 Y50.298 E83.67612
G1 X197.02 Y50.476 E83.78147
G1 X196.792 Y51.319 E84.28448
G1 X196.738 Y51.495 E84.39052
G1 X196.45 Y52.317 E84.89221
G1 X196.387 Y52.478 E84.99179
G1 X196.041 Y53.276 E85.49279
G1 X195.965 Y53.436 E85.59482
G1 X195.563 Y54.202 E86.0931
G1 X195.47 Y54.365 E86.2012
G1 X195.01 Y55.107 E86.70406
G1 X194.908 Y55.258 E86.80902
G1 X194.387 Y55.973 E87.31859
G1 X194.293 Y56.093 E87.4064
G1 X193.707 Y56.786 E87.92914
G1 X193.608 Y56.896 E88.01439
G1 X192.985 Y57.532 E88.5272
G1 X192.879 Y57.632 E88.61113
G1 X192.195 Y58.236 E89.13674
G1 X192.078 Y58.331 E89.22355
G1 X191.37 Y58.87 E89.73609
G1 X191.235 Y58.964 E89.83084
G1 X190.448 Y59.477 E90.37196
G1 X187.937 Y60.985 E92.05907
G1 X186.462 Y61.881 E93.05314
G1 X183.504 Y63.656 E95.04017
G1 X182.215 Y64.437 E95.90828
G1 X178.767 Y66.503 E98.22356
G1 X178.059 Y66.931 E98.7001
G1 X174.821 Y68.875 E100.8755
G1 X174.353 Y69.192 E101.20109
G1 X170.421 Y72.164 E104.04009
G1 X168.535 Y73.579 E105.39819
G1 X164.432 Y76.681 E108.36092
G1 X161.993 Y78.509 E110.11657
G1 X160.892 Y79.341 E110.91146
G1 X160.37 Y79.79 E111.30805
G1 X159.895 Y80.315 E111.71586
G1 X159.491 Y80.897 E112.12394
G1 X159.164 Y81.524 E112.53126
G1 X158.917 Y82.188 E112.93932
G1 X158.757 Y82.878 E113.34731
G1 X158.685 Y83.583 E113.7555
G1 X158.702 Y84.291 E114.16343
G1 X158.81 Y84.991 E114.5714
G1 X159.003 Y85.671 E114.97855
G1 X159.282 Y86.323 E115.38704
G1 X159.641 Y86.934 E115.79523
G1 X160.073 Y87.494 E116.20261
G1 X160.574 Y87.996 E116.61113
G1 X160.606 Y88.021 E116.63452
G1 X160.594 Y88.039 E116.64698
G1 X161.86 Y88.954 E117.54672
G1 X161.991 Y89.057 E117.6427
G1 X162.671 Y89.629 E118.15453
G1 X162.798 Y89.744 E118.25322
G1 X163.426 Y90.357 E118.7587
G1 X163.535 Y90.471 E118.84955
G1 X164.127 Y91.139 E119.36368
G1 X164.238 Y91.273 E119.4639
G1 X164.783 Y91.989 E119.9822
G1 X164.855 Y92.09 E120.05364
G1 X165.311 Y92.78 E120.53003
G1 X165.586 Y93.224 E120.83086
G1 X165.669 Y93.364 E120.92461
G1 X166.102 Y94.131 E121.43194
G1 X166.182 Y94.284 E121.53138
G1 X166.56 Y95.081 E122.03947
G1 X166.635 Y95.257 E122.14967
G1 X166.946 Y96.06 E122.64567
G1 X167.006 Y96.233 E122.75114
G1 X167.261 Y97.069 E123.25458
G1 X167.306 Y97.238 E123.35532
G1 X167.499 Y98.092 E123.85963
G1 X167.531 Y98.257 E123.95644
G1 X167.664 Y99.139 E124.47022
G1 X167.682 Y99.287 E124.55609
G1 X167.742 Y99.975 E124.95388
G1 X167.753 Y100.151 E125.05546
G1 X167.777 Y101.151 E125.63162
G1 X167.774 Y101.322 E125.73013
G1 X167.732 Y102.174 E126.22148
G1 X167.717 Y102.351 E126.3238
G1 X167.607 Y103.248 E126.84434
G1 X167.584 Y103.389 E126.92663
G1 X167.411 Y104.263 E127.43982
G1 X167.366 Y104.455 E127.55341
G1 X167.141 Y105.272 E128.04152
G1 X167.091 Y105.433 E128.13863
G1 X166.799 Y106.258 E128.64272
G1 X166.729 Y106.434 E128.75182
G1 X166.575 Y106.783 E128.97154
G1 X166.338 Y107.43 E129.36843
G1 X166.18 Y108.119 E129.77559
G1 X166.116 Y108.732 E130.1306
G1 X166.095 Y109.158 E130.37627
G1 X166.08 Y109.333 E130.47744
G1 X165.974 Y110.191 E130.97541
G1 X165.94 Y110.408 E131.10193
G1 X165.778 Y111.222 E131.57999
G1 X165.73 Y111.427 E131.70126
G1 X165.501 Y112.257 E132.1972
G1 X165.451 Y112.419 E132.29486
G1 X165.154 Y113.254 E132.80534
G1 X165.099 Y113.394 E132.89198
G1 X164.744 Y114.2 E133.39927
G1 X164.664 Y114.367 E133.50593
G1 X164.25 Y115.147 E134.01457
G1 X164.164 Y115.296 E134.11366
G1 X163.687 Y116.056 E134.6305
G1 X163.599 Y116.185 E134.72045
G1 X163.205 Y116.72 E135.10316
G1 X162.834 Y117.3 E135.49974
G1 X162.529 Y117.939 E135.90758
G1 X162.308 Y118.612 E136.31559
G1 X162.174 Y119.308 E136.72385
G1 X162.129 Y120.015 E137.13191
G1 X162.173 Y120.721 E137.53935
G1 X162.305 Y121.415 E137.94626
G1 X162.483 Y121.975 E138.28473
G1 X162.499 Y122.016 E138.31008
G1 X162.563 Y122.204 E138.42447
G1 X162.815 Y123.047 E138.93127
G1 X162.863 Y123.232 E139.04135
G1 X163.054 Y124.099 E139.55272
G1 X163.077 Y124.228 E139.6282
G1 X163.205 Y125.108 E140.14041
G1 X163.227 Y125.302 E140.25287
G1 X163.286 Y126.134 E140.73331
G1 X163.293 Y126.36 E140.86354
G1 X163.274 Y127.657 E141.6107
G1 X163.214 Y128.634 E142.17451
G1 X163.12 Y129.601 E142.73413
G1 X163.099 Y129.758 E142.82536
G1 X162.949 Y130.626 E143.33274
G1 X162.915 Y130.791 E143.42978
G1 X162.697 Y131.669 E143.95086
G1 X162.662 Y131.792 E144.02452
G1 X162.376 Y132.663 E144.55257
G1 X162.325 Y132.801 E144.63732
G1 X161.988 Y133.622 E145.1485
G1 X161.917 Y133.778 E145.24723
G1 X161.526 Y134.563 E145.75237
G1 X161.442 Y134.717 E145.85341
G1 X160.993 Y135.474 E146.36037
G1 X160.899 Y135.62 E146.46039
G1 X160.398 Y136.338 E146.96469
G1 X160.292 Y136.479 E147.06629
G1 X159.752 Y137.146 E147.56061
G1 X159.616 Y137.301 E147.67939
G1 X159.023 Y137.931 E148.17773
G1 X158.903 Y138.05 E148.27508
G1 X158.25 Y138.651 E148.78626
G1 X158.121 Y138.76 E148.88354
G1 X157.443 Y139.297 E149.38172
G1 X157.296 Y139.405 E149.48679
G1 X156.552 Y139.91 E150.00473
G1 X156.44 Y139.98 E150.08081
G1 X155.83 Y140.332 E150.48647
G1 X155.521 Y140.525 E150.69632
G1 X154.706 Y141.072 E151.26169
G1 X154.608 Y141.133 E151.32818
G1 X153.878 Y141.675 E151.85188
G1 X153.699 Y141.833 E151.98941
G1 X153.001 Y142.406 E152.50958
G1 X152.895 Y142.486 E152.58607
G1 X152.137 Y143.02 E153.12014
G1 X152.019 Y143.097 E153.2013
G1 X151.264 Y143.551 E153.70875
G1 X151.104 Y143.639 E153.81393
G1 X150.318 Y144.037 E154.3214
G1 X150.178 Y144.101 E154.41007
G1 X149.342 Y144.449 E154.93166
G1 X149.203 Y144.501 E155.01714
G1 X148.36 Y144.782 E155.52897
G1 X148.211 Y144.826 E155.61846
G1 X148.001 Y144.879 E155.74321
G1 X147.735 Y144.955 E155.90256
G1 X146.829 Y145.236 E156.44894
G1 X146.675 Y145.28 E156.54119
G1 X145.816 Y145.513 E157.05386
G1 X145.613 Y145.56 E157.17388
G1 X144.591 Y145.755 E157.77317
G1 X144.498 Y145.766 E157.82711
G1 X143.821 Y145.9 E158.22463
G1 X143.148 Y146.124 E158.63318
G1 X142.511 Y146.431 E159.04048
G1 X141.916 Y146.816 E159.44869
G1 X141.375 Y147.273 E159.85661
G1 X140.89 Y147.802 E160.26999
G1 X140.334 Y148.638 E160.8483
G1 X140.088 Y149.094 E161.14674
G1 X140.012 Y149.224 E161.23348
G1 X139.544 Y149.959 E161.73538
G1 X139.435 Y150.118 E161.84641
G1 X138.915 Y150.818 E162.34869
G1 X138.796 Y150.966 E162.45808
G1 X138.238 Y151.615 E162.95108
G1 X138.1 Y151.764 E163.06806
G1 X137.462 Y152.414 E163.59267
G1 X137.34 Y152.53 E163.68964
G1 X136.663 Y153.125 E164.20879
G1 X136.547 Y153.22 E164.29516
G1 X135.822 Y153.77 E164.81932
G1 X135.713 Y153.847 E164.89619
G1 X134.927 Y154.356 E165.43557
G1 X134.839 Y154.409 E165.49474
G1 X134.024 Y154.856 E166.03015
G1 X133.885 Y154.925 E166.11954
G1 X133.076 Y155.297 E166.63243
G1 X132.944 Y155.352 E166.71479
G1 X132.108 Y155.662 E167.22837
G1 X131.927 Y155.722 E167.33821
G1 X131.108 Y155.96 E167.82946
G1 X130.918 Y156.008 E167.94234
G1 X130.091 Y156.184 E168.42936
G1 X129.879 Y156.22 E168.55322
G1 X128.749 Y156.367 E169.20959
G1 X128.658 Y156.377 E169.26232
G1 X128.161 Y156.417 E169.54952
G1 X127.25 Y156.462 E170.07489
G1 X127.052 Y156.464 E170.18895
G1 X126.086 Y156.441 E170.74552
G1 X125.243 Y156.486 E171.23178
G1 X125.15 Y156.499 E171.28587
G1 X124.257 Y156.588 E171.80278
G1 X124.103 Y156.596 E171.89161
G1 X122.763 Y156.612 E172.6635
G1 X121.093 Y156.549 E173.62611
G1 X121.068 Y156.545 E173.64069
G1 X121.035 Y156.545 E173.6597
G1 X120.402 Y156.51 E174.02486
G1 X120.402 Y156.536 E174.03984
G1 X119.094 Y156.592 E174.79394
G1 X119.029 Y156.593 E174.83138
G1 X118.107 Y156.584 E175.36248
G1 X116.879 Y156.559 E176.06995
G1 X116.212 Y156.587 E176.45448
G1 X115.837 Y156.627 E176.67171
G1 X115.662 Y156.638 E176.77271
G1 X114.696 Y156.669 E177.32941
G1 X114.287 Y156.69 E177.5653
G1 X113.734 Y156.742 E177.88524
G1 X113.612 Y156.749 E177.95563
G1 X113.268 Y156.759 E178.15385
G1 X113.268 Y156.736 E178.1671
G1 X112.34 Y156.808 E178.70324
G1 X112.084 Y156.819 E178.85083
G1 X111.807 Y156.838 E179.01075
G1 X111.591 Y156.859 E179.13576
G1 X110.708 Y156.912 E179.64528
G1 X110.708 Y156.886 E179.66026
G1 X109.897 Y156.962 E180.12944
G1 X108.136 Y157.082 E181.14613
G1 X107.453 Y157.175 E181.54317
G1 X106.769 Y157.358 E181.95101
G1 X106.114 Y157.626 E182.35865
G1 X105.497 Y157.975 E182.76695
G1 X104.929 Y158.399 E183.17522
G1 X104.421 Y158.891 E183.58257
G1 X103.978 Y159.443 E183.99025
G1 X103.607 Y160.047 E184.39854
G1 X103.316 Y160.692 E184.80612
G1 X103.109 Y161.369 E185.2139
G1 X102.99 Y162.061 E185.61834
G1 X102.959 Y162.558 E185.90517
G1 X102.956 Y162.696 E185.98467
G1 X102.907 Y163.67 E186.54641
G1 X102.892 Y163.849 E186.64987
G1 X102.786 Y164.704 E187.14612
G1 X102.756 Y164.887 E187.25294
G1 X102.587 Y165.733 E187.74986
G1 X102.544 Y165.914 E187.85702
G1 X102.317 Y166.741 E188.35099
G1 X102.256 Y166.937 E188.46923
G1 X101.96 Y167.763 E188.97463
G1 X101.909 Y167.894 E189.0556
G1 X101.533 Y168.744 E189.59097
G1 X101.484 Y168.847 E189.65666
G1 X101.053 Y169.656 E190.18465
G1 X100.978 Y169.786 E190.2711
G1 X100.491 Y170.56 E190.79783
G1 X100.414 Y170.673 E190.8766
G1 X99.895 Y171.379 E191.38131
G1 X99.779 Y171.525 E191.48872
G1 X99.2 Y172.202 E192.00183
G1 X99.095 Y172.316 E192.09111
