;FLAVOR:UltiGCode
;TIME:971
;MATERIAL:1846
;MATERIAL2:0
;NOZZLE_DIAMETER:0.4
;MINX:92.975
;MINY:76.265
;MINZ:0.324
;MAXX:129.769
;MAXY:145.899
;MAXZ:26.319
;Generated with Cura_SteamEngine 4.8.0
M82 ;absolute extrusion mode
G0 F3000 Y50 ;avoid prime blob
G92 E0
G92 E0
G10
;LAYER_COUNT:168
;LAYER:-7
M107
G0 F9000 X97.351 Y82.301 Z0.324
;TYPE:SUPPORT-INTERFACE
G11
G1 F1350 X97.937 Y81.631 E0.23072
G1 X98.073 Y81.488 E0.28187
G1 X98.71 Y80.86 E0.51373
G1 X98.848 Y80.734 E0.56216
G1 X99.503 Y80.176 E0.78519
G1 X99.637 Y80.07 E0.82948
G1 X100.387 Y79.519 E1.0707
G1 X100.491 Y79.449 E1.1032
G1 X101.495 Y78.829 E1.40905
G1 X101.847 Y78.632 E1.51361
G1 X102.695 Y78.191 E1.76136
G1 X102.845 Y78.121 E1.80426
G1 X103.629 Y77.784 E2.02545
G1 X103.853 Y77.7 E2.08746
G1 X105.184 Y77.268 E2.45017
G1 X105.354 Y77.217 E2.49618
G1 X105.869 Y77.08 E2.63431
G1 X106.851 Y76.856 E2.89538
G1 X107.083 Y76.814 E2.95649
G1 X108.434 Y76.633 E3.3098
G1 X108.577 Y76.618 E3.34707
G1 X109.424 Y76.55 E3.56732
G1 X110.491 Y76.503 E3.84415
G1 X112.206 Y76.491 E4.28869
G1 X112.907 Y76.495 E4.4704
G1 X113.673 Y76.519 E4.66904
G1 X114.619 Y76.574 E4.91466
G1 X115.57 Y76.663 E5.16223
G1 X115.738 Y76.685 E5.20615
G1 X116.895 Y76.888 E5.51063
G1 X117.632 Y77.05 E5.70622
G1 X117.722 Y77.071 E5.73017
G1 X118.657 Y77.314 E5.98057
G1 X118.781 Y77.351 E6.01412
G1 X119.648 Y77.645 E6.25141
G1 X119.815 Y77.709 E6.29777
G1 X120.624 Y78.05 E6.52533
G1 X120.811 Y78.138 E6.5789
G1 X121.602 Y78.544 E6.80935
G1 X121.907 Y78.71 E6.89936
G1 X122.819 Y79.263 E7.17581
G1 X122.97 Y79.363 E7.22276
G1 X123.688 Y79.876 E7.45148
G1 X123.829 Y79.986 E7.49784
G1 X124.52 Y80.558 E7.73035
G1 X124.636 Y80.663 E7.7709
G1 X125.285 Y81.288 E8.00445
G1 X125.405 Y81.413 E8.04936
G1 X126.009 Y82.086 E8.28375
G1 X126.103 Y82.2 E8.32205
G1 X126.873 Y83.215 E8.65228
G1 X126.905 Y83.262 E8.66701
G1 X127.428 Y84.081 E8.91889
G1 X127.501 Y84.206 E8.95641
G1 X127.943 Y85.022 E9.19695
G1 X128 Y85.139 E9.23069
G1 X128.379 Y85.979 E9.46955
G1 X128.443 Y86.137 E9.51374
G1 X128.751 Y86.981 E9.74661
G1 X128.796 Y87.118 E9.78399
G1 X129.048 Y88.002 E10.02225
G1 X129.084 Y88.146 E10.06073
G1 X129.228 Y88.809 E10.23658
G1 X129.276 Y89.052 E10.30078
G1 X129.438 Y90.085 E10.57181
G1 X129.46 Y90.278 E10.62216
G1 X129.531 Y91.165 E10.85281
G1 X129.539 Y91.339 E10.89795
G1 X129.544 Y92.221 E11.12657
G1 X129.538 Y92.421 E11.17844
G1 X129.481 Y93.299 E11.40649
G1 X129.465 Y93.458 E11.44791
G1 X129.359 Y94.239 E11.6522
G1 X129.345 Y94.334 E11.67709
G1 X129.211 Y95.13 E11.88632
G1 X129.09 Y95.762 E12.05311
G1 X128.993 Y96.219 E12.1742
G1 X128.84 Y96.841 E12.34023
G1 X128.7 Y97.739 E12.57581
G1 X128.64 Y98.464 E12.76437
G1 X128.626 Y98.687 E12.82228
G1 X128.596 Y99.403 E13.00803
G1 X128.582 Y99.581 E13.05431
G1 X128.481 Y100.46 E13.28365
G1 X128.453 Y100.647 E13.33266
G1 X128.332 Y101.29 E13.50225
G1 X128.249 Y101.955 E13.67596
G1 X128.25 Y102.611 E13.84599
G1 X128.342 Y104.056 E14.22129
G1 X128.347 Y104.163 E14.24906
G1 X128.356 Y104.891 E14.43777
G1 X128.356 Y105.217 E14.52227
G1 X128.347 Y106.179 E14.77163
G1 X128.34 Y106.515 E14.85874
G1 X128.318 Y107.172 E15.02913
G1 X128.296 Y107.637 E15.14979
G1 X128.241 Y108.506 E15.37549
G1 X128.21 Y108.928 E15.48517
G1 X128.2 Y109.044 E15.51535
G1 X128.092 Y109.988 E15.76163
G1 X128.068 Y110.145 E15.80279
G1 X127.982 Y110.602 E15.92333
G1 X127.922 Y110.994 E16.02612
G1 X127.803 Y112.061 E16.3044
G1 X127.718 Y112.691 E16.46917
G1 X127.693 Y112.847 E16.51012
G1 X127.631 Y113.798 E16.75715
G1 X127.66 Y114.955 E17.05714
G1 X127.661 Y115.093 E17.09291
G1 X127.653 Y115.62 E17.22952
G1 X127.65 Y115.732 E17.25856
G1 X127.604 Y116.624 E17.49007
G1 X127.584 Y116.842 E17.54682
G1 X127.392 Y118.202 E17.90283
G1 X127.367 Y118.345 E17.94045
G1 X127.277 Y118.806 E18.0622
G1 X127.247 Y118.946 E18.09931
G1 X127.037 Y119.845 E18.33861
G1 X126.992 Y120.014 E18.38394
G1 X126.702 Y120.942 E18.63595
G1 X126.543 Y121.594 E18.8099
G1 X126.464 Y122.356 E19.00847
G1 X126.42 Y123.767 E19.37438
G1 X126.418 Y123.783 E19.37855
G1 X126.41 Y124.086 E19.45712
G1 X126.381 Y124.686 E19.61282
G1 X126.338 Y125.312 E19.77546
G1 X126.328 Y125.815 E19.90587
G1 X126.343 Y126.411 E20.0604
G1 X126.371 Y128.281 E20.54516
G1 X126.373 Y128.573 E20.62084
G1 X126.367 Y129.611 E20.8899
G1 X126.328 Y130.569 E21.13842
G1 X126.312 Y130.768 E21.19017
G1 X126.224 Y131.532 E21.3895
G1 X126.216 Y131.532 E21.39158
G1 X126.167 Y132.18 E21.56002
G1 X126.069 Y133.048 E21.78643
G1 X126.042 Y133.225 E21.83284
G1 X125.879 Y134.093 E22.06176
G1 X125.839 Y134.27 E22.1088
G1 X125.609 Y135.14 E22.34205
G1 X125.564 Y135.291 E22.38289
G1 X125.27 Y136.141 E22.61601
G1 X125.21 Y136.299 E22.65982
G1 X124.853 Y137.134 E22.8952
G1 X124.786 Y137.277 E22.93614
G1 X124.367 Y138.086 E23.17229
G1 X124.298 Y138.208 E23.20861
G1 X123.809 Y139.004 E23.45076
G1 X123.728 Y139.125 E23.4885
G1 X123.211 Y139.844 E23.71804
G1 X123.09 Y140 E23.76922
G1 X122.526 Y140.674 E23.99701
G1 X122.396 Y140.82 E24.04769
G1 X121.921 Y141.319 E24.22626
G1 X121.836 Y141.403 E24.25723
G1 X121.127 Y142.062 E24.50813
G1 X120.988 Y142.181 E24.55556
G1 X120.297 Y142.735 E24.78512
G1 X120.158 Y142.839 E24.83012
G1 X119.443 Y143.331 E25.05508
G1 X119.259 Y143.448 E25.1116
G1 X118.503 Y143.891 E25.33872
G1 X118.361 Y143.968 E25.38059
G1 X117.533 Y144.375 E25.61973
G1 X117.416 Y144.427 E25.65292
G1 X116.561 Y144.772 E25.8919
G1 X116.398 Y144.83 E25.93674
G1 X115.555 Y145.101 E26.16626
G1 X115.391 Y145.147 E26.21041
G1 X114.519 Y145.359 E26.44302
G1 X114.357 Y145.392 E26.48587
G1 X113.464 Y145.54 E26.72049
G1 X113.287 Y145.563 E26.76676
G1 X112.403 Y145.644 E26.99685
G1 X112.246 Y145.653 E27.03761
G1 X111.53 Y145.674 E27.22328
G1 X110.896 Y145.674 E27.38761
G1 X109.908 Y145.64 E27.64385
G1 X109.781 Y145.631 E27.67685
G1 X108.872 Y145.532 E27.91386
G1 X108.696 Y145.506 E27.95997
G1 X107.832 Y145.349 E28.18759
G1 X107.645 Y145.307 E28.23727
G1 X106.778 Y145.082 E28.46944
G1 X106.631 Y145.038 E28.50921
G1 X105.756 Y144.741 E28.74872
G1 X105.618 Y144.688 E28.78704
G1 X104.8 Y144.342 E29.01725
G1 X104.63 Y144.263 E29.06584
G1 X103.842 Y143.86 E29.29525
G1 X103.682 Y143.77 E29.34283
G1 X102.926 Y143.31 E29.57221
G1 X102.787 Y143.219 E29.61527
G1 X102.052 Y142.695 E29.84924
G1 X101.906 Y142.582 E29.8971
G1 X101.235 Y142.026 E30.12297
G1 X101.1 Y141.906 E30.16979
G1 X100.679 Y141.511 E30.31942
G1 X100.511 Y141.348 E30.3801
G1 X99.828 Y140.62 E30.63884
G1 X99.728 Y140.506 E30.67815
G1 X99.16 Y139.803 E30.91241
G1 X99.057 Y139.666 E30.95683
G1 X98.56 Y138.951 E31.18254
G1 X98.451 Y138.781 E31.23488
G1 X97.994 Y138.01 E31.46719
G1 X97.927 Y137.887 E31.5035
G1 X97.527 Y137.083 E31.73626
G1 X97.442 Y136.896 E31.7895
G1 X97.116 Y136.098 E32.01294
G1 X97.046 Y135.91 E32.06494
G1 X96.777 Y135.084 E32.2901
G1 X96.728 Y134.912 E32.33646
G1 X96.507 Y134.02 E32.57466
G1 X96.477 Y133.877 E32.61253
G1 X96.326 Y132.992 E32.84524
G1 X96.304 Y132.826 E32.88864
G1 X96.216 Y131.919 E33.12484
G1 X96.208 Y131.778 E33.16144
G1 X96.183 Y130.906 E33.38756
G1 X96.183 Y130.325 E33.53815
G1 X96.177 Y129.988 E33.62552
G1 X96.155 Y129.575 E33.73272
G1 X96.152 Y129.474 E33.75891
G1 X96.152 Y129.01 E33.87918
G1 X96.148 Y128.66 E33.96991
G1 X96.148 Y128.327 E34.05622
G1 X96.157 Y127.615 E34.24078
G1 X96.177 Y127.06 E34.38473
G1 X96.164 Y126.449 E34.54314
G1 X96.12 Y125.895 E34.68719
G1 X96.1 Y125.453 E34.80187
G1 X96.085 Y124.795 E34.97247
G1 X96.083 Y124.258 E35.11166
G1 X96.013 Y122.043 E35.68608
G1 X95.95 Y121.376 E35.85973
G1 X95.802 Y120.72 E36.03404
G1 X95.518 Y119.748 E36.29652
G1 X95.473 Y119.568 E36.34461
G1 X95.278 Y118.656 E36.58634
G1 X95.257 Y118.549 E36.61461
G1 X95.124 Y117.779 E36.81715
G1 X94.995 Y116.84 E37.06282
G1 X94.984 Y116.726 E37.09251
G1 X94.92 Y116.328 E37.19699
G1 X94.945 Y116.323 E37.2036
G1 X94.658 Y115.2 E37.50404
G1 X94.582 Y114.816 E37.6055
G1 X94.445 Y114.272 E37.75091
G1 X94.275 Y113.721 E37.90037
G1 X94.227 Y113.542 E37.94841
G1 X94.021 Y112.647 E38.18646
G1 X93.998 Y112.533 E38.2166
G1 X93.87 Y111.745 E38.42353
G1 X93.859 Y111.653 E38.44755
G1 X93.845 Y111.541 E38.4768
G1 X93.719 Y109.953 E38.8897
G1 X93.69 Y108.877 E39.16871
G1 X93.63 Y108.214 E39.34126
G1 X93.559 Y107.843 E39.43917
G1 X93.478 Y107.49 E39.53304
G1 X93.447 Y107.325 E39.57656
G1 X93.317 Y106.472 E39.80021
G1 X93.295 Y106.26 E39.85545
G1 X93.209 Y104.817 E40.23014
G1 X93.206 Y104.704 E40.25944
G1 X93.201 Y103.695 E40.52098
G1 X93.201 Y103.203 E40.6485
G1 X93.208 Y102.705 E40.7776
G1 X93.368 Y97.261 E42.18929
G1 X93.379 Y96.36 E42.42285
G1 X93.427 Y94.845 E42.81573
G1 X93.464 Y93.866 E43.06967
G1 X93.501 Y93.227 E43.23558
G1 X93.556 Y92.539 E43.41448
G1 X93.633 Y91.638 E43.64887
G1 X93.647 Y91.504 E43.68379
G1 X93.756 Y90.612 E43.91672
G1 X93.784 Y90.434 E43.96342
G1 X93.933 Y89.66 E44.16773
G1 X93.955 Y89.55 E44.1968
G1 X94.082 Y88.988 E44.34615
G1 X94.233 Y88.381 E44.50828
G1 X94.286 Y88.189 E44.5599
G1 X94.562 Y87.285 E44.8049
G1 X94.605 Y87.161 E44.83892
G1 X94.942 Y86.291 E45.08075
G1 X94.995 Y86.169 E45.11522
G1 X95.404 Y85.305 E45.363
G1 X95.458 Y85.198 E45.39406
G1 X95.801 Y84.584 E45.57636
G1 X96.077 Y84.114 E45.71764
G1 X96.627 Y83.262 E45.98049
G1 X96.697 Y83.162 E46.01213
G1 X97.26 Y82.413 E46.255
G1 X97.351 Y82.301 E46.29241
G0 F9000 X97.6 Y82.016
G1 F1350 X97.6 Y137.229 E60.60362
G0 F9000 X99.2 Y139.852
G1 F1350 X99.2 Y80.434 E76.00476
G0 F9000 X100.8 Y79.258
G1 F1350 X100.8 Y141.624 E92.17003
G0 F9000 X102.4 Y142.943
G1 F1350 X102.4 Y78.344 E108.91409
G0 F9000 X104 Y77.652
G1 F1350 X104 Y143.94 E126.09594
G0 F9000 X105.6 Y144.68
G1 F1350 X105.6 Y77.151 E143.59946
G0 F9000 X107.2 Y76.798
G1 F1350 X107.2 Y145.191 E161.32692
G0 F9000 X108.8 Y145.521
G1 F1350 X108.8 Y76.6 E179.19125
G0 F9000 X110.4 Y76.507
G1 F1350 X110.4 Y145.656 E197.11467
G0 F9000 X112 Y145.661
G1 F1350 X112 Y76.492 E215.04327
G0 F9000 X113.6 Y76.517
G1 F1350 X113.6 Y145.518 E232.92833
G0 F9000 X115.2 Y145.194
G1 F1350 X115.2 Y76.629 E250.70038
G0 F9000 X116.8 Y76.872
G1 F1350 X116.8 Y144.676 E268.27518
G0 F9000 X118.4 Y143.947
G1 F1350 X118.4 Y77.248 E285.56356
G0 F9000 X120 Y77.787
G1 F1350 X120 Y142.948 E302.45329
G0 F9000 X121.6 Y141.623
G1 F1350 X121.6 Y78.543 E318.80362
G0 F9000 X123.2 Y79.528
G1 F1350 X123.2 Y139.859 E334.44142
G0 F9000 X124.8 Y137.248
G1 F1350 X124.8 Y80.821 E349.0673
G0 F9000 X126.4 Y82.592
G1 F1350 X126.4 Y124.293 E359.8762
G0 F9000 X128 Y110.507
G1 F1350 X128 Y85.139 E366.45158
G0 F9000 X96 Y84.245
G1 F1350 X96 Y121.905 E376.21305
G0 F9000 X94.4 Y114.126
G1 F1350 X94.4 Y87.815 E383.03287
G0 F600 X94.4 Y87.815 Z0.549
G0 F9000 X127.544 Y84.181
;TIME_ELAPSED:70.668345
;LAYER:-6
;TYPE:SUPPORT
G1 F1350 X127.463 Y84.043 E383.05807
G1 X126.922 Y83.198 E383.2161
G1 X126.142 Y82.17 E383.41934
G1 X126.036 Y82.042 E383.44551
G1 X125.432 Y81.37 E383.58782
G1 X125.33 Y81.263 E383.6111
G1 X124.669 Y80.627 E383.75558
G1 X124.55 Y80.52 E383.78078
G1 X123.86 Y79.947 E383.92204
G1 X123.706 Y79.827 E383.95279
G1 X122.999 Y79.322 E384.08963
G1 X122.844 Y79.22 E384.11886
G1 X122.045 Y78.734 E384.26615
G1 X121.956 Y78.681 E384.28247
G1 X127.648 Y84.373 E385.55029
G1 X127.986 Y84.998 E385.66221
G1 X128.045 Y85.117 E385.68312
G1 X128.418 Y85.945 E385.82616
G1 X128.489 Y86.119 E385.85576
G1 X128.701 Y86.699 E385.95302
G1 X119.567 Y77.565 E387.98751
G1 X118.809 Y77.306 E388.11367
G1 X118.673 Y77.266 E388.136
G1 X117.758 Y77.028 E388.28491
G1 X129.206 Y88.477 E390.83493
G1 X129.276 Y88.799 E390.88683
G1 X129.322 Y89.035 E390.9247
G1 X129.348 Y89.188 E390.94914
G1 X129.477 Y90.021 E391.0819
G1 X116.166 Y76.709 E394.04689
G1 X115.73 Y76.632 E394.11662
G1 X115.575 Y76.612 E394.14124
G1 X114.716 Y76.532 E394.27712
G1 X129.589 Y91.405 E397.58991
G1 X129.593 Y92.222 E397.71859
G1 X129.587 Y92.423 E397.75026
G1 X129.572 Y92.661 E397.78782
G1 X113.371 Y76.46 E401.39641
G1 X112.907 Y76.445 E401.46952
G1 X112.205 Y76.441 E401.58009
G1 X112.08 Y76.442 E401.59978
G1 X129.464 Y93.826 E405.47187
G1 X129.394 Y94.341 E405.55373
G1 X129.295 Y94.929 E405.64764
G1 X110.816 Y76.45 E409.76363
G1 X110.488 Y76.453 E409.81529
G1 X109.585 Y76.492 E409.95764
G1 X129.09 Y95.998 E414.30227
G1 X129.039 Y96.23 E414.33968
G1 X128.888 Y96.851 E414.44034
G1 X128.859 Y97.039 E414.4703
G1 X108.406 Y76.586 E419.02598
G1 X107.284 Y76.737 E419.20428
G1 X128.714 Y98.167 E423.97757
G1 X128.689 Y98.467 E424.02499
G1 X128.674 Y98.688 E424.05987
G1 X128.646 Y99.372 E424.16769
G1 X106.222 Y76.948 E429.16239
G1 X105.865 Y77.029 E429.22004
G1 X105.339 Y77.17 E429.30581
G1 X105.21 Y77.208 E429.32699
G1 X128.522 Y100.52 E434.51948
G1 X128.503 Y100.641 E434.53877
G1 X128.38 Y101.297 E434.64389
G1 X128.341 Y101.612 E434.69388
G1 X104.248 Y77.519 E440.06032
G1 X103.835 Y77.653 E440.12871
G1 X103.619 Y77.733 E440.16498
G1 X103.318 Y77.863 E440.21662
G1 X128.315 Y102.859 E445.78431
G1 X128.391 Y104.052 E445.97259
G1 X128.396 Y104.159 E445.98946
G1 X128.397 Y104.214 E445.99812
G1 X102.447 Y78.263 E451.7783
G1 X101.816 Y78.59 E451.89024
G1 X101.614 Y78.704 E451.92677
G1 X128.403 Y105.493 E457.89371
G1 X128.395 Y106.179 E458.00177
G1 X128.389 Y106.517 E458.05501
G1 X128.382 Y106.744 E458.09078
G1 X100.822 Y79.185 E464.22935
G1 X100.463 Y79.407 E464.29583
G1 X100.345 Y79.487 E464.31828
G1 X100.061 Y79.696 E464.37382
G1 X128.325 Y107.961 E470.66941
G1 X128.292 Y108.48 E470.75132
G1 X128.259 Y108.925 E470.8216
G1 X128.247 Y109.05 E470.84138
G1 X128.237 Y109.145 E470.85642
G1 X99.34 Y80.248 E477.2929
G1 X98.813 Y80.698 E477.40205
G1 X98.664 Y80.833 E477.43371
G1 X98.658 Y80.839 E477.43505
G1 X128.093 Y110.274 E483.99136
G1 X128.03 Y110.609 E484.04505
G1 X127.971 Y110.999 E484.10717
G1 X127.928 Y111.382 E484.16787
G1 X98.017 Y81.471 E490.83021
G1 X97.9 Y81.597 E490.85729
G1 X97.419 Y82.146 E490.97225
G1 X127.791 Y112.517 E497.73716
G1 X127.766 Y112.699 E497.76609
G1 X127.742 Y112.853 E497.79064
G1 X127.688 Y113.687 E497.92227
G1 X96.86 Y82.86 E504.78875
G1 X96.656 Y83.132 E504.8423
G1 X96.592 Y83.222 E504.85969
G1 X96.34 Y83.612 E504.93282
G1 X127.709 Y114.981 E511.91991
G1 X127.71 Y115.094 E511.93771
G1 X127.702 Y115.621 E512.02072
G1 X127.673 Y116.217 E512.1147
G1 X95.851 Y84.396 E519.20258
G1 X95.756 Y84.558 E519.23216
G1 X95.414 Y85.172 E519.34285
G1 X95.393 Y85.211 E519.34983
G1 X127.557 Y117.375 E526.51399
G1 X127.438 Y118.22 E526.64839
G1 X127.415 Y118.354 E526.66981
G1 X127.391 Y118.482 E526.69032
G1 X94.983 Y86.073 E533.90894
G1 X94.953 Y86.138 E533.92022
G1 X94.895 Y86.271 E533.94307
G1 X94.618 Y86.981 E534.06311
G1 X127.163 Y119.526 E541.31213
G1 X127.088 Y119.844 E541.36359
G1 X127.035 Y120.04 E541.39557
G1 X126.886 Y120.522 E541.47503
G1 X94.308 Y87.944 E548.73141
G1 X94.238 Y88.175 E548.76943
G1 X94.185 Y88.36 E548.79974
G1 X94.039 Y88.948 E548.89516
G1 X126.611 Y121.52 E556.1502
G1 X126.591 Y121.603 E556.16365
G1 X126.513 Y122.358 E556.28319
G1 X126.503 Y122.685 E556.33472
G1 X93.816 Y89.997 E563.61549
G1 X93.734 Y90.424 E563.68397
G1 X93.706 Y90.603 E563.71251
G1 X93.644 Y91.099 E563.79123
G1 X126.466 Y123.92 E571.10185
G1 X126.461 Y124.035 E571.11998
G1 X126.429 Y124.689 E571.22311
G1 X126.4 Y125.127 E571.29224
G1 X93.528 Y92.255 E578.61411
G1 X93.504 Y92.534 E578.65821
G1 X93.45 Y93.222 E578.76691
G1 X93.437 Y93.437 E578.80083
G1 X126.392 Y126.392 E586.14118
G1 X126.392 Y126.409 E586.14386
G1 X126.412 Y127.685 E586.34486
G1 X93.384 Y94.656 E593.70158
G1 X93.376 Y94.842 E593.7309
G1 X93.343 Y95.888 E593.89573
G1 X126.42 Y128.966 E601.26337
G1 X126.417 Y129.611 E601.36495
G1 X126.393 Y130.211 E601.45953
G1 X93.319 Y97.137 E608.82639
G1 X93.317 Y97.259 E608.8456
G1 X93.284 Y98.375 E609.02145
G1 X126.292 Y131.383 E616.37361
G1 X126.269 Y131.581 E616.405
G1 X126.262 Y131.581 E616.40611
G1 X126.217 Y132.168 E616.49883
G1 X126.176 Y132.54 E616.55777
G1 X93.248 Y99.612 E623.89211
G1 X93.211 Y100.848 E624.08687
G1 X126.013 Y133.65 E631.39314
G1 X125.925 Y134.114 E631.46752
G1 X125.887 Y134.282 E631.49465
G1 X125.78 Y134.689 E631.56093
G1 X93.175 Y102.085 E638.82322
G1 X93.157 Y102.702 E638.92043
G1 X93.15 Y103.201 E638.99903
G1 X93.15 Y103.333 E639.01982
