;FLAVOR:UltiGCode
;TIME:2172
;MATERIAL:5984
;MATERIAL2:0
;NOZZLE_DIAMETER:0.6
;MINX:57.978
;MINY:84.509
;MINZ:0.48
;MAXX:164.973
;MAXY:138.489
;MAXZ:3.355
;Generated with Cura_SteamEngine 4.8.0
M82 ;absolute extrusion mode
G0 F3000 Y50 ;avoid prime blob
G92 E0
G92 E0
G10
;LAYER_COUNT:17
;LAYER:-8
M107
G0 F7200 X64.385 Y87.624 Z0.48
;TYPE:SUPPORT-INTERFACE
G11
G1 F1237.5 X65.147 Y87.103 E0.5317
G1 X65.255 Y87.034 E0.60552
G1 X66.033 Y86.583 E1.1235
G1 X66.187 Y86.501 E1.22399
G1 X66.97 Y86.118 E1.72606
G1 X67.135 Y86.046 E1.82976
G1 X67.948 Y85.721 E2.33408
G1 X68.112 Y85.662 E2.43447
G1 X68.947 Y85.397 E2.93907
G1 X69.102 Y85.354 E3.03172
G1 X69.999 Y85.14 E3.56289
G1 X70.117 Y85.116 E3.63225
G1 X71.026 Y84.968 E4.16273
G1 X71.156 Y84.952 E4.23817
G1 X72.07 Y84.871 E4.7667
G1 X72.214 Y84.863 E4.84977
G1 X72.941 Y84.845 E5.26865
G1 X76.723 Y84.852 E7.44709
G1 X77.515 Y84.88 E7.90357
G1 X77.518 Y84.908 E7.91979
G1 X78.327 Y84.863 E8.38649
G1 X79.05 Y84.845 E8.80307
G1 X82.832 Y84.852 E10.9815
G1 X83.624 Y84.88 E11.43798
G1 X83.627 Y84.908 E11.4542
G1 X84.436 Y84.863 E11.92091
G1 X85.159 Y84.845 E12.33748
G1 X88.942 Y84.852 E14.51649
G1 X89.734 Y84.88 E14.97297
G1 X89.737 Y84.908 E14.98919
G1 X90.546 Y84.863 E15.4559
G1 X91.269 Y84.845 E15.87247
G1 X95.051 Y84.852 E18.05091
G1 X95.843 Y84.88 E18.50739
G1 X95.846 Y84.908 E18.52361
G1 X96.655 Y84.863 E18.99031
G1 X97.378 Y84.845 E19.40689
G1 X101.161 Y84.852 E21.5859
G1 X101.953 Y84.88 E22.04238
G1 X101.956 Y84.908 E22.0586
G1 X102.765 Y84.863 E22.5253
G1 X103.488 Y84.845 E22.94188
G1 X107.27 Y84.852 E25.12031
G1 X108.062 Y84.88 E25.57679
G1 X108.065 Y84.908 E25.59301
G1 X108.874 Y84.863 E26.05972
G1 X109.597 Y84.845 E26.47629
G1 X113.379 Y84.852 E28.65473
G1 X114.171 Y84.88 E29.11121
G1 X114.174 Y84.908 E29.12743
G1 X114.983 Y84.863 E29.59413
G1 X115.706 Y84.845 E30.01071
G1 X119.489 Y84.852 E32.18972
G1 X120.281 Y84.88 E32.6462
G1 X120.284 Y84.908 E32.66242
G1 X121.093 Y84.863 E33.12912
G1 X121.816 Y84.845 E33.5457
G1 X125.598 Y84.852 E35.72413
G1 X126.39 Y84.88 E36.18061
G1 X126.393 Y84.908 E36.19683
G1 X127.202 Y84.863 E36.66353
G1 X127.925 Y84.845 E37.08011
G1 X131.708 Y84.852 E39.25912
G1 X132.5 Y84.88 E39.7156
G1 X132.503 Y84.908 E39.73182
G1 X133.312 Y84.863 E40.19853
G1 X134.035 Y84.845 E40.6151
G1 X137.817 Y84.852 E42.79354
G1 X138.609 Y84.88 E43.25002
G1 X138.612 Y84.908 E43.26624
G1 X139.421 Y84.863 E43.73294
G1 X140.144 Y84.845 E44.14952
G1 X143.927 Y84.852 E46.32853
G1 X144.719 Y84.88 E46.78501
G1 X144.722 Y84.908 E46.80123
G1 X145.531 Y84.863 E47.26793
G1 X146.254 Y84.845 E47.68451
G1 X150.036 Y84.852 E49.86294
G1 X150.158 Y84.855 E49.93324
G1 X151.093 Y84.89 E50.47217
G1 X151.224 Y84.9 E50.54785
G1 X152.118 Y85 E51.066
G1 X152.284 Y85.025 E51.1627
G1 X153.162 Y85.189 E51.67717
G1 X153.321 Y85.224 E51.77095
G1 X154.185 Y85.452 E52.28565
G1 X154.307 Y85.489 E52.35908
G1 X155.19 Y85.792 E52.8968
G1 X155.332 Y85.847 E52.98452
G1 X156.153 Y86.197 E53.49859
G1 X156.278 Y86.256 E53.57821
G1 X157.063 Y86.661 E54.087
G1 X157.212 Y86.745 E54.18552
G1 X157.977 Y87.214 E54.70238
G1 X158.125 Y87.312 E54.80462
G1 X158.838 Y87.824 E55.31023
G1 X158.967 Y87.925 E55.4046
G1 X159.651 Y88.496 E55.91782
G1 X159.758 Y88.591 E56.00024
G1 X160.351 Y89.157 E56.47242
G1 X160.499 Y89.31 E56.59503
G1 X161.113 Y89.974 E57.11595
G1 X161.228 Y90.109 E57.2181
G1 X161.769 Y90.79 E57.71907
G1 X161.858 Y90.909 E57.80466
G1 X162.379 Y91.671 E58.33636
G1 X162.444 Y91.773 E58.40602
G1 X162.899 Y92.557 E58.92815
G1 X162.981 Y92.711 E59.02864
G1 X163.367 Y93.501 E59.5351
G1 X163.436 Y93.658 E59.63388
G1 X163.76 Y94.47 E60.13745
G1 X163.821 Y94.638 E60.2404
G1 X164.085 Y95.471 E60.74372
G1 X164.126 Y95.616 E60.83052
G1 X164.342 Y96.523 E61.36756
G1 X164.365 Y96.635 E61.43342
G1 X164.515 Y97.554 E61.96977
G1 X164.53 Y97.68 E62.04286
G1 X164.611 Y98.593 E62.57081
G1 X164.619 Y98.739 E62.65503
G1 X164.637 Y99.432 E63.05434
G1 X164.623 Y107.721 E67.82881
G1 X164.62 Y107.845 E67.90025
G1 X164.585 Y108.774 E68.43574
G1 X164.575 Y108.92 E68.52003
G1 X164.477 Y109.805 E69.0329
G1 X164.453 Y109.963 E69.12496
G1 X164.357 Y110.48 E69.42784
G1 X164.274 Y111.164 E69.82471
G1 X164.278 Y111.867 E70.22965
G1 X164.342 Y112.404 E70.54115
G1 X164.487 Y113.262 E71.04236
G1 X164.507 Y113.416 E71.13181
G1 X164.591 Y114.294 E71.63985
G1 X164.602 Y114.455 E71.7328
G1 X164.624 Y115.201 E72.16268
G1 X164.638 Y123.546 E76.96941
G1 X164.604 Y124.54 E77.54229
G1 X164.593 Y124.697 E77.63294
G1 X164.498 Y125.571 E78.13933
G1 X164.473 Y125.745 E78.24059
G1 X164.313 Y126.62 E78.75294
G1 X164.283 Y126.757 E78.83372
G1 X164.05 Y127.656 E79.36866
G1 X164.011 Y127.786 E79.44684
G1 X163.727 Y128.622 E79.9554
G1 X163.661 Y128.794 E80.06151
G1 X163.317 Y129.61 E80.57159
G1 X163.252 Y129.748 E80.65945
G1 X162.838 Y130.558 E81.18342
G1 X162.778 Y130.665 E81.25408
G1 X162.313 Y131.433 E81.77122
G1 X162.217 Y131.578 E81.87138
G1 X161.71 Y132.29 E82.37484
G1 X161.591 Y132.444 E82.48695
G1 X161.031 Y133.12 E82.99257
G1 X160.93 Y133.235 E83.08073
G1 X160.453 Y133.741 E83.48128
G1 X160.282 Y133.912 E83.62057
G1 X159.599 Y134.551 E84.15931
G1 X159.462 Y134.672 E84.26459
G1 X158.775 Y135.225 E84.77258
G1 X158.65 Y135.32 E84.86301
G1 X157.907 Y135.834 E85.38341
G1 X157.8 Y135.902 E85.45643
G1 X157.004 Y136.371 E85.98859
G1 X156.872 Y136.443 E86.0752
G1 X156.091 Y136.83 E86.57726
G1 X155.902 Y136.915 E86.69662
G1 X155.095 Y137.244 E87.1986
G1 X154.957 Y137.294 E87.28315
G1 X154.112 Y137.569 E87.79499
G1 X153.935 Y137.62 E87.90109
G1 X153.077 Y137.83 E88.40989
G1 X152.944 Y137.858 E88.48817
G1 X152.035 Y138.012 E89.01922
G1 X151.881 Y138.032 E89.10867
G1 X151.018 Y138.115 E89.60805
G1 X150.842 Y138.126 E89.70962
G1 X150.103 Y138.148 E90.13548
G1 X148.544 Y138.152 E91.03346
G1 X147.122 Y138.152 E91.85254
G1 X146.227 Y138.154 E92.36806
G1 X145.448 Y138.129 E92.81699
G1 X145.448 Y138.105 E92.83082
G1 X143.994 Y138.148 E93.66869
G1 X142.434 Y138.152 E94.56725
G1 X141.013 Y138.152 E95.38574
G1 X140.117 Y138.154 E95.90184
G1 X139.338 Y138.129 E96.35078
G1 X139.338 Y138.105 E96.3646
G1 X137.884 Y138.148 E97.20247
G1 X136.325 Y138.152 E98.10046
G1 X134.903 Y138.152 E98.91953
G1 X134.008 Y138.154 E99.43505
G1 X133.229 Y138.129 E99.88399
G1 X133.229 Y138.105 E99.89781
G1 X131.775 Y138.148 E100.73568
G1 X130.215 Y138.152 E101.63424
G1 X128.794 Y138.152 E102.45274
G1 X127.898 Y138.154 E102.96884
G1 X127.119 Y138.129 E103.41777
G1 X127.119 Y138.105 E103.4316
G1 X125.665 Y138.148 E104.26947
G1 X124.106 Y138.152 E105.16745
G1 X122.685 Y138.152 E105.98595
G1 X121.789 Y138.154 E106.50205
G1 X121.01 Y138.129 E106.95098
G1 X121.01 Y138.105 E106.96481
G1 X119.556 Y138.148 E107.80268
G1 X117.997 Y138.152 E108.70066
G1 X116.575 Y138.152 E109.51973
G1 X115.679 Y138.154 E110.03583
G1 X114.9 Y138.129 E110.48477
G1 X114.9 Y138.105 E110.49859
G1 X113.446 Y138.148 E111.33646
G1 X111.887 Y138.152 E112.23445
G1 X110.466 Y138.152 E113.05294
G1 X109.57 Y138.154 E113.56904
G1 X108.791 Y138.129 E114.01798
G1 X108.791 Y138.105 E114.0318
G1 X107.337 Y138.148 E114.86967
G1 X105.778 Y138.152 E115.76766
G1 X104.356 Y138.152 E116.58673
G1 X103.461 Y138.154 E117.10225
G1 X102.682 Y138.129 E117.55119
G1 X102.682 Y138.105 E117.56501
G1 X101.228 Y138.148 E118.40288
G1 X99.668 Y138.152 E119.30144
G1 X98.247 Y138.152 E120.11994
G1 X97.351 Y138.154 E120.63604
G1 X96.572 Y138.129 E121.08497
G1 X96.572 Y138.105 E121.09879
G1 X95.118 Y138.148 E121.93666
G1 X93.559 Y138.152 E122.83465
G1 X92.137 Y138.152 E123.65372
G1 X91.242 Y138.154 E124.16925
G1 X90.463 Y138.129 E124.61818
G1 X90.463 Y138.105 E124.632
G1 X89.009 Y138.148 E125.46987
G1 X87.449 Y138.152 E126.36844
G1 X86.028 Y138.152 E127.18693
G1 X85.132 Y138.154 E127.70303
G1 X84.353 Y138.129 E128.15197
G1 X84.353 Y138.105 E128.16579
G1 X82.899 Y138.148 E129.00366
G1 X81.34 Y138.152 E129.90165
G1 X79.918 Y138.152 E130.72072
G1 X79.023 Y138.154 E131.23624
G1 X78.244 Y138.129 E131.68517
G1 X78.244 Y138.105 E131.699
G1 X76.79 Y138.148 E132.53687
G1 X75.23 Y138.152 E133.43543
G1 X73.809 Y138.152 E134.25393
G1 X72.914 Y138.154 E134.76945
G1 X71.947 Y138.122 E135.32675
G1 X71.822 Y138.113 E135.39893
G1 X70.912 Y138.016 E135.92606
G1 X70.74 Y137.992 E136.02609
G1 X69.901 Y137.839 E136.51733
G1 X69.706 Y137.796 E136.63235
G1 X68.858 Y137.578 E137.13668
G1 X68.72 Y137.537 E137.2196
G1 X67.836 Y137.239 E137.75694
G1 X67.736 Y137.202 E137.81835
G1 X66.892 Y136.845 E138.3462
G1 X66.751 Y136.781 E138.43539
G1 X65.934 Y136.364 E138.96373
G1 X65.835 Y136.309 E139.02897
G1 X65.029 Y135.822 E139.57139
G1 X64.917 Y135.748 E139.64871
G1 X64.187 Y135.229 E140.16463
G1 X64.066 Y135.136 E140.25253
G1 X63.372 Y134.563 E140.77092
G1 X63.249 Y134.454 E140.86558
G1 X62.764 Y133.998 E141.24903
G1 X62.556 Y133.792 E141.41765
G1 X61.923 Y133.114 E141.95193
G1 X61.803 Y132.979 E142.05597
G1 X61.248 Y132.29 E142.56557
G1 X61.155 Y132.167 E142.65439
G1 X60.639 Y131.421 E143.17686
G1 X60.573 Y131.317 E143.24781
G1 X60.101 Y130.517 E143.78283
G1 X60.032 Y130.389 E143.86659
G1 X59.64 Y129.598 E144.37509
G1 X59.555 Y129.409 E144.49445
G1 X59.231 Y128.611 E144.99054
G1 X59.181 Y128.474 E145.07455
G1 X58.906 Y127.629 E145.58639
G1 X58.855 Y127.452 E145.69249
G1 X58.642 Y126.582 E146.20841
G1 X58.617 Y126.461 E146.27958
G1 X58.463 Y125.552 E146.81063
G1 X58.442 Y125.39 E146.90472
G1 X58.36 Y124.531 E147.40175
G1 X58.348 Y124.348 E147.50739
G1 X58.327 Y123.606 E147.93495
G1 X58.314 Y115.277 E152.73246
G1 X58.348 Y114.283 E153.30534
G1 X58.359 Y114.126 E153.39599
G1 X58.456 Y113.228 E153.91625
G1 X58.479 Y113.076 E154.0048
G1 X58.584 Y112.503 E154.34034
G1 X58.665 Y111.819 E154.73708
G1 X58.659 Y111.116 E155.14202
G1 X58.601 Y110.629 E155.42451
G1 X58.438 Y109.626 E156.00982
G1 X58.422 Y109.494 E156.08641
G1 X58.341 Y108.581 E156.61436
G1 X58.333 Y108.435 E156.69859
G1 X58.315 Y107.744 E157.09674
G1 X58.328 Y99.446 E161.87639
G1 X58.331 Y99.317 E161.95072
G1 X58.366 Y98.402 E162.47814
G1 X58.377 Y98.251 E162.56535
G1 X58.472 Y97.388 E163.06544
G1 X58.5 Y97.203 E163.17321
G1 X58.662 Y96.332 E163.68351
G1 X58.699 Y96.165 E163.78204
G1 X58.925 Y95.304 E164.29477
G1 X58.962 Y95.183 E164.36765
G1 X59.261 Y94.31 E164.89918
G1 X59.317 Y94.163 E164.98979
G1 X59.668 Y93.342 E165.50409
G1 X59.736 Y93.197 E165.59633
G1 X60.135 Y92.422 E166.09842
G1 X60.219 Y92.273 E166.19695
G1 X60.688 Y91.508 E166.7138
G1 X60.786 Y91.36 E166.81605
G1 X61.308 Y90.633 E167.33156
G1 X61.383 Y90.536 E167.40219
G1 X61.972 Y89.829 E167.93222
G1 X62.07 Y89.719 E168.01708
G1 X62.552 Y89.213 E168.41961
G1 X62.71 Y89.055 E168.54831
G1 X63.443 Y88.375 E169.12422
G1 X63.577 Y88.261 E169.22556
G1 X64.266 Y87.713 E169.73264
G1 X64.385 Y87.624 E169.81824
G0 F7200 X64.8 Y87.34
G1 F1237.5 X64.8 Y135.664 E197.65286
G0 F7200 X67.2 Y136.975
G1 F1237.5 X67.2 Y86.02 E227.00294
G0 F7200 X69.6 Y85.235
G1 F1237.5 X69.6 Y137.768 E257.26195
G0 F7200 X72 Y138.123
G1 F1237.5 X72 Y84.877 E287.93164
G0 F7200 X74.4 Y84.848
G1 F1237.5 X74.4 Y138.152 E318.63475
G0 F7200 X76.8 Y138.148
G1 F1237.5 X76.8 Y84.855 E349.33152
G0 F7200 X79.2 Y84.846
G1 F1237.5 X79.2 Y138.154 E380.03692
G0 F7200 X81.6 Y138.152
G1 F1237.5 X81.6 Y84.85 E410.73888
G0 F7200 X84 Y84.887
G1 F1237.5 X84 Y138.116 E441.39878
G0 F7200 X86.4 Y138.152
G1 F1237.5 X86.4 Y84.848 E472.10188
G0 F7200 X88.8 Y84.852
G1 F1237.5 X88.8 Y138.149 E502.80096
G0 F7200 X91.2 Y138.152
G1 F1237.5 X91.2 Y84.846 E533.50521
G0 F7200 X93.6 Y84.85
G1 F1237.5 X93.6 Y138.152 E564.20716
G0 F7200 X96 Y138.122
G1 F1237.5 X96 Y84.899 E594.86361
G0 F7200 X98.4 Y84.847
G1 F1237.5 X98.4 Y138.152 E625.56729
G0 F7200 X100.8 Y138.15
G1 F1237.5 X100.8 Y84.852 E656.26694
G0 F7200 X103.2 Y84.852
G1 F1237.5 X103.2 Y138.145 E686.96371
G0 F7200 X105.6 Y138.152
G1 F1237.5 X105.6 Y84.849 E717.66624
G0 F7200 X108 Y84.878
G1 F1237.5 X108 Y138.129 E748.33881
G0 F7200 X110.4 Y138.153
G1 F1237.5 X110.4 Y84.847 E779.04307
G0 F7200 X112.8 Y84.851
G1 F1237.5 X112.8 Y138.15 E809.74329
G0 F7200 X115.2 Y138.138
G1 F1237.5 X115.2 Y84.857 E840.43315
G0 F7200 X117.6 Y84.849
G1 F1237.5 X117.6 Y138.152 E871.13568
G0 F7200 X120 Y138.135
G1 F1237.5 X120 Y84.871 E901.81574
G0 F7200 X122.4 Y84.847
G1 F1237.5 X122.4 Y138.153 E932.52
G0 F7200 X124.8 Y138.151
G1 F1237.5 X124.8 Y84.851 E963.2208
G0 F7200 X127.2 Y84.863
G1 F1237.5 X127.2 Y138.131 E993.90316
G0 F7200 X129.6 Y138.152
G1 F1237.5 X129.6 Y84.849 E1024.60569
G0 F7200 X132 Y84.863
G1 F1237.5 X132 Y138.142 E1055.2944
G0 F7200 X134.4 Y138.154
G1 F1237.5 X134.4 Y84.846 E1085.9998
G0 F7200 X136.8 Y84.851
G1 F1237.5 X136.8 Y138.151 E1116.7006
G0 F7200 X139.2 Y138.11
G1 F1237.5 X139.2 Y84.875 E1147.36396
G0 F7200 X141.6 Y84.848
G1 F1237.5 X141.6 Y138.152 E1178.06707
G0 F7200 X144 Y138.148
G1 F1237.5 X144 Y84.855 E1208.76384
G0 F7200 X146.4 Y84.846
G1 F1237.5 X146.4 Y138.154 E1239.46924
G0 F7200 X148.8 Y138.152
G1 F1237.5 X148.8 Y84.85 E1270.1712
G0 F7200 X151.2 Y84.899
G1 F1237.5 X151.2 Y138.098 E1300.81382
G0 F7200 X153.6 Y137.702
G1 F1237.5 X153.6 Y85.298 E1330.99852
G0 F7200 X156 Y86.132
G1 F1237.5 X156 Y136.871 E1360.22419
G0 F7200 X158.4 Y135.493
G1 F1237.5 X158.4 Y87.51 E1387.8624
G0 F7200 X160.8 Y89.636
G1 F1237.5 X160.8 Y133.373 E1413.05491
G0 F7200 X163.2 Y129.85
G1 F1237.5 X163.2 Y93.16 E1434.18835
G0 F7200 X62.4 Y89.372
G1 F1237.5 X62.4 Y133.624 E1459.6775
G0 F7200 X60 Y130.324
G1 F1237.5 X60 Y92.684 E1481.35814
G0 F600 X60 Y92.684 Z0.705
G0 F7200 X61.859 Y133.148
;TIME_ELAPSED:131.432128
;LAYER:-7
;TYPE:SUPPORT
G1 F1237.5 X62.506 Y133.84 E1481.58408
G1 X62.637 Y133.971 E1481.62827
G1 X63.203 Y134.505 E1481.81386
G1 X63.319 Y134.608 E1481.85085
G1 X63.392 Y134.668 E1481.87339
G1 X61.766 Y133.042 E1482.42182
G1 X61.756 Y133.031 E1482.42537
G1 X61.183 Y132.319 E1482.64334
G1 X61.1 Y132.208 E1482.6764
G1 X60.571 Y131.443 E1482.89822
G1 X60.502 Y131.336 E1482.92859
G1 X60.049 Y130.567 E1483.14145
G1 X59.964 Y130.41 E1483.18403
G1 X59.576 Y129.628 E1483.39224
G1 X59.498 Y129.452 E1483.43815
G1 X59.182 Y128.676 E1483.63798
G1 X67.806 Y137.301 E1486.54694
G1 X67.832 Y137.31 E1486.5535
G1 X68.688 Y137.6 E1486.76905
G1 X68.843 Y137.646 E1486.80762
G1 X69.681 Y137.861 E1487.01395
G1 X69.896 Y137.908 E1487.06644
G1 X70.262 Y137.974 E1487.15514
G1 X58.504 Y126.217 E1491.12083
G1 X58.393 Y125.563 E1491.27904
G1 X58.373 Y125.398 E1491.31868
G1 X58.288 Y124.517 E1491.52977
G1 X58.277 Y124.351 E1491.56945
G1 X58.273 Y124.204 E1491.60452
G1 X72.27 Y138.201 E1496.32557
G1 X72.911 Y138.223 E1496.47854
G1 X73.809 Y138.22 E1496.69271
G1 X74.072 Y138.22 E1496.75544
G1 X58.254 Y122.403 E1502.09052
G1 X58.251 Y120.618 E1502.51624
G1 X75.852 Y138.219 E1508.45288
G1 X76.792 Y138.217 E1508.67707
G1 X77.607 Y138.192 E1508.87154
G1 X58.248 Y118.833 E1515.40114
G1 X58.245 Y117.048 E1515.82686
G1 X79.419 Y138.222 E1522.96864
G1 X79.917 Y138.221 E1523.08741
G1 X81.199 Y138.22 E1523.39317
G1 X58.243 Y115.264 E1531.136
G1 X58.278 Y114.276 E1531.37178
G1 X58.288 Y114.12 E1531.40906
G1 X58.346 Y113.586 E1531.53717
G1 X82.975 Y138.214 E1539.84412
G1 X84.282 Y138.175 E1540.15598
G1 X84.282 Y138.195 E1540.16075
G1 X84.753 Y138.211 E1540.27314
G1 X58.569 Y112.026 E1549.10491
G1 X58.595 Y111.814 E1549.15585
G1 X58.588 Y111.119 E1549.32162
G1 X58.532 Y110.637 E1549.43735
G1 X58.448 Y110.123 E1549.56156
G1 X86.545 Y138.22 E1559.0384
G1 X87.45 Y138.221 E1559.25424
G1 X88.325 Y138.218 E1559.46293
G1 X58.254 Y108.148 E1569.60541
G1 X58.244 Y107.743 E1569.70203
G1 X58.246 Y106.358 E1570.03235
G1 X90.074 Y138.185 E1580.76745
G1 X90.392 Y138.176 E1580.84332
G1 X90.392 Y138.194 E1580.84761
G1 X91.24 Y138.223 E1581.04998
G1 X91.892 Y138.221 E1581.20548
G1 X58.249 Y104.578 E1592.55293
G1 X58.252 Y102.799 E1592.97722
G1 X93.672 Y138.22 E1604.9242
G1 X95.12 Y138.216 E1605.26955
G1 X95.441 Y138.206 E1605.34614
G1 X58.255 Y101.021 E1617.88844
G1 X58.258 Y99.443 E1618.26479
G1 X58.261 Y99.313 E1618.29581
G1 X58.263 Y99.247 E1618.31155
G1 X97.234 Y138.218 E1631.45608
G1 X97.349 Y138.223 E1631.48353
G1 X98.246 Y138.22 E1631.69747
G1 X99.018 Y138.22 E1631.88159
G1 X58.38 Y97.582 E1645.58838
