;FLAVOR:UltiGCode
;TIME:2348
;MATERIAL:7218
;MATERIAL2:0
;NOZZLE_DIAMETER:0.6
;MINX:43.456
;MINY:61.381
;MINZ:0.48
;MAXX:179.54
;MAXY:149.597
;MAXZ:2.155
;Generated with Cura_SteamEngine 4.8.0
M82 ;absolute extrusion mode
G0 F3000 Y50 ;avoid prime blob
G92 E0
G92 E0
G10
;LAYER_COUNT:5
;LAYER:-8
M107
G0 F7200 X50.029 Y65.067 Z0.48
;TYPE:SUPPORT-INTERFACE
G11
G1 F1237.5 X51.033 Y64.351 E0.7103
G1 X51.109 Y64.299 E0.76334
G1 X51.578 Y63.998 E1.08433
G1 X52.398 Y63.511 E1.63367
G1 X52.517 Y63.446 E1.71177
G1 X53.336 Y63.037 E2.23907
G1 X53.464 Y62.978 E2.32026
G1 X54.295 Y62.637 E2.83764
G1 X54.446 Y62.581 E2.93041
G1 X55.299 Y62.301 E3.44753
G1 X55.433 Y62.263 E3.52776
G1 X56.316 Y62.042 E4.05205
G1 X56.455 Y62.013 E4.13384
G1 X57.326 Y61.862 E4.64302
G1 X57.527 Y61.835 E4.75984
G1 X58.372 Y61.752 E5.2489
G1 X58.565 Y61.74 E5.36028
G1 X59.443 Y61.717 E5.86618
G1 X59.601 Y61.719 E5.9572
G1 X60.353 Y61.748 E6.39067
G1 X60.507 Y61.761 E6.47969
G1 X60.942 Y61.804 E6.73147
G1 X61.622 Y61.829 E7.12342
G1 X62.017 Y61.804 E7.35139
G1 X62.55 Y61.752 E7.65986
G1 X62.741 Y61.74 E7.77009
G1 X63.615 Y61.717 E8.27369
G1 X63.773 Y61.719 E8.3647
G1 X64.525 Y61.748 E8.79818
G1 X64.679 Y61.761 E8.8872
G1 X65.114 Y61.804 E9.13898
G1 X65.794 Y61.829 E9.53092
G1 X66.189 Y61.804 E9.7589
G1 X66.722 Y61.752 E10.06736
G1 X66.913 Y61.74 E10.1776
G1 X67.787 Y61.717 E10.6812
G1 X67.945 Y61.719 E10.77221
G1 X68.697 Y61.748 E11.20569
G1 X68.851 Y61.761 E11.2947
G1 X69.286 Y61.804 E11.54649
G1 X69.966 Y61.829 E11.93843
G1 X70.361 Y61.804 E12.16641
G1 X70.894 Y61.752 E12.47487
G1 X71.085 Y61.74 E12.5851
G1 X71.959 Y61.717 E13.0887
G1 X72.117 Y61.719 E13.17972
G1 X72.869 Y61.748 E13.61319
G1 X73.023 Y61.761 E13.70221
G1 X73.458 Y61.804 E13.95399
G1 X74.138 Y61.829 E14.34594
G1 X74.533 Y61.804 E14.57391
G1 X75.066 Y61.752 E14.88238
G1 X75.257 Y61.74 E14.99261
G1 X76.131 Y61.717 E15.49621
G1 X76.289 Y61.719 E15.58722
G1 X77.041 Y61.748 E16.0207
G1 X77.195 Y61.761 E16.10972
G1 X77.63 Y61.804 E16.3615
G1 X78.31 Y61.829 E16.75344
G1 X78.705 Y61.804 E16.98142
G1 X79.238 Y61.752 E17.28988
G1 X79.429 Y61.74 E17.40012
G1 X80.303 Y61.717 E17.90372
G1 X80.461 Y61.719 E17.99473
G1 X81.213 Y61.748 E18.42821
G1 X81.367 Y61.761 E18.51722
G1 X81.802 Y61.804 E18.76901
G1 X82.482 Y61.829 E19.16095
G1 X82.877 Y61.804 E19.38893
G1 X83.41 Y61.752 E19.69739
G1 X83.601 Y61.74 E19.80762
G1 X84.475 Y61.717 E20.31122
G1 X84.633 Y61.719 E20.40224
G1 X85.385 Y61.748 E20.83571
G1 X85.539 Y61.761 E20.92473
G1 X85.974 Y61.804 E21.17651
G1 X86.654 Y61.829 E21.56846
G1 X87.049 Y61.804 E21.79643
G1 X87.582 Y61.752 E22.1049
G1 X87.773 Y61.74 E22.21513
G1 X88.647 Y61.717 E22.71873
G1 X88.805 Y61.719 E22.80974
G1 X89.557 Y61.748 E23.24322
G1 X89.711 Y61.761 E23.33224
G1 X90.146 Y61.804 E23.58402
G1 X90.826 Y61.829 E23.97596
G1 X91.221 Y61.804 E24.20394
G1 X91.754 Y61.752 E24.5124
G1 X91.945 Y61.74 E24.62264
G1 X92.819 Y61.717 E25.12624
G1 X92.977 Y61.719 E25.21725
G1 X93.729 Y61.748 E25.65073
G1 X93.883 Y61.761 E25.73974
G1 X94.318 Y61.804 E25.99153
G1 X94.998 Y61.829 E26.38347
G1 X95.393 Y61.804 E26.61145
G1 X95.926 Y61.752 E26.91991
G1 X96.117 Y61.74 E27.03014
G1 X96.991 Y61.717 E27.53374
G1 X97.149 Y61.719 E27.62476
G1 X97.901 Y61.748 E28.05823
G1 X98.055 Y61.761 E28.14725
G1 X98.49 Y61.804 E28.39903
G1 X99.17 Y61.829 E28.79098
G1 X99.565 Y61.804 E29.01895
G1 X100.098 Y61.752 E29.32742
G1 X100.289 Y61.74 E29.43765
G1 X101.163 Y61.717 E29.94125
G1 X101.321 Y61.719 E30.03226
G1 X102.073 Y61.748 E30.46574
G1 X102.227 Y61.761 E30.55476
G1 X102.662 Y61.804 E30.80654
G1 X103.342 Y61.829 E31.19848
G1 X103.737 Y61.804 E31.42646
G1 X104.27 Y61.752 E31.73492
G1 X104.461 Y61.74 E31.84516
G1 X105.335 Y61.717 E32.34876
G1 X105.493 Y61.719 E32.43977
G1 X106.245 Y61.748 E32.87324
G1 X106.399 Y61.761 E32.96226
G1 X106.834 Y61.804 E33.21405
G1 X107.514 Y61.829 E33.60599
G1 X107.909 Y61.804 E33.83397
G1 X108.442 Y61.752 E34.14243
G1 X108.633 Y61.74 E34.25266
G1 X109.507 Y61.717 E34.75626
G1 X109.665 Y61.719 E34.84728
G1 X110.417 Y61.748 E35.28075
G1 X110.571 Y61.761 E35.36977
G1 X111.006 Y61.804 E35.62155
G1 X111.686 Y61.829 E36.0135
G1 X112.081 Y61.804 E36.24147
G1 X112.614 Y61.752 E36.54994
G1 X112.805 Y61.74 E36.66017
G1 X113.679 Y61.717 E37.16377
G1 X113.837 Y61.719 E37.25478
G1 X114.589 Y61.748 E37.68826
G1 X114.743 Y61.761 E37.77728
G1 X115.178 Y61.804 E38.02906
G1 X115.858 Y61.829 E38.421
G1 X116.253 Y61.804 E38.64898
G1 X116.786 Y61.752 E38.95744
G1 X116.977 Y61.74 E39.06768
G1 X117.851 Y61.717 E39.57128
G1 X118.009 Y61.719 E39.66229
G1 X118.761 Y61.748 E40.09576
G1 X118.915 Y61.761 E40.18478
G1 X119.35 Y61.804 E40.43657
G1 X120.03 Y61.829 E40.82851
G1 X120.425 Y61.804 E41.05649
G1 X120.958 Y61.752 E41.36495
G1 X121.149 Y61.74 E41.47518
G1 X122.023 Y61.717 E41.97878
G1 X122.181 Y61.719 E42.0698
G1 X122.933 Y61.748 E42.50327
G1 X123.087 Y61.761 E42.59229
G1 X123.522 Y61.804 E42.84407
G1 X124.202 Y61.829 E43.23602
G1 X124.597 Y61.804 E43.46399
G1 X125.13 Y61.752 E43.77246
G1 X125.321 Y61.74 E43.88269
G1 X126.195 Y61.717 E44.38629
G1 X126.353 Y61.719 E44.4773
G1 X127.105 Y61.748 E44.91078
G1 X127.259 Y61.761 E44.9998
G1 X127.694 Y61.804 E45.25158
G1 X128.374 Y61.829 E45.64352
G1 X128.769 Y61.804 E45.8715
G1 X129.302 Y61.752 E46.17996
G1 X129.493 Y61.74 E46.2902
G1 X130.367 Y61.717 E46.7938
G1 X130.525 Y61.719 E46.88481
G1 X131.277 Y61.748 E47.31828
G1 X131.431 Y61.761 E47.4073
G1 X131.866 Y61.804 E47.65909
G1 X132.546 Y61.829 E48.05103
G1 X132.941 Y61.804 E48.27901
G1 X133.474 Y61.752 E48.58747
G1 X133.665 Y61.74 E48.6977
G1 X134.539 Y61.717 E49.2013
G1 X134.697 Y61.719 E49.29232
G1 X135.449 Y61.748 E49.72579
G1 X135.603 Y61.761 E49.81481
G1 X136.038 Y61.804 E50.06659
G1 X136.718 Y61.829 E50.45854
G1 X137.113 Y61.804 E50.68651
G1 X137.646 Y61.752 E50.99498
G1 X137.837 Y61.74 E51.10521
G1 X138.711 Y61.717 E51.60881
G1 X138.869 Y61.719 E51.69982
G1 X139.621 Y61.748 E52.1333
G1 X139.775 Y61.761 E52.22232
G1 X140.21 Y61.804 E52.4741
G1 X140.89 Y61.829 E52.86604
G1 X141.285 Y61.804 E53.09402
G1 X141.818 Y61.752 E53.40248
G1 X142.009 Y61.74 E53.51272
G1 X142.883 Y61.717 E54.01632
G1 X143.041 Y61.719 E54.10733
G1 X143.793 Y61.748 E54.5408
G1 X143.947 Y61.761 E54.62982
G1 X144.382 Y61.804 E54.88161
G1 X145.062 Y61.829 E55.27355
G1 X145.457 Y61.804 E55.50152
G1 X145.99 Y61.752 E55.80999
G1 X146.181 Y61.74 E55.92022
G1 X147.055 Y61.717 E56.42382
G1 X147.213 Y61.719 E56.51484
G1 X147.965 Y61.748 E56.94831
G1 X148.119 Y61.761 E57.03733
G1 X148.554 Y61.804 E57.28911
G1 X149.234 Y61.829 E57.68106
G1 X149.629 Y61.804 E57.90903
G1 X150.162 Y61.752 E58.2175
G1 X150.353 Y61.74 E58.32773
G1 X151.227 Y61.717 E58.83133
G1 X151.385 Y61.719 E58.92234
G1 X152.137 Y61.748 E59.35582
G1 X152.291 Y61.761 E59.44484
G1 X152.726 Y61.804 E59.69662
G1 X153.406 Y61.829 E60.08856
G1 X153.801 Y61.804 E60.31654
G1 X154.334 Y61.752 E60.625
G1 X154.525 Y61.74 E60.73524
G1 X155.399 Y61.717 E61.23884
G1 X155.557 Y61.719 E61.32985
G1 X156.309 Y61.748 E61.76332
G1 X156.463 Y61.761 E61.85234
G1 X156.898 Y61.804 E62.10412
G1 X157.578 Y61.829 E62.49607
G1 X157.973 Y61.804 E62.72404
G1 X158.506 Y61.752 E63.03251
G1 X158.697 Y61.74 E63.14274
G1 X159.571 Y61.717 E63.64634
G1 X159.729 Y61.719 E63.73736
G1 X160.481 Y61.748 E64.17083
G1 X160.635 Y61.761 E64.25985
G1 X161.07 Y61.804 E64.51163
G1 X161.75 Y61.829 E64.90358
G1 X162.145 Y61.804 E65.13155
G1 X162.678 Y61.752 E65.44002
G1 X162.869 Y61.74 E65.55025
G1 X163.743 Y61.717 E66.05385
G1 X163.901 Y61.719 E66.14486
G1 X164.59 Y61.745 E66.54201
G1 X164.759 Y61.756 E66.63956
G1 X165.692 Y61.849 E67.17963
G1 X165.877 Y61.874 E67.28716
G1 X166.742 Y62.025 E67.79293
G1 X166.89 Y62.056 E67.88003
G1 X167.751 Y62.272 E68.39134
G1 X167.915 Y62.319 E68.4896
G1 X168.763 Y62.599 E69.00399
G1 X168.926 Y62.659 E69.10404
G1 X169.734 Y62.993 E69.60764
G1 X169.87 Y63.055 E69.69373
G1 X170.694 Y63.467 E70.22438
G1 X170.817 Y63.535 E70.30533
G1 X171.574 Y63.986 E70.81288
G1 X171.705 Y64.071 E70.90283
G1 X172.45 Y64.592 E71.42647
G1 X172.57 Y64.684 E71.51357
G1 X173.558 Y65.509 E72.25497
G1 X173.634 Y65.575 E72.31295
G1 X173.965 Y65.881 E72.57259
G1 X174.638 Y66.547 E73.11797
G1 X174.727 Y66.641 E73.19253
G1 X175.348 Y67.352 E73.73628
G1 X175.421 Y67.443 E73.80348
G1 X175.972 Y68.177 E74.33213
G1 X176.051 Y68.29 E74.41155
G1 X176.546 Y69.061 E74.93929
G1 X176.614 Y69.174 E75.01526
G1 X177.042 Y69.96 E75.53076
G1 X177.124 Y70.124 E75.63638
G1 X177.495 Y70.944 E76.15479
G1 X177.539 Y71.049 E76.22037
G1 X177.77 Y71.654 E76.59338
G1 X178.128 Y72.667 E77.21224
G1 X178.417 Y73.59 E77.76934
G1 X178.461 Y73.747 E77.86325
G1 X178.638 Y74.475 E78.2948
G1 X178.659 Y74.59 E78.36213
G1 X178.874 Y75.933 E79.14555
G1 X178.887 Y76.028 E79.20078
G1 X179.01 Y77.161 E79.85722
G1 X179.05 Y77.512 E80.06071
G1 X179.139 Y78.724 E80.7607
G1 X179.204 Y80.834 E81.97664
G1 X179.205 Y80.946 E82.04115
G1 X179.191 Y82.174 E82.74853
G1 X179.122 Y83.461 E83.4909
G1 X179.078 Y84.136 E83.88053
G1 X178.985 Y85.066 E84.41888
G1 X178.967 Y85.22 E84.50819
G1 X178.85 Y86.071 E85.00297
G1 X178.807 Y86.364 E85.17355
G1 X178.698 Y87.05 E85.57364
G1 X178.53 Y88.057 E86.16169
G1 X178.491 Y88.34 E86.32624
G1 X178.464 Y88.575 E86.46249
G1 X178.434 Y89.03 E86.72514
G1 X178.416 Y89.671 E87.0945
G1 X178.356 Y91.363 E88.0697
G1 X178.353 Y91.504 E88.15094
G1 X178.268 Y100.918 E93.57362
G1 X178.245 Y103.759 E95.21009
G1 X178.243 Y103.862 E95.26943
G1 X178.203 Y104.781 E95.79928
G1 X178.187 Y104.975 E95.9114
G1 X178.085 Y105.841 E96.41367
G1 X178.058 Y106.018 E96.5168
G1 X177.886 Y106.908 E97.03892
G1 X177.861 Y107.015 E97.10221
G1 X177.624 Y107.894 E97.6266
G1 X177.568 Y108.073 E97.73463
G1 X177.281 Y108.894 E98.23559
G1 X177.221 Y109.047 E98.33025
G1 X176.874 Y109.846 E98.832
G1 X176.785 Y110.032 E98.95077
G1 X176.388 Y110.79 E99.44364
G1 X176.31 Y110.926 E99.53394
G1 X175.84 Y111.683 E100.04718
G1 X175.743 Y111.827 E100.14719
G1 X175.207 Y112.563 E100.67163
G1 X175.13 Y112.662 E100.74387
G1 X174.553 Y113.345 E101.25888
G1 X174.445 Y113.464 E101.35144
G1 X173.798 Y114.125 E101.88421
G1 X173.711 Y114.207 E101.95307
G1 X173.027 Y114.811 E102.47868
G1 X172.895 Y114.918 E102.57655
G1 X172.225 Y115.428 E103.06156
G1 X172.053 Y115.549 E103.18269
G1 X171.307 Y116.034 E103.69521
G1 X171.181 Y116.109 E103.77967
G1 X170.396 Y116.542 E104.29606
G1 X170.273 Y116.605 E104.37566
G1 X169.444 Y116.986 E104.90118
G1 X169.313 Y117.04 E104.98279
G1 X168.461 Y117.36 E105.50702
G1 X168.309 Y117.41 E105.59918
G1 X167.452 Y117.66 E106.11339
G1 X167.314 Y117.695 E106.19539
G1 X166.411 Y117.888 E106.72727
G1 X166.267 Y117.914 E106.81156
G1 X165.417 Y118.033 E107.30593
G1 X165.214 Y118.052 E107.42337
G1 X163.847 Y118.118 E108.21168
G1 X163.7 Y118.122 E108.29638
G1 X163.23 Y118.118 E108.56711
G1 X162.27 Y118.079 E109.12053
G1 X161.8 Y118.045 E109.39196
G1 X161.8 Y118.014 E109.40981
G1 X161.544 Y118.027 E109.55746
G1 X161.383 Y118.015 E109.65045
G1 X161.383 Y118.034 E109.66139
G1 X159.675 Y118.118 E110.64639
G1 X159.528 Y118.122 E110.73109
G1 X159.058 Y118.118 E111.00182
G1 X158.098 Y118.079 E111.55524
G1 X157.628 Y118.045 E111.82667
G1 X157.628 Y118.014 E111.84452
G1 X157.372 Y118.027 E111.99217
G1 X157.211 Y118.015 E112.08516
G1 X157.211 Y118.034 E112.09611
G1 X155.503 Y118.118 E113.0811
G1 X155.356 Y118.122 E113.16581
G1 X154.886 Y118.118 E113.43654
G1 X153.926 Y118.079 E113.98995
G1 X153.456 Y118.045 E114.26138
G1 X153.456 Y118.014 E114.27924
G1 X153.2 Y118.027 E114.42688
G1 X153.039 Y118.015 E114.51988
G1 X153.039 Y118.034 E114.53082
G1 X151.331 Y118.118 E115.51582
G1 X151.184 Y118.122 E115.60052
G1 X150.714 Y118.118 E115.87125
G1 X149.754 Y118.079 E116.42467
G1 X149.284 Y118.045 E116.69609
G1 X149.284 Y118.014 E116.71395
G1 X149.028 Y118.027 E116.8616
G1 X148.867 Y118.015 E116.95459
G1 X148.867 Y118.034 E116.96553
G1 X147.159 Y118.118 E117.95053
G1 X147.012 Y118.122 E118.03523
G1 X146.542 Y118.118 E118.30596
G1 X145.582 Y118.079 E118.85938
G1 X145.112 Y118.045 E119.13081
G1 X145.112 Y118.014 E119.14866
G1 X144.856 Y118.027 E119.29631
G1 X144.695 Y118.015 E119.3893
G1 X144.695 Y118.034 E119.40025
G1 X142.987 Y118.118 E120.38524
G1 X142.84 Y118.122 E120.46995
G1 X142.37 Y118.118 E120.74068
G1 X141.41 Y118.079 E121.29409
G1 X140.94 Y118.045 E121.56552
G1 X140.94 Y118.014 E121.58338
G1 X140.684 Y118.027 E121.73102
G1 X140.523 Y118.015 E121.82402
G1 X140.523 Y118.034 E121.83496
G1 X138.815 Y118.118 E122.81996
G1 X138.668 Y118.122 E122.90466
G1 X138.198 Y118.118 E123.17539
G1 X137.238 Y118.079 E123.72881
G1 X136.768 Y118.045 E124.00023
G1 X136.768 Y118.014 E124.01809
G1 X136.512 Y118.027 E124.16573
G1 X136.351 Y118.015 E124.25873
G1 X136.351 Y118.034 E124.26967
G1 X134.643 Y118.118 E125.25467
G1 X134.496 Y118.122 E125.33937
G1 X134.026 Y118.118 E125.6101
G1 X133.066 Y118.079 E126.16352
G1 X132.596 Y118.045 E126.43495
G1 X132.596 Y118.014 E126.4528
G1 X132.34 Y118.027 E126.60045
G1 X132.179 Y118.015 E126.69344
G1 X132.179 Y118.034 E126.70439
G1 X130.471 Y118.118 E127.68938
G1 X130.324 Y118.122 E127.77409
G1 X129.854 Y118.118 E128.04482
G1 X128.904 Y118.08 E128.59245
G1 X128.673 Y118.059 E128.72606
G1 X127.818 Y118.032 E129.21878
G1 X126.299 Y118.106 E130.09476
G1 X126.152 Y118.11 E130.17947
G1 X125.682 Y118.106 E130.4502
G1 X124.725 Y118.067 E131.00189
G1 X124.251 Y118.028 E131.27583
G1 X124.251 Y118.002 E131.29081
G1 X124.059 Y118.011 E131.40152
G1 X123.837 Y117.992 E131.52986
G1 X123.837 Y118.022 E131.54714
G1 X122.127 Y118.106 E132.53329
G1 X121.98 Y118.11 E132.61799
G1 X121.51 Y118.106 E132.88872
G1 X120.553 Y118.067 E133.44041
G1 X120.079 Y118.028 E133.71436
G1 X120.079 Y118.002 E133.72934
G1 X119.887 Y118.011 E133.84005
G1 X119.665 Y117.992 E133.96839
G1 X119.665 Y118.022 E133.98567
G1 X117.955 Y118.106 E134.97182
G1 X117.808 Y118.11 E135.05652
G1 X117.338 Y118.106 E135.32725
G1 X116.381 Y118.067 E135.87894
G1 X115.907 Y118.028 E136.15289
G1 X115.907 Y118.002 E136.16786
G1 X115.715 Y118.011 E136.27858
G1 X115.493 Y117.992 E136.40691
G1 X115.493 Y118.022 E136.42419
G1 X113.783 Y118.106 E137.41034
G1 X113.636 Y118.11 E137.49505
G1 X113.166 Y118.106 E137.76578
G1 X112.209 Y118.067 E138.31747
G1 X111.735 Y118.028 E138.59141
G1 X111.735 Y118.002 E138.60639
G1 X111.543 Y118.011 E138.7171
G1 X111.321 Y117.992 E138.84544
G1 X111.321 Y118.022 E138.86272
G1 X109.611 Y118.106 E139.84887
G1 X109.464 Y118.11 E139.93357
G1 X108.994 Y118.106 E140.2043
G1 X108.037 Y118.067 E140.75599
G1 X107.563 Y118.028 E141.02994
G1 X107.563 Y118.002 E141.04491
G1 X107.371 Y118.011 E141.15563
G1 X107.149 Y117.992 E141.28397
G1 X107.149 Y118.022 E141.30125
G1 X105.439 Y118.106 E142.28739
G1 X105.292 Y118.11 E142.3721
G1 X104.822 Y118.106 E142.64283
G1 X103.865 Y118.067 E143.19452
G1 X103.391 Y118.028 E143.46846
G1 X103.391 Y118.002 E143.48344
G1 X103.199 Y118.011 E143.59415
G1 X102.977 Y117.992 E143.72249
G1 X102.977 Y118.022 E143.73977
G1 X101.267 Y118.106 E144.72592
G1 X101.12 Y118.11 E144.81062
G1 X100.65 Y118.106 E145.08135
G1 X99.693 Y118.067 E145.63304
G1 X99.219 Y118.028 E145.90699
G1 X99.219 Y118.002 E145.92197
G1 X99.027 Y118.011 E146.03268
G1 X98.805 Y117.992 E146.16102
G1 X98.805 Y118.022 E146.1783
G1 X97.095 Y118.106 E147.16445
G1 X96.948 Y118.11 E147.24915
G1 X96.478 Y118.106 E147.51988
G1 X95.521 Y118.067 E148.07157
G1 X95.047 Y118.028 E148.34551
G1 X95.047 Y118.002 E148.36049
G1 X94.855 Y118.011 E148.4712
G1 X94.633 Y117.992 E148.59954
G1 X94.633 Y118.022 E148.61682
G1 X92.923 Y118.106 E149.60297
G1 X92.776 Y118.11 E149.68767
G1 X92.306 Y118.106 E149.9584
G1 X91.349 Y118.067 E150.51009
G1 X90.875 Y118.028 E150.78404
G1 X90.875 Y118.002 E150.79902
G1 X90.683 Y118.011 E150.90973
G1 X90.461 Y117.992 E151.03807
G1 X90.461 Y118.022 E151.05535
G1 X88.751 Y118.106 E152.0415
G1 X88.604 Y118.11 E152.1262
G1 X88.134 Y118.106 E152.39693
G1 X87.177 Y118.067 E152.94862
G1 X86.703 Y118.028 E153.22257
G1 X86.703 Y118.002 E153.23754
G1 X86.511 Y118.011 E153.34826
G1 X86.289 Y117.992 E153.4766
G1 X86.289 Y118.022 E153.49388
G1 X84.579 Y118.106 E154.48002
G1 X84.432 Y118.11 E154.56473
