;FLAVOR:UltiGCode
;TIME:2766
;MATERIAL:8637
;MATERIAL2:0
;NOZZLE_DIAMETER:0.6
;MINX:77.094
;MINY:31.07
;MINZ:0.48
;MAXX:146.533
;MAXY:192.366
;MAXZ:4.405
;Generated with Cura_SteamEngine 4.8.0
M82 ;absolute extrusion mode
G0 F3000 Y50 ;avoid prime blob
G92 E0
G92 E0
G10
;LAYER_COUNT:20
;LAYER:-8
M107
G0 F7200 X79.429 Y39.576 Z0.48
;TYPE:SUPPORT-INTERFACE
G11
G1 F1237.5 X79.835 Y38.821 E0.49377
G1 X79.924 Y38.669 E0.59523
G1 X80.404 Y37.915 E1.11007
G1 X80.489 Y37.792 E1.19619
G1 X81.002 Y37.103 E1.69097
G1 X81.149 Y36.923 E1.82484
G1 X81.976 Y35.986 E2.5447
G1 X82.068 Y35.894 E2.61964
G1 X82.725 Y35.264 E3.14394
G1 X82.871 Y35.133 E3.25693
G1 X83.543 Y34.575 E3.76004
G1 X83.659 Y34.485 E3.84461
G1 X84.403 Y33.955 E4.37077
G1 X84.526 Y33.873 E4.45592
G1 X85.28 Y33.414 E4.96437
G1 X85.419 Y33.337 E5.0559
G1 X86.218 Y32.927 E5.57318
G1 X86.362 Y32.861 E5.66442
G1 X87.625 Y32.348 E6.44963
G1 X87.724 Y32.311 E6.5105
G1 X88.03 Y32.205 E6.69703
G1 X88.961 Y31.919 E7.25802
G1 X89.115 Y31.878 E7.34982
G1 X89.962 Y31.684 E7.85032
G1 X90.162 Y31.646 E7.96758
G1 X91.003 Y31.517 E8.45766
G1 X91.187 Y31.496 E8.56434
G1 X92.102 Y31.423 E9.09305
G1 X92.199 Y31.419 E9.14897
G1 X92.815 Y31.406 E9.50387
G1 X93.851 Y31.443 E10.10098
G1 X93.967 Y31.451 E10.16796
G1 X94.855 Y31.55 E10.68261
G1 X95.032 Y31.575 E10.78558
G1 X95.905 Y31.737 E11.29701
G1 X96.053 Y31.77 E11.38435
G1 X96.948 Y32.004 E11.9172
G1 X97.065 Y32.038 E11.98738
G1 X97.605 Y32.213 E12.31435
G1 X97.932 Y32.327 E12.51382
G1 X98.862 Y32.687 E13.08823
G1 X98.993 Y32.744 E13.17052
G1 X99.814 Y33.134 E13.69406
G1 X99.93 Y33.195 E13.76955
G1 X100.727 Y33.648 E14.29759
G1 X100.841 Y33.718 E14.37465
G1 X101.616 Y34.236 E14.91158
G1 X101.71 Y34.304 E14.97841
G1 X102.403 Y34.844 E15.48445
G1 X102.562 Y34.982 E15.60572
G1 X103.593 Y35.948 E16.41952
G1 X103.676 Y36.03 E16.48672
G1 X103.725 Y36.082 E16.52788
G1 X104.36 Y36.796 E17.07826
G1 X104.477 Y36.938 E17.18423
G1 X104.985 Y37.604 E17.66671
G1 X105.114 Y37.784 E17.79426
G1 X105.589 Y38.509 E18.29351
G1 X105.679 Y38.657 E18.39328
G1 X106.097 Y39.409 E18.88885
G1 X106.182 Y39.576 E18.99679
G1 X106.548 Y40.364 E19.49725
G1 X106.609 Y40.509 E19.58786
G1 X107.002 Y41.57 E20.23957
G1 X107.041 Y41.685 E20.30951
G1 X107.258 Y42.363 E20.71956
G1 X107.508 Y43.245 E21.2476
G1 X107.544 Y43.395 E21.33646
G1 X107.739 Y44.338 E21.89112
G1 X107.921 Y45.002 E22.28769
G1 X108.192 Y45.656 E22.69545
G1 X108.544 Y46.271 E23.10361
G1 X108.97 Y46.836 E23.51119
G1 X109.464 Y47.343 E23.91893
G1 X110.018 Y47.784 E24.32679
G1 X110.624 Y48.152 E24.73516
G1 X111.271 Y48.44 E25.14309
G1 X111.95 Y48.644 E25.55146
G1 X112.648 Y48.76 E25.95903
G1 X113.356 Y48.788 E26.36715
G1 X114.062 Y48.725 E26.77542
G1 X114.752 Y48.575 E27.18215
G1 X115.212 Y48.413 E27.46306
G1 X115.225 Y48.439 E27.4798
G1 X116.676 Y47.727 E28.41078
G1 X116.794 Y47.674 E28.48528
G1 X117.617 Y47.342 E28.99645
G1 X117.79 Y47.28 E29.10231
G1 X118.622 Y47.013 E29.60561
G1 X118.771 Y46.971 E29.69478
G1 X119.634 Y46.762 E30.20624
G1 X119.808 Y46.726 E30.30858
G1 X120.682 Y46.581 E30.81889
G1 X120.855 Y46.559 E30.91934
G1 X121.724 Y46.479 E31.422
G1 X121.871 Y46.471 E31.5068
G1 X122.612 Y46.45 E31.93378
G1 X123.679 Y46.451 E32.54838
G1 X124.683 Y46.487 E33.12705
G1 X124.799 Y46.495 E33.19403
G1 X125.687 Y46.594 E33.70868
G1 X125.864 Y46.619 E33.81165
G1 X126.737 Y46.781 E34.32308
G1 X126.885 Y46.814 E34.41042
G1 X127.742 Y47.038 E34.92064
G1 X127.928 Y47.094 E35.03252
G1 X128.749 Y47.374 E35.53216
G1 X128.921 Y47.44 E35.63828
G1 X129.699 Y47.77 E36.12505
G1 X129.881 Y47.855 E36.24076
G1 X130.654 Y48.253 E36.74155
G1 X130.788 Y48.329 E36.83029
G1 X131.558 Y48.797 E37.3493
G1 X131.714 Y48.901 E37.4573
G1 X132.406 Y49.396 E37.94737
G1 X132.544 Y49.502 E38.0476
G1 X133.249 Y50.089 E38.57601
G1 X133.351 Y50.18 E38.65475
G1 X133.896 Y50.696 E39.08705
G1 X134.038 Y50.84 E39.20354
G1 X134.683 Y51.536 E39.75011
G1 X134.794 Y51.665 E39.84814
G1 X135.331 Y52.335 E40.34272
G1 X135.452 Y52.497 E40.45918
G1 X135.928 Y53.187 E40.94202
G1 X136.033 Y53.352 E41.05467
G1 X136.49 Y54.132 E41.57539
G1 X136.546 Y54.236 E41.64342
G1 X136.962 Y55.083 E42.18696
G1 X137.007 Y55.182 E42.2496
G1 X137.355 Y56.043 E42.78451
G1 X137.403 Y56.178 E42.86704
G1 X137.673 Y57.018 E43.37526
G1 X137.717 Y57.173 E43.46807
G1 X137.927 Y58.041 E43.98246
G1 X137.963 Y58.215 E44.08481
G1 X138.106 Y59.076 E44.58754
G1 X138.13 Y59.262 E44.69556
G1 X138.21 Y60.131 E45.19822
G1 X138.218 Y60.278 E45.28302
G1 X138.239 Y61.005 E45.70195
G1 X138.239 Y73.993 E53.18303
G1 X138.283 Y74.681 E53.58013
G1 X138.416 Y75.377 E53.98828
G1 X138.637 Y76.049 E54.39575
G1 X138.94 Y76.689 E54.80362
G1 X139.321 Y77.286 E55.21155
G1 X139.774 Y77.826 E55.61754
G1 X140.187 Y78.22 E55.94632
G1 X140.889 Y78.82 E56.47824
G1 X141.029 Y78.947 E56.58711
G1 X141.703 Y79.635 E57.14188
G1 X141.828 Y79.773 E57.24913
G1 X142.387 Y80.435 E57.7482
G1 X142.492 Y80.567 E57.84535
G1 X143.007 Y81.275 E58.34963
G1 X143.096 Y81.407 E58.44133
G1 X143.561 Y82.156 E58.94914
G1 X143.661 Y82.334 E59.06674
G1 X144.305 Y83.616 E59.8931
G1 X144.35 Y83.711 E59.95365
G1 X144.997 Y85.201 E60.88931
G1 X145.354 Y86.109 E61.45129
G1 X145.394 Y86.224 E61.52143
G1 X145.666 Y87.099 E62.04922
G1 X145.711 Y87.266 E62.14884
G1 X145.909 Y88.12 E62.65379
G1 X145.938 Y88.268 E62.74066
G1 X146.063 Y89.029 E63.18487
G1 X146.076 Y89.136 E63.24696
G1 X146.164 Y90.042 E63.77127
G1 X146.176 Y90.229 E63.8792
G1 X146.198 Y91.139 E64.40351
G1 X146.195 Y91.304 E64.49857
G1 X146.151 Y92.179 E65.00321
G1 X146.139 Y92.324 E65.08701
G1 X146.034 Y93.194 E65.59177
G1 X145.862 Y94.309 E66.2416
G1 X145.838 Y94.448 E66.32285
G1 X145.664 Y95.345 E66.84916
G1 X145.623 Y95.524 E66.95493
G1 X145.398 Y96.358 E67.45249
G1 X145.35 Y96.514 E67.5465
G1 X145.056 Y97.35 E68.05695
G1 X144.986 Y97.528 E68.16712
G1 X144.636 Y98.332 E68.6722
G1 X144.566 Y98.479 E68.76598
G1 X144.161 Y99.25 E69.26762
G1 X144.075 Y99.402 E69.36822
G1 X143.46 Y100.378 E70.03269
G1 X143.41 Y100.448 E70.08224
G1 X142.832 Y101.227 E70.64097
G1 X142.746 Y101.334 E70.72004
G1 X142.161 Y102.013 E71.23628
G1 X142.053 Y102.13 E71.32799
G1 X141.421 Y102.763 E71.84322
G1 X141.294 Y102.881 E71.94308
G1 X140.631 Y103.456 E72.44858
G1 X140.421 Y103.624 E72.60348
G1 X139.967 Y104.007 E72.94561
G1 X139.488 Y104.528 E73.35326
G1 X139.078 Y105.105 E73.76098
G1 X138.744 Y105.729 E74.16865
G1 X138.491 Y106.39 E74.57632
G1 X138.322 Y107.085 E74.98831
G1 X138.239 Y108.029 E75.53415
G1 X138.239 Y117.07 E80.74176
G1 X138.283 Y117.758 E81.13886
G1 X138.416 Y118.454 E81.54701
G1 X138.637 Y119.126 E81.95448
G1 X138.94 Y119.766 E82.36234
G1 X139.321 Y120.363 E82.77028
G1 X139.774 Y120.903 E83.17627
G1 X140.187 Y121.297 E83.50505
G1 X140.889 Y121.897 E84.03697
G1 X141.029 Y122.024 E84.14584
G1 X141.703 Y122.712 E84.70061
G1 X141.828 Y122.85 E84.80785
G1 X142.387 Y123.512 E85.30693
G1 X142.492 Y123.644 E85.40408
G1 X143.007 Y124.352 E85.90836
G1 X143.096 Y124.484 E86.00006
G1 X143.561 Y125.233 E86.50787
G1 X143.661 Y125.411 E86.62547
G1 X144.305 Y126.693 E87.45183
G1 X144.35 Y126.788 E87.51238
G1 X144.997 Y128.278 E88.44804
G1 X145.354 Y129.186 E89.01002
G1 X145.394 Y129.301 E89.08016
G1 X145.666 Y130.176 E89.60795
G1 X145.708 Y130.332 E89.701
G1 X145.913 Y131.217 E90.22426
G1 X145.938 Y131.345 E90.29938
G1 X146.063 Y132.106 E90.74359
G1 X146.076 Y132.213 E90.80567
G1 X146.164 Y133.119 E91.32999
G1 X146.176 Y133.306 E91.43792
G1 X146.198 Y134.216 E91.96223
G1 X146.195 Y134.381 E92.05729
G1 X146.151 Y135.256 E92.56193
G1 X146.139 Y135.401 E92.64573
G1 X146.034 Y136.271 E93.15049
G1 X145.862 Y137.386 E93.80032
G1 X145.838 Y137.525 E93.88157
G1 X145.664 Y138.422 E94.40788
G1 X145.623 Y138.601 E94.51365
G1 X145.398 Y139.435 E95.01121
G1 X145.35 Y139.591 E95.10522
G1 X145.056 Y140.427 E95.61567
G1 X144.986 Y140.605 E95.72584
G1 X144.636 Y141.409 E96.23092
G1 X144.566 Y141.556 E96.3247
G1 X144.161 Y142.327 E96.82634
G1 X144.075 Y142.479 E96.92693
G1 X143.46 Y143.455 E97.59141
G1 X143.41 Y143.525 E97.64096
G1 X142.832 Y144.304 E98.19969
G1 X142.746 Y144.411 E98.27876
G1 X142.161 Y145.09 E98.795
G1 X142.053 Y145.207 E98.88671
G1 X141.421 Y145.84 E99.40194
G1 X141.294 Y145.958 E99.50179
G1 X140.631 Y146.533 E100.0073
G1 X140.421 Y146.701 E100.1622
G1 X139.967 Y147.084 E100.50433
G1 X139.488 Y147.605 E100.91198
G1 X139.078 Y148.182 E101.31969
G1 X138.744 Y148.806 E101.72737
G1 X138.491 Y149.467 E102.13504
G1 X138.322 Y150.162 E102.54702
G1 X138.239 Y151.106 E103.09287
G1 X138.239 Y156.841 E106.39623
G1 X138.283 Y157.529 E106.79332
G1 X138.416 Y158.225 E107.20147
G1 X138.637 Y158.897 E107.60894
G1 X138.94 Y159.537 E108.01681
G1 X139.321 Y160.134 E108.42474
G1 X139.774 Y160.674 E108.83073
G1 X140.188 Y161.068 E109.15993
G1 X140.884 Y161.663 E109.68735
G1 X141.029 Y161.795 E109.80029
G1 X141.703 Y162.483 E110.35506
G1 X141.828 Y162.621 E110.4623
G1 X142.387 Y163.283 E110.96138
G1 X142.492 Y163.415 E111.05853
G1 X143.007 Y164.123 E111.56281
G1 X143.107 Y164.271 E111.6657
G1 X143.55 Y164.983 E112.14871
G1 X143.667 Y165.194 E112.28768
G1 X144.292 Y166.438 E113.08958
G1 X144.345 Y166.551 E113.16147
G1 X144.997 Y168.05 E114.10303
G1 X145.35 Y168.951 E114.66042
G1 X145.401 Y169.095 E114.74841
G1 X145.661 Y169.932 E115.25324
G1 X145.712 Y170.119 E115.36489
G1 X145.907 Y170.958 E115.86104
G1 X145.939 Y171.122 E115.95728
G1 X146.057 Y171.84 E116.3764
G1 X146.076 Y171.985 E116.46063
G1 X146.164 Y172.891 E116.98494
G1 X146.176 Y173.078 E117.09288
G1 X146.198 Y173.988 E117.61719
G1 X146.195 Y174.153 E117.71225
G1 X146.151 Y175.028 E118.21688
G1 X146.139 Y175.173 E118.30069
G1 X146.034 Y176.043 E118.80544
G1 X145.862 Y177.158 E119.45528
G1 X145.842 Y177.274 E119.52308
G1 X145.664 Y178.194 E120.06283
G1 X145.623 Y178.373 E120.1686
G1 X145.398 Y179.207 E120.66616
G1 X145.35 Y179.363 E120.76018
G1 X145.056 Y180.199 E121.27062
G1 X144.986 Y180.377 E121.38079
G1 X144.636 Y181.181 E121.88587
G1 X144.566 Y181.328 E121.97966
G1 X144.159 Y182.104 E122.48438
G1 X144.08 Y182.242 E122.57597
G1 X143.484 Y183.188 E123.21999
G1 X143.441 Y183.253 E123.26488
G1 X143.379 Y183.34 E123.32642
G1 X142.81 Y184.105 E123.87558
G1 X142.74 Y184.192 E123.9399
G1 X142.149 Y184.876 E124.46058
G1 X142.033 Y185 E124.55838
G1 X141.388 Y185.643 E125.08298
G1 X141.279 Y185.744 E125.16857
G1 X140.623 Y186.31 E125.66763
G1 X140.463 Y186.438 E125.78566
G1 X139.778 Y186.946 E126.27688
G1 X139.627 Y187.048 E126.38184
G1 X138.701 Y187.631 E127.01212
G1 X138.024 Y188.021 E127.46215
G1 X137.939 Y188.068 E127.51809
G1 X137.082 Y188.52 E128.07618
G1 X136.952 Y188.583 E128.15939
G1 X136.144 Y188.938 E128.66773
G1 X135.978 Y189.003 E128.77042
G1 X135.139 Y189.299 E129.28288
G1 X134.996 Y189.345 E129.3694
G1 X134.134 Y189.579 E129.88388
G1 X133.984 Y189.614 E129.9726
G1 X133.093 Y189.789 E130.49562
G1 X132.962 Y189.81 E130.57204
G1 X132.02 Y189.925 E131.11866
G1 X131.926 Y189.933 E131.173
G1 X131.268 Y189.972 E131.55268
G1 X131.143 Y189.975 E131.6247
G1 X130.239 Y189.977 E132.1454
G1 X130.04 Y189.97 E132.2601
G1 X129.191 Y189.909 E132.75038
G1 X128.997 Y189.888 E132.86278
G1 X128.111 Y189.76 E133.37841
G1 X127.978 Y189.736 E133.45626
G1 X127.647 Y189.663 E133.6515
G1 X126.965 Y189.557 E134.04904
G1 X126.265 Y189.538 E134.45239
G1 X125.858 Y189.568 E134.68746
G1 X125.249 Y189.636 E135.04042
G1 X125.103 Y189.648 E135.1248
G1 X124.425 Y189.679 E135.51574
G1 X123.454 Y189.701 E136.07518
G1 X122.814 Y189.7 E136.44382
G1 X121.809 Y189.677 E137.02285
G1 X120.893 Y189.623 E137.55138
G1 X120.713 Y189.607 E137.65547
G1 X120.5 Y189.58 E137.77914
G1 X119.812 Y189.539 E138.17613
G1 X119.415 Y189.566 E138.40533
G1 X119.409 Y189.523 E138.43034
G1 X117.823 Y189.817 E139.35944
G1 X117.646 Y189.842 E139.4624
G1 X116.757 Y189.941 E139.97763
G1 X116.641 Y189.949 E140.04461
G1 X115.686 Y189.984 E140.59506
G1 X115.576 Y189.985 E140.65842
G1 X114.978 Y189.971 E141.00296
G1 X113.995 Y189.898 E141.57073
G1 X113.825 Y189.879 E141.66926
G1 X112.961 Y189.75 E142.17244
G1 X112.786 Y189.718 E142.27491
G1 X111.923 Y189.523 E142.78453
G1 X111.761 Y189.481 E142.88093
G1 X110.928 Y189.228 E143.38238
G1 X110.749 Y189.167 E143.4913
G1 X109.948 Y188.859 E143.98561
G1 X109.773 Y188.784 E144.09528
G1 X108.969 Y188.405 E144.60726
G1 X108.838 Y188.339 E144.69175
G1 X108.259 Y188.022 E145.07197
G1 X107.658 Y187.724 E145.45836
G1 X106.989 Y187.491 E145.86641
G1 X106.295 Y187.345 E146.2749
G1 X105.59 Y187.288 E146.68231
G1 X104.883 Y187.319 E147.08993
G1 X104.185 Y187.441 E147.49807
G1 X103.508 Y187.649 E147.90602
G1 X102.863 Y187.941 E148.31383
G1 X102.262 Y188.31 E148.72005
G1 X101.817 Y188.661 E149.04651
G1 X101.67 Y188.789 E149.15878
G1 X101.545 Y188.89 E149.25135
G1 X100.847 Y189.412 E149.75339
G1 X100.697 Y189.516 E149.85853
G1 X99.949 Y189.996 E150.37046
G1 X99.828 Y190.067 E150.45126
G1 X99.028 Y190.501 E150.9755
G1 X98.912 Y190.558 E151.04995
G1 X98.073 Y190.936 E151.58
G1 X97.927 Y190.996 E151.67092
G1 X97.102 Y191.298 E152.17696
G1 X96.936 Y191.351 E152.27733
G1 X96.083 Y191.594 E152.7882
G1 X95.943 Y191.629 E152.87133
G1 X95.041 Y191.817 E153.40204
G1 X94.915 Y191.838 E153.47562
G1 X94.012 Y191.957 E154.00024
G1 X93.854 Y191.972 E154.09166
G1 X92.951 Y192.025 E154.61268
G1 X92.82 Y192.029 E154.68818
G1 X92.4 Y192.031 E154.9301
G1 X92.026 Y192.026 E155.14554
G1 X91.911 Y192.023 E155.2118
G1 X90.997 Y191.976 E155.73896
G1 X90.822 Y191.961 E155.84013
G1 X89.944 Y191.85 E156.34989
G1 X89.784 Y191.824 E156.44326
G1 X88.901 Y191.647 E156.96198
G1 X88.777 Y191.617 E157.03547
G1 X87.888 Y191.371 E157.56677
G1 X87.751 Y191.327 E157.64966
G1 X86.917 Y191.029 E158.15978
G1 X86.736 Y190.956 E158.2722
G1 X85.954 Y190.61 E158.76475
G1 X85.8 Y190.534 E158.86367
G1 X85.008 Y190.113 E159.38031
G1 X84.861 Y190.027 E159.47841
G1 X84.113 Y189.554 E159.98817
G1 X83.989 Y189.469 E160.07476
G1 X83.264 Y188.935 E160.59341
G1 X83.152 Y188.846 E160.67581
G1 X82.47 Y188.26 E161.19374
G1 X82.352 Y188.151 E161.28627
G1 X81.72 Y187.524 E161.79905
G1 X81.609 Y187.405 E161.89279
G1 X81.022 Y186.73 E162.40804
G1 X80.931 Y186.618 E162.49116
G1 X80.378 Y185.879 E163.02281
G1 X80.301 Y185.766 E163.10157
G1 X79.834 Y185.038 E163.59976
G1 X79.728 Y184.858 E163.72009
G1 X79.304 Y184.076 E164.23247
G1 X79.237 Y183.939 E164.32031
G1 X78.869 Y183.125 E164.83486
G1 X78.817 Y182.996 E164.91498
G1 X78.495 Y182.115 E165.45526
G1 X78.465 Y182.026 E165.50936
G1 X78.328 Y181.569 E165.78417
G1 X78.122 Y180.838 E166.22162
G1 X78.078 Y180.672 E166.32054
G1 X77.872 Y179.816 E166.82767
G1 X77.833 Y179.629 E166.9377
G1 X77.712 Y178.93 E167.34632
G1 X77.703 Y178.846 E167.39498
G1 X77.574 Y177.386 E168.23921
G1 X77.567 Y177.276 E168.3027
G1 X77.534 Y176.331 E168.84735
G1 X77.534 Y175.362 E169.4055
G1 X77.541 Y175.186 E169.50695
G1 X77.557 Y174.971 E169.63113
G1 X77.558 Y174.224 E170.06141
G1 X77.533 Y173.843 E170.28134
G1 X77.506 Y173.085 E170.71822
G1 X77.501 Y173.018 E170.75692
G1 X77.46 Y171.496 E171.63391
G1 X77.443 Y170.02 E172.48414
G1 X77.444 Y169.906 E172.54981
G1 X77.465 Y169.012 E173.06489
G1 X77.477 Y168.806 E173.18375
G1 X77.565 Y167.903 E173.70634
G1 X77.67 Y167.145 E174.14712
G1 X77.65 Y167.14 E174.159
G1 X77.653 Y167.114 E174.17407
G1 X77.656 Y166.745 E174.38662
G1 X77.585 Y163.787 E176.09092
G1 X77.43 Y156.977 E180.0145
G1 X77.444 Y155.985 E180.58594
G1 X77.45 Y155.87 E180.65228
G1 X77.53 Y154.955 E181.18133
G1 X77.549 Y154.806 E181.26784
G1 X77.595 Y154.516 E181.43697
G1 X77.66 Y153.6 E181.96592
G1 X77.437 Y138.465 E190.68462
G1 X77.437 Y138.354 E190.74856
G1 X77.456 Y137.422 E191.2855
G1 X77.468 Y137.228 E191.39746
G1 X77.549 Y136.377 E191.88985
G1 X77.573 Y136.194 E191.99616
G1 X77.61 Y135.98 E192.12125
G1 X77.684 Y135.011 E192.68102
G1 X77.447 Y118.99 E201.91013
G1 X77.447 Y118.881 E201.97291
G1 X77.467 Y117.925 E202.52369
G1 X77.478 Y117.748 E202.62584
G1 X77.558 Y116.911 E203.11015
G1 X77.582 Y116.731 E203.21474
G1 X77.63 Y116.453 E203.37724
G1 X77.701 Y115.775 E203.76991
G1 X77.703 Y115.348 E204.01586
G1 X77.686 Y114.842 E204.30748
G1 X77.46 Y97.044 E214.55995
G1 X77.483 Y96.053 E215.13092
