;FLAVOR:Marlin
;TIME:6139
;Filament used: 2.86568m
;Layer height: 0.2
;MINX:89.639
;MINY:63.059
;MINZ:0.2
;MAXX:145.361
;MAXY:171.94
;MAXZ:17
;Generated with Cura_SteamEngine 4.8.0
M140 S50
M105
M190 S50
M104 S200
M105
M109 S200
M82 ;absolute extrusion mode
; Ender 3 Custom Start G-code
G92 E0 ; Reset Extruder
G28 ; Home all axes
G1 Z2.0 F3000 ; Move Z Axis up little to prevent scratching of Heat Bed
G1 X0.1 Y20 Z0.3 F5000.0 ; Move to start position
G1 X0.1 Y200.0 Z0.3 F1500.0 E15 ; Draw the first line
G1 X0.4 Y200.0 Z0.3 F5000.0 ; Move to side a little
G1 X0.4 Y20 Z0.3 F1500.0 E30 ; Draw the second line
G92 E0 ; Reset Extruder
G1 Z2.0 F3000 ; Move Z Axis up little to prevent scratching of Heat Bed
G1 X5 Y20 Z0.3 F5000.0 ; Move over to prevent blob squish
G92 E0
G92 E0
G1 F2700 E-5
;LAYER_COUNT:85
;LAYER:0
M107
G0 F6000 X91.635 Y67.753 Z0.2
;TYPE:SKIRT
G1 F2700 E0
G1 F1200 X92.205 Y67.008 E0.0312
G1 X92.837 Y66.314 E0.06242
G1 X93.525 Y65.677 E0.0936
G1 X94.265 Y65.101 E0.12479
G1 X95.051 Y64.589 E0.15599
G1 X95.878 Y64.147 E0.18718
G1 X96.74 Y63.777 E0.21838
G1 X97.63 Y63.481 E0.24958
G1 X98.542 Y63.263 E0.28077
G1 X99.469 Y63.122 E0.31195
G1 X100.757 Y63.06 E0.35484
G1 X100.959 Y63.062 E0.36156
G1 X101.895 Y63.111 E0.39273
G1 X102.555 Y63.194 E0.41486
G1 X103.632 Y63.363 E0.45112
G1 X106.224 Y63.732 E0.5382
G1 X108.706 Y64.015 E0.62128
G1 X111.222 Y64.229 E0.70527
G1 X113.735 Y64.371 E0.78898
G1 X116.23 Y64.443 E0.872
G1 X118.753 Y64.443 E0.95592
G1 X121.304 Y64.372 E1.0408
G1 X123.767 Y64.232 E1.12285
G1 X126.304 Y64.017 E1.20753
G1 X128.799 Y63.734 E1.29105
G1 X131.339 Y63.373 E1.37638
G1 X132.213 Y63.229 E1.40584
G1 X132.735 Y63.156 E1.42337
G1 X132.951 Y63.131 E1.4306
G1 X133.887 Y63.063 E1.46182
G1 X134.378 Y63.059 E1.47815
G1 X134.514 Y63.061 E1.48267
G1 X135.45 Y63.115 E1.51385
G1 X136.378 Y63.248 E1.54504
G1 X137.292 Y63.46 E1.57624
G1 X138.184 Y63.749 E1.60743
G1 X139.049 Y64.113 E1.63864
G1 X139.879 Y64.549 E1.66983
G1 X140.669 Y65.055 E1.70103
G1 X141.413 Y65.626 E1.73222
G1 X142.106 Y66.258 E1.76342
G1 X142.742 Y66.947 E1.7946
G1 X143.318 Y67.687 E1.82579
G1 X143.828 Y68.474 E1.85698
G1 X144.269 Y69.302 E1.88819
G1 X144.639 Y70.164 E1.91939
G1 X144.933 Y71.054 E1.95056
G1 X145.151 Y71.966 E1.98175
G1 X145.29 Y72.894 E2.01296
G1 X145.348 Y73.751 E2.04153
G1 X145.357 Y74.071 E2.05218
G1 X145.361 Y74.38 E2.06245
G1 X145.361 Y160.349 E4.92179
G1 X145.352 Y161.077 E4.94601
G1 X145.301 Y162.013 E4.97719
G1 X145.169 Y162.942 E5.0084
G1 X144.96 Y163.856 E5.03958
G1 X144.673 Y164.749 E5.07078
G1 X144.311 Y165.614 E5.10197
G1 X143.877 Y166.446 E5.13318
G1 X143.373 Y167.237 E5.16437
G1 X142.804 Y167.982 E5.19555
G1 X142.173 Y168.677 E5.22677
G1 X141.486 Y169.315 E5.25796
G1 X140.747 Y169.892 E5.28914
G1 X139.961 Y170.404 E5.32034
G1 X139.135 Y170.847 E5.35151
G1 X138.273 Y171.219 E5.38274
G1 X137.384 Y171.515 E5.41391
G1 X136.472 Y171.735 E5.44511
G1 X135.545 Y171.876 E5.4763
G1 X134.245 Y171.94 E5.51959
G1 X134.042 Y171.938 E5.52634
G1 X133.105 Y171.889 E5.55755
G1 X132.445 Y171.806 E5.57967
G1 X131.368 Y171.637 E5.61593
G1 X128.776 Y171.268 E5.70301
G1 X126.294 Y170.985 E5.7861
G1 X123.778 Y170.771 E5.87008
G1 X121.265 Y170.629 E5.9538
G1 X118.77 Y170.557 E6.03681
G1 X116.247 Y170.557 E6.12073
G1 X113.696 Y170.628 E6.20561
G1 X111.233 Y170.768 E6.28766
G1 X108.696 Y170.983 E6.37234
G1 X106.201 Y171.266 E6.45586
G1 X103.674 Y171.625 E6.54075
G1 X102.756 Y171.776 E6.5717
G1 X101.615 Y171.902 E6.60988
G1 X101.29 Y171.921 E6.6207
G1 X100.352 Y171.936 E6.65191
G1 X99.417 Y171.871 E6.68308
G1 X98.49 Y171.726 E6.71429
G1 X97.579 Y171.503 E6.74548
G1 X96.69 Y171.203 E6.77669
G1 X95.83 Y170.829 E6.80788
G1 X95.006 Y170.383 E6.83904
G1 X94.222 Y169.868 E6.87024
G1 X93.485 Y169.288 E6.90143
G1 X92.8 Y168.647 E6.93264
G1 X92.172 Y167.951 E6.96382
G1 X91.605 Y167.203 E6.99504
G1 X91.105 Y166.41 E7.02622
G1 X90.673 Y165.577 E7.05743
G1 X90.314 Y164.711 E7.08861
G1 X90.031 Y163.817 E7.11979
G1 X89.824 Y162.902 E7.151
G1 X89.697 Y161.973 E7.18218
G1 X89.652 Y161.238 E7.20667
G1 X89.643 Y160.906 E7.21772
G1 X89.639 Y160.608 E7.22763
G1 X89.64 Y74.575 E10.0891
G1 X89.649 Y73.91 E10.11122
G1 X89.702 Y72.974 E10.1424
G1 X89.834 Y72.045 E10.17361
G1 X90.045 Y71.131 E10.20481
G1 X90.333 Y70.239 E10.23599
G1 X90.696 Y69.374 E10.26719
G1 X91.131 Y68.543 E10.29839
G1 X91.635 Y67.753 E10.32955
G0 F6000 X92.031 Y67.885
G1 F1200 X92.6 Y67.161 E10.36018
G1 X93.228 Y66.489 E10.39077
G1 X93.913 Y65.873 E10.42141
G1 X94.649 Y65.32 E10.45203
G1 X95.43 Y64.832 E10.48266
G1 X96.25 Y64.414 E10.51327
G1 X97.104 Y64.069 E10.54391
G1 X97.984 Y63.799 E10.57452
G1 X98.884 Y63.607 E10.60513
G1 X99.798 Y63.493 E10.63577
G1 X100.753 Y63.46 E10.66755
G1 X100.955 Y63.462 E10.67427
G1 X101.874 Y63.511 E10.70488
G1 X102.493 Y63.589 E10.72563
G1 X103.59 Y63.761 E10.76256
G1 X106.155 Y64.127 E10.84874
G1 X108.663 Y64.412 E10.93269
G1 X111.199 Y64.628 E11.01734
G1 X113.702 Y64.77 E11.10073
G1 X116.254 Y64.843 E11.18564
G1 X118.764 Y64.843 E11.26913
G1 X121.302 Y64.772 E11.35357
G1 X123.825 Y64.629 E11.43762
G1 X126.347 Y64.415 E11.52181
G1 X128.829 Y64.134 E11.60489
G1 X131.417 Y63.766 E11.69183
G1 X132.278 Y63.624 E11.72085
G1 X132.781 Y63.553 E11.73775
G1 X132.997 Y63.528 E11.74498
G1 X134.372 Y63.459 E11.79077
G1 X134.508 Y63.461 E11.79529
G1 X135.427 Y63.515 E11.82591
G1 X136.338 Y63.648 E11.85653
G1 X137.234 Y63.859 E11.88715
G1 X138.108 Y64.148 E11.91777
G1 X138.954 Y64.511 E11.94839
G1 X139.765 Y64.947 E11.97901
G1 X140.536 Y65.451 E12.00965
G1 X141.259 Y66.02 E12.04025
G1 X141.931 Y66.649 E12.07086
G1 X142.546 Y67.335 E12.10151
G1 X143.098 Y68.071 E12.13211
G1 X143.585 Y68.853 E12.16275
G1 X144.002 Y69.674 E12.19337
G1 X144.346 Y70.527 E12.22396
G1 X144.615 Y71.408 E12.2546
G1 X144.806 Y72.309 E12.28524
G1 X144.919 Y73.222 E12.31583
G1 X144.948 Y73.762 E12.33382
G1 X144.957 Y74.082 E12.34447
G1 X144.961 Y74.38 E12.35438
G1 X144.961 Y160.344 E15.21355
G1 X144.952 Y161.072 E15.23777
G1 X144.901 Y161.991 E15.26838
G1 X144.77 Y162.903 E15.29903
G1 X144.56 Y163.799 E15.32964
G1 X144.274 Y164.674 E15.36025
G1 X143.913 Y165.521 E15.39088
G1 X143.479 Y166.333 E15.4215
G1 X142.977 Y167.105 E15.45213
G1 X142.409 Y167.83 E15.48276
G1 X141.781 Y168.503 E15.51338
G1 X141.097 Y169.119 E15.54399
G1 X140.362 Y169.673 E15.5746
G1 X139.582 Y170.162 E15.60522
G1 X138.762 Y170.581 E15.63585
G1 X137.909 Y170.927 E15.66647
G1 X137.029 Y171.198 E15.69709
G1 X136.129 Y171.391 E15.72771
G1 X135.215 Y171.506 E15.75835
G1 X134.249 Y171.54 E15.7905
G1 X134.046 Y171.538 E15.79725
G1 X133.126 Y171.489 E15.82789
G1 X132.507 Y171.411 E15.84864
G1 X131.41 Y171.239 E15.88557
G1 X128.845 Y170.873 E15.97175
G1 X126.337 Y170.588 E16.0557
G1 X123.801 Y170.372 E16.14036
G1 X121.298 Y170.23 E16.22374
G1 X118.746 Y170.157 E16.30866
G1 X116.236 Y170.157 E16.39214
G1 X113.698 Y170.228 E16.47659
G1 X111.175 Y170.371 E16.56064
G1 X108.653 Y170.585 E16.64482
G1 X106.171 Y170.866 E16.7279
G1 X103.596 Y171.232 E16.8144
G1 X102.691 Y171.381 E16.84491
G1 X101.592 Y171.503 E16.88169
G1 X101.267 Y171.522 E16.89251
G1 X100.346 Y171.536 E16.92315
G1 X99.428 Y171.47 E16.95376
G1 X98.519 Y171.324 E16.98438
G1 X97.626 Y171.1 E17.015
G1 X96.756 Y170.799 E17.04562
G1 X95.915 Y170.425 E17.07624
G1 X95.11 Y169.978 E17.10686
G1 X94.346 Y169.463 E17.13751
G1 X93.63 Y168.884 E17.16813
G1 X92.968 Y168.245 E17.19874
G1 X92.363 Y167.551 E17.22936
G1 X91.82 Y166.808 E17.25997
G1 X91.344 Y166.019 E17.29061
G1 X90.939 Y165.193 E17.32121
G1 X90.606 Y164.334 E17.35185
G1 X90.35 Y163.45 E17.38246
G1 X90.171 Y162.547 E17.41308
G1 X90.052 Y161.227 E17.45716
G1 X90.043 Y160.895 E17.46821
G1 X90.039 Y160.608 E17.47776
G1 X90.04 Y74.581 E20.33903
G1 X90.049 Y73.916 E20.36115
G1 X90.101 Y72.996 E20.39179
G1 X90.233 Y72.085 E20.42241
G1 X90.444 Y71.189 E20.45303
G1 X90.731 Y70.314 E20.48366
G1 X91.094 Y69.468 E20.51427
G1 X91.528 Y68.656 E20.5449
G1 X92.031 Y67.885 E20.57552
G0 F6000 X92.427 Y68.021
G1 F1200 X92.994 Y67.317 E20.60558
G1 X93.62 Y66.667 E20.6356
G1 X94.301 Y66.074 E20.66563
G1 X95.033 Y65.544 E20.69569
G1 X95.808 Y65.081 E20.72571
G1 X96.621 Y64.688 E20.75575
G1 X97.466 Y64.368 E20.7858
G1 X98.335 Y64.125 E20.81581
G1 X99.223 Y63.959 E20.84586
G1 X100.122 Y63.873 E20.8759
G1 X100.749 Y63.859 E20.89676
G1 X100.951 Y63.861 E20.90347
G1 X101.853 Y63.91 E20.93352
G1 X102.431 Y63.984 E20.9529
G1 X103.538 Y64.158 E20.99017
G1 X106.094 Y64.522 E21.07604
G1 X108.651 Y64.813 E21.16164
G1 X111.143 Y65.025 E21.24482
G1 X113.703 Y65.17 E21.3301
G1 X116.242 Y65.243 E21.41459
G1 X118.775 Y65.243 E21.49883
G1 X121.302 Y65.172 E21.58292
G1 X123.843 Y65.028 E21.66756
G1 X126.393 Y64.812 E21.75268
G1 X128.894 Y64.528 E21.8364
G1 X131.494 Y64.159 E21.92374
G1 X132.343 Y64.019 E21.95236
G1 X132.827 Y63.951 E21.96862
G1 X133.043 Y63.926 E21.97585
G1 X134.366 Y63.859 E22.01991
G1 X134.502 Y63.861 E22.02443
G1 X135.404 Y63.914 E22.05449
G1 X136.297 Y64.047 E22.08452
G1 X137.175 Y64.258 E22.11455
G1 X138.031 Y64.547 E22.1446
G1 X138.858 Y64.909 E22.17462
G1 X139.65 Y65.344 E22.20468
G1 X140.4 Y65.846 E22.2347
G1 X141.103 Y66.414 E22.26476
G1 X141.753 Y67.041 E22.29479
G1 X142.344 Y67.723 E22.32481
G1 X142.874 Y68.455 E22.35487
G1 X143.336 Y69.23 E22.38488
G1 X143.728 Y70.044 E22.41493
G1 X144.047 Y70.889 E22.44497
G1 X144.289 Y71.759 E22.475
G1 X144.454 Y72.647 E22.50504
G1 X144.548 Y73.773 E22.54262
G1 X144.557 Y74.093 E22.55327
G1 X144.561 Y74.38 E22.56282
G1 X144.561 Y160.339 E25.42183
G1 X144.552 Y161.067 E25.44604
G1 X144.501 Y161.969 E25.47609
G1 X144.37 Y162.862 E25.50611
G1 X144.161 Y163.741 E25.53616
G1 X143.875 Y164.597 E25.56618
G1 X143.514 Y165.425 E25.59622
G1 X143.082 Y166.218 E25.62625
G1 X142.581 Y166.97 E25.65631
G1 X142.015 Y167.674 E25.68635
G1 X141.39 Y168.325 E25.71637
G1 X140.709 Y168.919 E25.74642
G1 X139.978 Y169.449 E25.77646
G1 X139.204 Y169.914 E25.80649
G1 X138.391 Y170.308 E25.83654
G1 X137.547 Y170.628 E25.86656
G1 X136.677 Y170.873 E25.89662
G1 X135.79 Y171.039 E25.92663
G1 X134.891 Y171.127 E25.95668
G1 X134.253 Y171.141 E25.9779
G1 X134.05 Y171.139 E25.98465
G1 X133.148 Y171.09 E26.0147
G1 X132.569 Y171.016 E26.03411
G1 X131.462 Y170.842 E26.07138
G1 X128.906 Y170.478 E26.15726
G1 X126.349 Y170.187 E26.24285
G1 X123.857 Y169.975 E26.32603
G1 X121.297 Y169.83 E26.41132
G1 X118.758 Y169.757 E26.4958
G1 X116.225 Y169.757 E26.58005
G1 X113.698 Y169.828 E26.66413
G1 X111.157 Y169.972 E26.74878
G1 X108.607 Y170.188 E26.8339
G1 X106.106 Y170.472 E26.91761
G1 X103.518 Y170.839 E27.00455
G1 X102.626 Y170.986 E27.03462
G1 X101.568 Y171.104 E27.07003
G1 X101.243 Y171.123 E27.08086
G1 X100.34 Y171.135 E27.11089
G1 X99.44 Y171.068 E27.14091
G1 X98.549 Y170.922 E27.17094
G1 X97.674 Y170.697 E27.20099
G1 X96.823 Y170.395 E27.23102
G1 X96.001 Y170.02 E27.26107
G1 X95.216 Y169.573 E27.29112
G1 X94.474 Y169.059 E27.32114
G1 X93.78 Y168.481 E27.35118
G1 X93.14 Y167.844 E27.38121
G1 X92.559 Y167.153 E27.41124
G1 X92.041 Y166.413 E27.44128
G1 X91.59 Y165.63 E27.47134
G1 X91.211 Y164.811 E27.50135
G1 X90.906 Y163.961 E27.53139
G1 X90.677 Y163.087 E27.56144
G1 X90.526 Y162.197 E27.59146
G1 X90.452 Y161.216 E27.62418
G1 X90.443 Y160.884 E27.63523
G1 X90.439 Y160.608 E27.64441
G1 X90.44 Y74.586 E30.50551
G1 X90.449 Y73.921 E30.52763
G1 X90.501 Y73.019 E30.55769
G1 X90.633 Y72.126 E30.58771
G1 X90.843 Y71.248 E30.61774
G1 X91.13 Y70.391 E30.6478
G1 X91.492 Y69.564 E30.67782
G1 X91.925 Y68.772 E30.70784
G1 X92.427 Y68.021 E30.73789
G1 F2700 E25.73789
;MESH:Viking Trader Stand_With Inscription.stl
G0 F6000 X99.974 Y76.392
G0 X101.042 Y76.392
G0 X107.337 Y93.608
G0 X127.904 Y93.953
G0 X133.558 Y78.633
G0 X133.761 Y114.304
;TYPE:WALL-INNER
G1 F2700 E30.73789
G1 F1200 X133.375 Y113.279 E30.77432
G1 X127.768 Y98.379 E31.30382
G1 X107.233 Y98.378 E31.98682
G1 X101.625 Y113.277 E32.5163
G1 X101.239 Y114.302 E32.55273
G1 X101.239 Y113.207 E32.57124
G1 X101.239 Y113.206 E32.57127
G1 X101.239 Y78.617 E33.72171
G1 X101.239 Y78.616 E33.72174
G1 X101.239 Y77.496 E33.75899
G1 X101.625 Y78.548 E33.77791
G1 X107.22 Y93.776 E34.3175
G1 X127.779 Y93.775 E35.0013
G1 X133.375 Y78.544 E35.54099
G1 X133.761 Y77.492 E35.57826
G1 X133.761 Y78.612 E35.59717
G1 X133.761 Y78.613 E35.5972
G1 X133.761 Y113.208 E36.74784
G1 X133.761 Y113.209 E36.74787
G1 X133.761 Y114.304 E36.76638
G1 F2700 E31.76638
G0 F6000 X133.944 Y115.306
G0 X134.161 Y116.502
;TYPE:WALL-OUTER
G1 F2700 E36.76638
G1 F1200 X127.491 Y98.779 E37.39621
G1 X107.51 Y98.778 E38.06078
G1 X100.839 Y116.499 E38.69057
G1 X100.839 Y75.248 E40.06258
G1 X107.499 Y93.376 E40.70492
G1 X127.5 Y93.375 E41.37016
G1 X134.161 Y75.245 E42.01257
G1 X134.161 Y116.502 E43.38479
G1 F2700 E38.38479
G0 F6000 X133.911 Y115.128
G0 X133.958 Y115.385
G0 X132.96 Y115.762
G0 X132.959 Y119.239
G0 X133.959 Y119.615
G0 X133.762 Y157.507
;TYPE:WALL-INNER
G1 F2700 E43.38479
G1 F1200 X133.376 Y156.455 E43.42206
G1 X127.78 Y141.224 E43.96175
G1 X107.221 Y141.225 E44.64555
G1 X101.625 Y156.455 E45.18521
G1 X101.239 Y157.507 E45.22248
G1 X101.239 Y156.387 E45.24139
G1 X101.239 Y156.386 E45.24142
G1 X101.239 Y121.792 E46.39203
G1 X101.239 Y121.791 E46.39206
G1 X101.239 Y120.696 E46.42848
G1 X101.625 Y121.721 E46.44699
G1 X107.232 Y136.621 E46.9765
G1 X127.767 Y136.622 E47.65949
G1 X133.376 Y121.72 E48.18908
G1 X133.762 Y120.695 E48.22551
G1 X133.762 Y121.79 E48.24402
G1 X133.762 Y121.791 E48.24405
G1 X133.762 Y156.386 E49.39469
G1 X133.762 Y156.387 E49.39472
G1 X133.762 Y157.507 E49.41363
G1 F2700 E44.41363
G0 F6000 X133.945 Y158.532
G0 X134.162 Y159.755
;TYPE:WALL-OUTER
G1 F2700 E49.41363
G1 F1200 X127.501 Y141.624 E50.05608
G1 X107.5 Y141.625 E50.72131
G1 X100.839 Y159.754 E51.3637
G1 X100.839 Y118.498 E52.73588
G1 X107.509 Y136.221 E53.36571
G1 X127.49 Y136.222 E54.03028
G1 X134.162 Y118.498 E54.66017
G1 X134.162 Y159.755 E56.03238
G0 F6000 X133.945 Y158.532
G0 X133.652 Y155.314
G0 X133.372 Y155.314
;TYPE:SKIN
G1 F1200 X128.053 Y140.834 E56.54545
G1 X106.948 Y140.835 E57.24741
G1 X101.629 Y155.314 E57.76045
G1 X101.629 Y122.839 E58.84057
G1 X106.962 Y137.011 E59.3442
G1 X128.036 Y137.012 E60.04513
G1 X133.372 Y122.838 E60.54886
G1 X133.372 Y155.314 E61.62901
G1 F2700 E56.62901
G0 F6000 X133.652 Y155.314
G0 X133.559 Y121.811
G0 X132.681 Y123.884
G0 X133.089 Y124.038
G1 F2700 E61.62901
G1 F1200 X133.211 Y124.16 E61.63475
G0 F6000 X132.934 Y124.449
G1 F1200 X133.211 Y124.726 E61.64778
G0 F6000 X132.779 Y124.86
G1 F1200 X133.211 Y125.292 E61.6681
G0 F6000 X133.211 Y125.857
G1 F1200 X132.624 Y125.271 E61.69569
G0 F6000 X132.47 Y125.682
G1 F1200 X133.211 Y126.423 E61.73054
G0 F6000 X133.211 Y126.989
G1 F1200 X132.315 Y126.093 E61.77269
G0 F6000 X132.161 Y126.504
G1 F1200 X133.211 Y127.554 E61.82208
G0 F6000 X133.211 Y128.12
G1 F1200 X132.006 Y126.915 E61.87876
G0 F6000 X131.852 Y127.326
G1 F1200 X133.211 Y128.686 E61.9427
G0 F6000 X133.211 Y129.252
G1 F1200 X131.697 Y127.737 E62.01394
G0 F6000 X131.542 Y128.148
G1 F1200 X133.211 Y129.817 E62.09245
G0 F6000 X133.211 Y130.383
G1 F1200 X131.387 Y128.559 E62.17824
G0 F6000 X131.233 Y128.97
G1 F1200 X133.211 Y130.949 E62.2713
G0 F6000 X133.211 Y131.514
G1 F1200 X131.078 Y129.381 E62.37163
G0 F6000 X130.923 Y129.792
G1 F1200 X133.211 Y132.08 E62.47925
G0 F6000 X133.211 Y132.646
G1 F1200 X130.768 Y130.203 E62.59417
G0 F6000 X130.613 Y130.613
G1 F1200 X133.211 Y133.211 E62.71637
G0 F6000 X133.211 Y133.777
G1 F1200 X130.459 Y131.025 E62.84581
G0 F6000 X130.304 Y131.436
G1 F1200 X133.211 Y134.343 E62.98255
G0 F6000 X133.211 Y134.908
G1 F1200 X130.15 Y131.847 E63.12653
G0 F6000 X129.995 Y132.257
G1 F1200 X133.211 Y135.474 E63.27782
G0 F6000 X133.211 Y136.04
G1 F1200 X129.841 Y132.669 E63.43636
G0 F6000 X129.686 Y133.08
G1 F1200 X133.211 Y136.605 E63.60217
G0 F6000 X133.211 Y137.171
G1 F1200 X129.531 Y133.491 E63.77526
G0 F6000 X129.376 Y133.901
G1 F1200 X133.211 Y137.737 E63.95567
G0 F6000 X133.211 Y138.303
G1 F1200 X129.221 Y134.312 E64.14337
G0 F6000 X129.067 Y134.724
G1 F1200 X133.211 Y138.868 E64.33829
G0 F6000 X133.211 Y139.434
G1 F1200 X128.912 Y135.135 E64.54051
